%
(Header)
(Generated by gcodetools from Inkscape.)
(Using default header. To add your own header create file "header" in the output dir.)
M3
(Header end.)
G21 (All units in mm)

(Start cutting path id: path6)
(Change tool to Default tool)

G00 Z5.000000
G00 X160.911941 Y367.466626

G01 Z-0.125000 F100.0(Penetrate)
G03 X155.300648 Y367.115690 Z-0.125000 I1.151563 J-63.449402 F400.000000
G02 X149.685247 Y366.714218 Z-0.125000 I-8.476120 J79.083492
G02 X141.621577 Y366.428432 Z-0.125000 I-7.931988 J109.902820
G02 X133.558088 Y366.624302 Z-0.125000 I0.208739 J174.668017
G02 X128.629338 Y366.893087 Z-0.125000 I-0.625636 J33.851603
G03 X123.743196 Y367.420633 Z-0.125000 I-15.703769 J-122.557023
G03 X123.921218 Y366.028524 Z-0.125000 I2.760969 J-0.354368
G03 X125.008750 Y364.964456 Z-0.125000 I1.753695 J0.704576
G02 X127.596373 Y363.206376 Z-0.125000 I-3.632323 J-8.129550
G02 X128.810064 Y360.471713 Z-0.125000 I-2.819186 J-2.887864
G02 X130.610799 Y330.047465 Z-0.125000 I-590.335220 J-50.205882
G02 X131.076588 Y299.575766 Z-0.125000 I-840.966107 J-28.094367
G02 X122.625759 Y293.837789 Z-0.125000 I-56.679219 J74.384395
G02 X113.610493 Y288.807444 Z-0.125000 I-80.950832 J134.484535
G02 X110.212352 Y287.272646 Z-0.125000 I-92.407693 J200.067365
G02 X106.564936 Y286.254631 Z-0.125000 I-5.344119 J12.104161
G02 X106.185205 Y293.592254 Z-0.125000 I133.457852 J10.585249
G03 X105.863172 Y300.920384 Z-0.125000 I-186.548194 J-4.526672
G02 X105.710615 Y306.667195 Z-0.125000 I213.118529 J8.532952
G03 X105.621327 Y312.412174 Z-0.125000 I-1159.457597 J-15.146980
G02 X105.333091 Y319.942810 Z-0.125000 I112.065474 J8.060155
G03 X105.214634 Y327.475836 Z-0.125000 I-342.119504 J-1.612396
G02 X105.021131 Y336.434612 Z-0.125000 I264.591363 J10.196448
G02 X105.000176 Y345.400816 Z-0.125000 I1918.209395 J8.966203
G02 X105.050756 Y348.817558 Z-0.125000 I1293.849902 J-17.444921
G02 X105.394984 Y352.220549 Z-0.125000 I20.215241 J-0.325957
G02 X106.821261 Y355.227460 Z-0.125000 I8.900413 J-2.380037
G02 X109.525993 Y357.487920 Z-0.125000 I5.776414 J-4.163323
G02 X109.711534 Y358.541279 Z-0.125000 I355.534637 J-62.081855
G03 X109.897547 Y359.599933 Z-0.125000 I-277.833844 J49.362989
G03 X104.632240 Y359.532426 Z-0.125000 I1.231845 J-301.452314
G03 X99.377272 Y359.284706 Z-0.125000 I2.219027 J-102.934496
G02 X93.237689 Y359.184691 Z-0.125000 I-10.776455 J473.036969
G03 X87.104134 Y359.098156 Z-0.125000 I6.977772 J-711.997542
G02 X83.087162 Y358.922940 Z-0.125000 I-3.447570 J32.904520
G03 X79.069492 Y358.933308 Z-0.125000 I-2.363130 J-137.287376
G03 X76.382109 Y358.918129 Z-0.125000 I-1.048063 J-52.349309
G02 X73.699801 Y359.058882 Z-0.125000 I-0.502708 J16.048595
G02 X71.750418 Y359.178590 Z-0.125000 I106.223053 J1745.716535
G03 X69.799268 Y359.155515 Z-0.125000 I-0.819347 J-13.221938
G03 X68.850782 Y358.539891 Z-0.125000 I0.309458 J-1.515253
G03 X68.487722 Y357.563369 Z-0.125000 I1.618528 J-1.157503
G02 X73.613277 Y354.804282 Z-0.125000 I-4.669632 J-14.815191
G02 X76.484124 Y350.090965 Z-0.125000 I-5.196762 J-6.396275
G03 X77.224936 Y332.152365 Z-0.125000 I5885.499006 J234.069217
G02 X77.842179 Y314.201729 Z-0.125000 I-1064.903923 J-45.603253
G02 X78.098099 Y308.819444 Z-0.125000 I-54.064763 J-5.267936
G03 X78.187377 Y303.426689 Z-0.125000 I144.538147 J-0.304260
G02 X78.477331 Y296.270274 Z-0.125000 I-89.559851 J-7.212741
G03 X78.609057 Y289.112333 Z-0.125000 I201.407363 J0.126262
G03 X78.632653 Y285.619159 Z-0.125000 I95.637811 J-1.100621
G02 X78.497953 Y282.127758 Z-0.125000 I-27.487404 J-0.687817
G02 X76.345005 Y282.595408 Z-0.125000 I0.051752 J5.427905
G03 X74.363325 Y283.450673 Z-0.125000 I-40.538115 J-91.204858
G02 X67.134511 Y286.898007 Z-0.125000 I71.490961 J159.214264
G02 X60.249476 Y290.851760 Z-0.125000 I33.584641 J66.455682
G02 X57.872940 Y292.512072 Z-0.125000 I32.612522 J49.211888
G02 X55.746916 Y294.423115 Z-0.125000 I8.672257 J11.785956
G02 X61.678292 Y297.702895 Z-0.125000 I37.117172 J-60.121964
G03 X67.686224 Y300.859406 Z-0.125000 I-56.257314 J114.372961
G03 X68.178736 Y301.673969 Z-0.125000 I-0.404412 J0.800697
G02 X68.169397 Y302.551808 Z-0.125000 I91.046487 J1.407524
G03 X58.675359 Y301.104545 Z-0.125000 I25.701927 J-200.468554
G03 X49.533348 Y298.395995 Z-0.125000 I7.362628 J-41.633173
G01 X49.533348 Y297.660640 Z-0.125000
G03 X51.741660 Y293.247348 Z-0.125000 I41.061978 J17.787346
G03 X54.381109 Y289.022933 Z-0.125000 I54.978112 J31.414003
G03 X58.026955 Y284.599073 Z-0.125000 I34.468938 J24.692701
G03 X62.864818 Y281.123684 Z-0.125000 I11.410215 J10.778485
G03 X70.829779 Y277.400127 Z-0.125000 I92.466110 J187.411224
G03 X78.904646 Y273.866257 Z-0.125000 I476.421665 J1077.627373
G03 X79.071065 Y263.920844 Z-0.125000 I4466.944330 J69.772152
G02 X79.153724 Y253.976023 Z-0.125000 I-521.530731 J-9.307641
G03 X78.985400 Y246.787458 Z-0.125000 I197.419122 J-8.218950
G02 X78.727913 Y239.604824 Z-0.125000 I-117.384745 J0.612141
G02 X78.339014 Y235.958534 Z-0.125000 I-174.579679 J16.776080
G02 X77.082537 Y232.419226 Z-0.125000 I-8.380891 J0.982587
G02 X72.586793 Y227.962137 Z-0.125000 I-11.593131 J7.197762
G02 X66.681118 Y225.107536 Z-0.125000 I-17.661849 J29.003099
G02 X66.619921 Y224.494401 Z-0.125000 I-757.103446 J75.241030
G03 X66.558645 Y223.881257 Z-0.125000 I1104.734414 J-110.682028
G03 X66.562050 Y223.284550 Z-0.125000 I0.124527 J-0.297653
G03 X67.249040 Y223.049266 Z-0.125000 I2.485813 J6.137554
G02 X84.338567 Y222.820482 Z-0.125000 I-5.158433 J-1023.707864
G02 X101.410219 Y222.099455 Z-0.125000 I-9.068263 J-417.169829
G02 X106.540097 Y221.663119 Z-0.125000 I-99.057705 J-1194.967179
G02 X111.631288 Y220.930535 Z-0.125000 I-3.998895 J-45.848111
G02 X113.177141 Y220.517081 Z-0.125000 I-2.558013 J-12.660689
G03 X114.791816 Y220.349693 Z-0.125000 I1.181555 J3.526132
G03 X114.717675 Y221.471397 Z-0.125000 I-0.657171 J0.519865
G03 X113.752087 Y222.225029 Z-0.125000 I-3.997823 J-4.126800
G02 X109.764095 Y224.637059 Z-0.125000 I35.528063 J63.244080
G02 X107.082736 Y228.266512 Z-0.125000 I3.503649 J5.393609
G02 X106.899665 Y232.406955 Z-0.125000 I25.034687 J3.181185
G03 X106.871895 Y236.549719 Z-0.125000 I-46.297964 J1.761128
G03 X106.682881 Y256.251387 Z-0.125000 I-4297.720509 J-31.379886
G02 X106.511194 Y275.952949 Z-0.125000 I3105.921149 J36.917745
G03 X119.356759 Y279.470086 Z-0.125000 I-21.599769 J104.104739
G03 X130.953599 Y285.519794 Z-0.125000 I-14.093707 J41.156580
G02 X131.702249 Y276.037540 Z-0.125000 I-84.661706 J-11.454957
G03 X132.004697 Y266.540615 Z-0.125000 I543.220977 J12.546651
G02 X132.121591 Y252.363844 Z-0.125000 I-319.331397 J-9.721895
G02 X131.663115 Y238.191994 Z-0.125000 I-385.390017 J5.374468
G02 X130.903544 Y230.371070 Z-0.125000 I-486.868191 J43.337526
G02 X129.074647 Y222.658593 Z-0.125000 I-30.881514 J3.249995
G02 X125.521950 Y217.612200 Z-0.125000 I-11.542193 J4.352029
G02 X120.206981 Y214.028123 Z-0.125000 I-18.698866 J21.996357
G03 X120.741609 Y212.501891 Z-0.125000 I2.028601 J-0.146150
G02 X121.587774 Y211.058798 Z-0.125000 I-2.873703 J-2.654632
G02 X131.758984 Y211.601387 Z-0.125000 I9.654612 J-85.377936
G02 X141.949814 Y211.535772 Z-0.125000 I-71.907088 J-11959.559586
G02 X152.745344 Y210.776094 Z-0.125000 I-6.117482 J-164.019087
G02 X163.465786 Y209.409290 Z-0.125000 I-23.612638 J-227.930149
G03 X164.428464 Y209.358936 Z-0.125000 I0.838071 J6.794890
G02 X165.398998 Y209.370015 Z-0.125000 I1.301556 J-71.500414
G03 X165.811617 Y210.166364 Z-0.125000 I-8.825283 J5.077786
G03 X166.139003 Y210.990586 Z-0.125000 I-7.201038 J3.337424
G03 X163.677105 Y212.585753 Z-0.125000 I-5.872958 J-6.366652
G02 X161.310363 Y214.318545 Z-0.125000 I2.564081 J5.984869
G02 X157.664728 Y220.959896 Z-0.125000 I10.585941 J10.132211
G02 X156.493092 Y228.173495 Z-0.125000 I44.672132 J10.957617
G02 X156.321670 Y237.474737 Z-0.125000 I494.735014 J13.770193
G02 X156.270885 Y246.779572 Z-0.125000 I1302.516893 J11.761584
G02 X156.208347 Y254.677728 Z-0.125000 I142.064906 J5.074198
G03 X156.094151 Y262.578072 Z-0.125000 I-115.109770 J2.287139
G01 X156.017671 Y299.578866 Z-0.125000
G02 X163.671613 Y302.384240 Z-0.125000 I13.297590 J-24.436138
G02 X171.757774 Y303.942935 Z-0.125000 I60.286503 J-290.998943
G03 X166.594991 Y299.270770 Z-0.125000 I282.822501 J-317.709874
G03 X162.138735 Y294.050010 Z-0.125000 I19.330339 J-21.011925
G03 X160.922060 Y291.699974 Z-0.125000 I12.757286 J-8.094749
G03 X160.788949 Y289.069444 Z-0.125000 I3.657801 J-1.503726
G03 X163.167503 Y280.941751 Z-0.125000 I63.699464 J14.229642
G02 X165.997411 Y272.930397 Z-0.125000 I-396.662917 J-144.621564
G02 X168.514257 Y265.785705 Z-0.125000 I-1253.918671 J-445.730988
G03 X171.025520 Y258.637748 Z-0.125000 I1781.242820 J621.781768
G03 X172.504880 Y256.924156 Z-0.125000 I2.463598 J0.631479
G03 X174.737950 Y256.170718 Z-0.125000 I6.341820 J15.110187
G03 X177.819185 Y255.644869 Z-0.125000 I30.143368 J167.336031
G03 X180.882271 Y256.371222 Z-0.125000 I0.654690 J4.060933
G02 X186.580167 Y260.428777 Z-0.125000 I597.303052 J-832.744049
G02 X192.349775 Y264.406896 Z-0.125000 I172.063100 J-243.376306
G03 X192.881674 Y260.329064 Z-0.125000 I50.350209 J4.493919
G03 X195.556293 Y256.772748 Z-0.125000 I4.799729 J0.825843
G03 X200.165820 Y256.297919 Z-0.125000 I3.546531 J11.817388
G03 X204.404319 Y258.027966 Z-0.125000 I-0.664600 J7.685267
G03 X207.191656 Y261.127416 Z-0.125000 I-7.759435 J9.781117
G02 X209.988468 Y264.220346 Z-0.125000 I10.382912 J-6.577858
G03 X214.892083 Y268.235013 Z-0.125000 I-352.315266 J435.328751
G03 X219.737732 Y272.306146 Z-0.125000 I-286.401094 J345.807100
G03 X220.449276 Y272.986623 Z-0.125000 I-7.476355 J8.529931
G03 X220.873063 Y273.848170 Z-0.125000 I-1.146169 J1.098792
G02 X217.292347 Y273.498084 Z-0.125000 I-2.989729 J12.092249
G02 X213.800635 Y274.296204 Z-0.125000 I0.481878 J10.145216
G02 X213.879335 Y281.168071 Z-0.125000 I324.796755 J-0.283357
G03 X213.980985 Y288.040050 Z-0.125000 I-474.477573 J10.455203
G03 X214.284472 Y296.994079 Z-0.125000 I-103.431078 J7.987837
G02 X214.280192 Y305.951078 Z-0.125000 I506.835325 J4.720706
G03 X214.084860 Y313.771166 Z-0.125000 I-190.206996 J-0.838536
G03 X213.244595 Y321.566642 Z-0.125000 I-63.372394 J-2.887811
G03 X212.175737 Y324.592344 Z-0.125000 I-11.944745 J-2.517952
G03 X210.488180 Y327.328040 Z-0.125000 I-17.624043 J-8.983322
G03 X210.745824 Y327.244592 Z-0.125000 I2.017260 J5.788785
G03 X210.969803 Y327.182832 Z-0.125000 I1.510313 J5.040256
G02 X216.805749 Y327.498162 Z-0.125000 I5.375436 J-45.323609
G03 X222.655897 Y327.466018 Z-0.125000 I6.422517 J636.504775
G02 X223.080751 Y320.736139 Z-0.125000 I-41.116998 J-5.974042
G03 X223.350428 Y314.008975 Z-0.125000 I57.804602 J-1.051730
G03 X223.472381 Y302.518337 Z-0.125000 I5245.691699 J49.927865
G02 X223.534395 Y291.027978 Z-0.125000 I-910.288642 J-10.658240
G03 X223.657928 Y288.879749 Z-0.125000 I10.489544 J-0.474468
G02 X223.741616 Y286.729020 Z-0.125000 I-8.787850 J-1.418941
G02 X223.770176 Y271.487182 Z-0.125000 I-19559.087832 J-44.271361
G02 X223.776240 Y256.239965 Z-0.125000 I-7017.299390 J-10.414250
G02 X223.686638 Y255.496413 Z-0.125000 I-1.799539 J-0.160320
G02 X223.258443 Y254.837468 Z-0.125000 I-1.517796 J0.517695
G02 X221.427974 Y253.419976 Z-0.125000 I-7.056900 J7.222250
G02 X219.373414 Y252.259851 Z-0.125000 I-20.351787 J33.643261
G03 X217.567034 Y250.807225 Z-0.125000 I3.095569 J-5.698880
G03 X216.385487 Y248.924657 Z-0.125000 I5.498748 J-4.763224
G03 X218.087819 Y248.798066 Z-0.125000 I1.637898 J10.516248
G02 X219.791474 Y248.803219 Z-0.125000 I1.702344 J-281.182385
G03 X235.831630 Y248.819694 Z-0.125000 I-461.679012 J457289.488745
G03 X251.862347 Y249.010956 Z-0.125000 I-0.769236 J736.377748
G03 X252.000610 Y249.431118 Z-0.125000 I-87.289748 J28.957405
G03 X252.134679 Y249.850182 Z-0.125000 I-35.630479 J11.630090
G03 X251.917734 Y250.200175 Z-0.125000 I-28.131879 J-17.195517
G03 X251.697498 Y250.545744 Z-0.125000 I-27.682260 J-17.399267
G02 X249.123588 Y251.900009 Z-0.125000 I18.559089 J38.396445
G02 X247.286921 Y254.023563 Z-0.125000 I2.090354 J3.663998
G02 X246.248563 Y263.728681 Z-0.125000 I76.913922 J13.137184
G03 X245.449826 Y273.436825 Z-0.125000 I-127.772281 J-5.625531
G03 X244.744357 Y281.359562 Z-0.125000 I-141.727839 J-8.627174
G02 X244.018905 Y289.278216 Z-0.125000 I155.089206 J18.200747
G02 X243.749260 Y293.558077 Z-0.125000 I19.406116 J3.371075
G03 X243.516613 Y297.826520 Z-0.125000 I-21.258525 J0.981890
G03 X243.147608 Y310.047461 Z-0.125000 I-715.564125 J-15.490028
G02 X242.703743 Y322.270476 Z-0.125000 I2516.174254 J97.491755
G03 X242.634898 Y324.045359 Z-0.125000 I-27.769242 J-0.188338
G02 X242.810714 Y325.820126 Z-0.125000 I5.273080 J0.373721
G02 X244.679058 Y325.884372 Z-0.125000 I0.972708 J-1.088554
G02 X245.602787 Y324.436233 Z-0.125000 I-1.568994 J-2.019499
G03 X247.451488 Y318.474252 Z-0.125000 I499.695737 J151.678928
G02 X249.277493 Y312.503124 Z-0.125000 I-301.186833 J-95.369386
G03 X250.098369 Y309.794994 Z-0.125000 I86.072769 J24.611534
G02 X250.777141 Y307.060054 Z-0.125000 I-20.086370 J-6.436841
G03 X250.934334 Y306.957709 Z-0.125000 I21.491252 J32.836633
G02 X251.091333 Y306.855415 Z-0.125000 I-18.710928 J-28.888966
G02 X249.349954 Y305.026579 Z-0.125000 I-356.288592 J337.507061
G02 X247.535999 Y303.244788 Z-0.125000 I-29.763647 J28.486683
G02 X248.282700 Y302.462538 Z-0.125000 I-6.083503 J-6.554543
G02 X248.909042 Y301.591660 Z-0.125000 I-5.247432 J-4.434672
G03 X249.877313 Y301.801632 Z-0.125000 I0.127291 J1.750552
G02 X250.730633 Y302.255184 Z-0.125000 I20.788056 J-38.081420
G03 X258.428538 Y306.578177 Z-0.125000 I-584.976110 J1050.675667
G03 X266.026327 Y311.036551 Z-0.125000 I-141.938535 J250.589299
G03 X267.140922 Y312.029598 Z-0.125000 I-1.735897 J3.070404
G03 X267.736300 Y313.278270 Z-0.125000 I-3.041229 J2.216362
G03 X267.568947 Y298.092310 Z-0.125000 I6341.634330 J-77.480213
G03 X267.470156 Y282.902385 Z-0.125000 I2288.378944 J-22.478284
G03 X266.932273 Y274.845334 Z-0.125000 I2263.482974 J-155.155037
G02 X265.782937 Y266.823801 Z-0.125000 I-52.268424 J3.395985
G02 X264.541031 Y264.235252 Z-0.125000 I-5.830835 J1.205266
G02 X262.526799 Y262.079909 Z-0.125000 I-18.728054 J15.483082
G02 X260.056141 Y260.004611 Z-0.125000 I-37.284843 J41.879557
G02 X257.318337 Y258.196948 Z-0.125000 I-11.814003 J14.915839
G01 X257.107496 Y257.727210 Z-0.125000
G02 X258.707969 Y257.127110 Z-0.125000 I-9.690644 J-28.279381
G02 X260.278875 Y256.471991 Z-0.125000 I-41.304425 J-101.254534
G03 X263.451372 Y255.895670 Z-0.125000 I2.812561 J6.462368
G02 X266.684159 Y255.980549 Z-0.125000 I3.324375 J-65.009276
G02 X269.160934 Y256.207915 Z-0.125000 I2.307233 J-11.529613
G03 X271.650779 Y256.335564 Z-0.125000 I0.274016 J19.001778
G02 X277.177185 Y256.816414 Z-0.125000 I8.931511 J-70.651916
G02 X282.738977 Y256.701434 Z-0.125000 I1.942985 J-40.589026
G02 X286.161623 Y256.601178 Z-0.125000 I-0.630832 J-80.009139
G03 X289.619166 Y256.486461 Z-0.125000 I5.003091 J98.629237
G03 X291.938296 Y256.224764 Z-0.125000 I5.410640 J37.541730
G03 X294.287098 Y256.185188 Z-0.125000 I1.479583 J18.092554
G03 X291.320057 Y259.110063 Z-0.125000 I-13.780563 J-11.011887
G02 X288.768056 Y262.413739 Z-0.125000 I5.107954 J6.583271
G02 X288.662618 Y271.234610 Z-0.125000 I1189.327019 J18.627299
G02 X288.603221 Y280.055017 Z-0.125000 I2919.845202 J24.073028
G02 X288.615370 Y283.458894 Z-0.125000 I76.795862 J1.427857
G03 X288.437856 Y286.860796 Z-0.125000 I-21.890118 J0.563340
G03 X288.432244 Y293.028353 Z-0.125000 I-1304.325363 J1.896882
G03 X288.410975 Y299.195943 Z-0.125000 I-17691.405113 J-57.925765
G02 X290.894712 Y298.773459 Z-0.125000 I-1.749922 J-17.799648
G02 X292.973470 Y297.502509 Z-0.125000 I-0.945946 J-3.882660
G02 X294.145715 Y294.804572 Z-0.125000 I-18.638943 J-9.702193
G03 X295.170753 Y292.063056 Z-0.125000 I76.798441 J27.152132
G02 X296.137911 Y289.373112 Z-0.125000 I-78.949796 J-29.904924
G03 X297.096229 Y286.680961 Z-0.125000 I98.313262 J33.479673
G02 X299.014276 Y281.122284 Z-0.125000 I-734.687585 J-256.617554
G03 X300.912521 Y275.554524 Z-0.125000 I30158.289028 J10278.914586
G02 X305.287658 Y262.360632 Z-0.125000 I-20165.717392 J-6694.338633
G02 X309.488212 Y249.124129 Z-0.125000 I-524.312092 J-173.673223
G02 X309.724047 Y247.912814 Z-0.125000 I-432.445202 J-84.822738
G02 X309.399841 Y246.689653 Z-0.125000 I-1.428217 J-0.275989
G03 X307.645360 Y244.320520 Z-0.125000 I15.382797 J-13.226073
G02 X305.993864 Y241.895637 Z-0.125000 I-37.337810 J23.654535
G02 X300.117499 Y233.188001 Z-0.125000 I-963.084441 J643.602818
G03 X294.296385 Y224.458482 Z-0.125000 I430.681657 J-293.497469
G02 X278.445042 Y224.050934 Z-0.125000 I-10.874225 J114.478351
G02 X262.658571 Y225.390722 Z-0.125000 I8.289764 J191.351101
G03 X257.836126 Y226.109219 Z-0.125000 I-24.599116 J-148.562512
G02 X253.181642 Y227.427289 Z-0.125000 I2.209880 J16.680926
G02 X253.758387 Y230.099223 Z-0.125000 I7.406570 J-0.200518
G03 X254.792394 Y232.644535 Z-0.125000 I-103.431644 J43.500735
G03 X255.236607 Y233.610779 Z-0.125000 I-5.855050 J3.276983
G02 X256.119445 Y234.347788 Z-0.125000 I1.079692 J-0.396060
G02 X262.292310 Y235.953127 Z-0.125000 I62.195973 J-226.485824
G03 X268.480943 Y237.510380 Z-0.125000 I-134.377022 J547.099445
G02 X269.291795 Y237.772442 Z-0.125000 I5.417156 J-15.375909
G03 X269.873099 Y238.420919 Z-0.125000 I-0.234054 J0.794593
G03 X268.014266 Y238.888309 Z-0.125000 I-1.547797 J-2.225631
G02 X266.079534 Y239.034317 Z-0.125000 I-0.588406 J5.094551
G02 X258.593207 Y239.692093 Z-0.125000 I28.368795 J365.804262
G03 X251.099086 Y240.296254 Z-0.125000 I-21.070463 J-214.580370
G03 X246.034097 Y235.541958 Z-0.125000 I77.231854 J-87.354083
G03 X241.664014 Y230.270521 Z-0.125000 I25.460377 J-25.554100
G02 X240.622971 Y228.535646 Z-0.125000 I-17.631051 J9.400032
G03 X240.172117 Y226.620620 Z-0.125000 I2.319175 J-1.556588
G03 X243.855626 Y224.840289 Z-0.125000 I52.927665 J104.806670
G03 X247.631601 Y223.199644 Z-0.125000 I37.688562 J81.575379
G03 X249.766454 Y222.349096 Z-0.125000 I218.238767 J544.669199
G03 X251.931075 Y221.536182 Z-0.125000 I23.751743 J59.957474
G03 X254.040190 Y220.795522 Z-0.125000 I15.051525 J39.487704
G02 X256.169054 Y220.094413 Z-0.125000 I-49.872322 J-155.016099
G03 X259.218869 Y219.147726 Z-0.125000 I88.983292 J281.279728
G03 X262.305623 Y218.290907 Z-0.125000 I18.812410 J61.784526
G03 X271.399379 Y216.170880 Z-0.125000 I32.004031 J116.716136
G03 X280.634721 Y214.608449 Z-0.125000 I38.786345 J201.185726
G03 X290.415252 Y213.725945 Z-0.125000 I25.992174 J233.424923
G03 X300.241248 Y213.475187 Z-0.125000 I7.789134 J112.576614
G03 X317.282500 Y236.348009 Z-0.125000 I-245.667737 J200.817854
G03 X332.442348 Y260.200441 Z-0.125000 I-400.776440 J271.464545
G03 X337.755495 Y269.520361 Z-0.125000 I-261.720530 J155.377384
G02 X343.112478 Y278.817369 Z-0.125000 I211.742997 J-115.815524
G03 X349.255260 Y289.224701 Z-0.125000 I-1046.240282 J624.545164
G03 X354.959790 Y299.815544 Z-0.125000 I-152.018532 J88.713259
G02 X356.676711 Y303.189332 Z-0.125000 I28.537856 J-12.399147
G02 X358.691337 Y306.431153 Z-0.125000 I67.341529 J-39.602406
G02 X358.743633 Y306.884442 Z-0.125000 I485.920784 J-55.831865
G02 X358.798837 Y307.338072 Z-0.125000 I39.359777 J-4.559611
G02 X356.343181 Y307.068454 Z-0.125000 I-2.457824 J11.067842
G02 X353.881826 Y307.108629 Z-0.125000 I-0.014256 J74.544895
G03 X349.511861 Y307.564888 Z-0.125000 I-18.869543 J-159.573547
G03 X345.110794 Y307.804194 Z-0.125000 I-5.519309 J-60.915842
G03 X340.158059 Y307.993668 Z-0.125000 I-3.816955 J-34.947259
G02 X335.230788 Y308.363848 Z-0.125000 I-0.745305 J23.056930
G03 X338.374031 Y306.249473 Z-0.125000 I15.791944 J20.082830
G03 X342.122885 Y305.075681 Z-0.125000 I4.568379 J8.017049
G02 X341.720491 Y304.139318 Z-0.125000 I-98.588085 J41.812629
G03 X341.321383 Y303.203963 Z-0.125000 I63.561146 J-27.673838
G03 X340.524359 Y301.047058 Z-0.125000 I88.769030 J-34.027841
G03 X339.779870 Y298.876068 Z-0.125000 I93.961177 J-33.434884
G03 X339.229551 Y296.953534 Z-0.125000 I8.704505 J-3.531664
G02 X338.579430 Y295.046332 Z-0.125000 I-6.373405 J1.108140
G02 X336.530959 Y291.347070 Z-0.125000 I-93.445913 J49.328997
G02 X334.402432 Y287.681416 Z-0.125000 I-5175.848358 J3002.996859
G03 X329.151975 Y278.906205 Z-0.125000 I703.933249 J-427.141560
G02 X323.652187 Y270.254595 Z-0.125000 I-132.708386 J78.288210
G02 X322.867608 Y271.444894 Z-0.125000 I1.375383 J1.760300
G03 X322.443995 Y272.743329 Z-0.125000 I-11.519903 J-3.040039
G02 X319.095536 Y284.123352 Z-0.125000 I623.358379 J189.599672
G02 X315.877997 Y295.530540 Z-0.125000 I2662.688505 J757.201586
G02 X315.765347 Y296.899723 Z-0.125000 I3.068961 J0.941725
G02 X316.380282 Y298.176886 Z-0.125000 I2.266061 J-0.304451
G02 X319.258756 Y299.937124 Z-0.125000 I3.589205 J-2.635673
G03 X321.953061 Y301.927556 Z-0.125000 I-0.583422 J3.608496
G03 X313.795381 Y301.433891 Z-0.125000 I4.107316 J-135.520793
G02 X305.610431 Y301.116755 Z-0.125000 I-7.147464 J78.687475
G02 X299.283793 Y300.930455 Z-0.125000 I-5.800996 J89.480693
G03 X292.973470 Y300.657868 Z-0.125000 I-0.377718 J-64.433366
G02 X290.989716 Y300.573568 Z-0.125000 I-4.602739 J84.928971
G02 X289.007318 Y300.532294 Z-0.125000 I-3.058970 J99.295356
G03 X288.670343 Y300.059010 Z-0.125000 I3.330720 J-2.728052
G03 X288.409943 Y299.555094 Z-0.125000 I3.257207 J-2.002415
G02 X288.394015 Y305.406414 Z-0.125000 I3378.902173 J12.123263
G02 X288.399597 Y311.257724 Z-0.125000 I1041.080669 J1.932426
G03 X288.328657 Y321.142631 Z-0.125000 I-335.141090 J2.537534
G02 X288.418727 Y331.026003 Z-0.125000 I159.211430 J3.491167
G02 X288.625932 Y331.391608 Z-0.125000 I399.277388 J-226.005572
G03 X288.833170 Y331.757223 Z-0.125000 I-453.320002 J257.137725
G02 X290.604485 Y332.282668 Z-0.125000 I2.548416 J-5.342568
G02 X292.476874 Y332.187687 Z-0.125000 I0.678648 J-5.124576
G01 X292.630359 Y331.316423 Z-0.125000
G02 X294.626212 Y325.096656 Z-0.125000 I-167.679746 J-57.236649
G03 X296.610984 Y318.870171 Z-0.125000 I189.587120 J57.003741
G03 X296.787278 Y318.118490 Z-0.125000 I13.175205 J2.693500
G02 X296.545870 Y317.353470 Z-0.125000 I-0.724429 J-0.192000
G03 X294.791144 Y315.580105 Z-0.125000 I63.880248 J-64.963653
G03 X293.105762 Y313.764545 Z-0.125000 I49.051348 J-47.224346
G02 X294.266919 Y312.514129 Z-0.125000 I-1.992046 J-3.014191
G03 X295.955215 Y312.061292 Z-0.125000 I1.064604 J0.595497
G03 X304.343498 Y316.745056 Z-0.125000 I-81.480859 J155.779598
G03 X312.439450 Y321.799703 Z-0.125000 I-113.199469 J190.320812
G03 X314.066635 Y323.004945 Z-0.125000 I-34.699726 J48.548769
G03 X314.660492 Y324.923023 Z-0.125000 I-1.057685 J1.378442
G03 X312.634756 Y330.568073 Z-0.125000 I-27.913438 J-6.830794
G02 X310.057674 Y336.031377 Z-0.125000 I326.946910 J157.562798
G03 X307.771414 Y340.434605 Z-0.125000 I-195.694484 J-98.814056
G03 X305.125688 Y344.676832 Z-0.125000 I-32.739057 J-17.472042
G03 X303.935279 Y345.971452 Z-0.125000 I-5.944165 J-4.271087
G03 X302.118649 Y346.505141 Z-0.125000 I-1.504031 J-1.760923
G03 X300.058325 Y345.703556 Z-0.125000 I2.175877 J-8.641321
G03 X298.156625 Y344.647892 Z-0.125000 I45.518448 J-84.238841
G03 X294.249610 Y342.188209 Z-0.125000 I54.895070 J-91.529357
G02 X290.386563 Y339.674560 Z-0.125000 I-191.257840 J289.705264
G02 X289.775071 Y339.425809 Z-0.125000 I-0.749229 J0.965816
G02 X289.124634 Y339.359333 Z-0.125000 I-3.326821 J29.336058
G03 X289.014934 Y339.854025 Z-0.125000 I-55.591738 J-12.068229
G02 X288.906036 Y340.341701 Z-0.125000 I81.737294 J18.507957
G02 X288.596375 Y347.406958 Z-0.125000 I91.451078 J7.547588
G03 X288.304004 Y354.476222 Z-0.125000 I-98.074893 J-0.515520
G03 X287.169107 Y355.412235 Z-0.125000 I-1.566382 J-0.743181
G03 X285.638542 Y355.422932 Z-0.125000 I-0.786717 J-3.061634
G03 X283.927062 Y354.809232 Z-0.125000 I1.664453 J-7.335140
G03 X282.520378 Y353.741382 Z-0.125000 I2.167846 J-4.316156
G02 X274.051612 Y345.899243 Z-0.125000 I-5711.970484 J6159.891911
G02 X265.564338 Y338.072076 Z-0.125000 I-2895.161419 J3130.810795
G02 X264.358565 Y337.105667 Z-0.125000 I-28.332171 J34.114169
G03 X263.263186 Y336.042227 Z-0.125000 I4.163717 J-5.384629
G03 X263.561574 Y335.592352 Z-0.125000 I12.185354 J7.758277
G02 X263.868832 Y335.135308 Z-0.125000 I-18.186372 J-12.557999
G02 X264.509283 Y335.156659 Z-0.125000 I31.115135 J-923.881793
G03 X265.161246 Y335.178200 Z-0.125000 I-217.567069 J6602.704353
G02 X266.574564 Y335.605700 Z-0.125000 I23.133327 J-73.928890
G02 X268.003450 Y336.010189 Z-0.125000 I24.971549 J-85.487729
G03 X268.036417 Y333.821068 Z-0.125000 I10.010361 J-0.944056
G02 X267.754371 Y331.692628 Z-0.125000 I-4.208709 J-0.525199
G02 X267.950791 Y330.803608 Z-0.125000 I-1.210280 J-0.733608
G03 X267.941961 Y329.899975 Z-0.125000 I4.486843 J-0.495707
G03 X267.846880 Y322.227379 Z-0.125000 R38331.548233
G02 X267.752307 Y314.553642 Z-0.125000 R120174.924934
G03 X266.058427 Y319.859857 Z-0.125000 I-30.371516 J-6.771897
G03 X263.836275 Y325.020691 Z-0.125000 I-325.002554 J-136.880769
G03 X261.683764 Y329.941366 Z-0.125000 I-190.246950 J-80.290931
G03 X259.310461 Y334.784423 Z-0.125000 I-81.126804 J-36.752523
G03 X258.091701 Y336.533601 Z-0.125000 I-18.452699 J-11.557950
G03 X256.173187 Y337.756849 Z-0.125000 I-2.657648 J-2.052094
G03 X252.525177 Y337.387683 Z-0.125000 I-1.082705 J-7.509931
G03 X249.292479 Y335.877897 Z-0.125000 I6.562219 J-18.266542
G02 X245.969488 Y333.908067 Z-0.125000 I-340.850965 J571.208347
G03 X242.780223 Y331.779443 Z-0.125000 I17.277069 J-29.339313
G01 X242.235555 Y332.163401 Z-0.125000
G02 X242.166410 Y332.793428 Z-0.125000 I2306.190404 J253.414272
G03 X242.097578 Y333.418101 Z-0.125000 I-548.079160 J-60.075443
G02 X241.475223 Y338.813087 Z-0.125000 I51.892310 J8.719586
G03 X240.682165 Y344.182806 Z-0.125000 I-32.511647 J-2.058248
G02 X238.501516 Y345.005856 Z-0.125000 I9.863817 J29.434228
G03 X236.236961 Y345.645764 Z-0.125000 I-3.719192 J-8.834802
G03 X234.751380 Y345.260682 Z-0.125000 I-0.194134 J-2.309163
G02 X233.471759 Y344.505266 Z-0.125000 I-7.161937 J10.670313
G03 X221.370419 Y336.676928 Z-0.125000 I245.130572 J-392.199621
G03 X209.436047 Y328.661809 Z-0.125000 I2442.986129 J-3650.455743
G03 X207.647321 Y330.676919 Z-0.125000 I-33.279601 J-27.739408
G03 X205.811985 Y332.606783 Z-0.125000 I-298.478582 J-282.020957
G03 X197.117114 Y341.329209 Z-0.125000 I-699.779975 J-688.874472
G03 X188.222899 Y349.897179 Z-0.125000 I-310.610361 J-313.537107
G03 X186.786186 Y350.319530 Z-0.125000 I-1.044958 J-0.899828
G03 X185.373464 Y349.886326 Z-0.125000 I22.123255 J-74.666371
G03 X175.933547 Y345.486359 Z-0.125000 I27.325122 J-70.951162
G03 X167.136359 Y340.158250 Z-0.125000 I62.397188 J-112.949897
G03 X165.057954 Y338.728737 Z-0.125000 I16.413064 J-26.089053
G02 X162.860139 Y337.436974 Z-0.125000 I-6.838694 J9.119830
G03 X163.118619 Y334.527208 Z-0.125000 I5.146891 J-1.009155
G02 X164.140679 Y331.789262 Z-0.125000 I-100.594979 J-39.111254
G03 X168.196993 Y324.129238 Z-0.125000 I48.638414 J20.852140
G03 X172.973721 Y316.801050 Z-0.125000 I424.931217 J271.761733
G02 X173.893753 Y317.080122 Z-0.125000 I297.645615 J-979.607536
G02 X174.818566 Y317.357087 Z-0.125000 I45.763105 J-151.125012
G02 X174.676149 Y321.239714 Z-0.125000 I97.935358 J5.536257
G02 X175.286237 Y325.102342 Z-0.125000 I11.323890 J0.190925
G02 X176.207390 Y326.502766 Z-0.125000 I3.204289 J-1.104510
G02 X177.626143 Y327.515111 Z-0.125000 I4.930320 J-5.409280
G02 X183.395384 Y330.599119 Z-0.125000 I44.132939 J-75.621049
G02 X189.396470 Y333.327669 Z-0.125000 I53.874143 J-110.525512
G02 X190.625931 Y333.760906 Z-0.125000 I2.894160 J-6.252054
G02 X191.908458 Y334.063022 Z-0.125000 I12.534174 J-50.336168
G02 X193.672371 Y312.495700 Z-0.125000 I-225.699753 J-29.314954
G02 X193.956910 Y290.883801 Z-0.125000 I-517.241762 J-17.617754
G03 X193.891963 Y286.770577 Z-0.125000 I115.656536 J-3.883304
G02 X193.680439 Y282.657955 Z-0.125000 I-38.595262 J-0.076683
G02 X193.461971 Y276.706395 Z-0.125000 I-309.377861 J8.376776
G02 X193.024668 Y270.767741 Z-0.125000 I-109.393845 J5.069980
G02 X191.349742 Y269.472253 Z-0.125000 I-15.858593 J18.772942
G03 X189.722547 Y268.129145 Z-0.125000 I8.148383 J-11.529124
G02 X188.905122 Y267.588632 Z-0.125000 I-1.630199 J1.577015
G02 X187.912323 Y267.404642 Z-0.125000 I-0.992799 J2.586550
G03 X185.180761 Y276.526607 Z-0.125000 I-175.706658 J-47.645210
G02 X182.355049 Y285.616427 Z-0.125000 I287.839078 J94.463375
G02 X181.348628 Y292.214664 Z-0.125000 I58.683361 J12.326768
G03 X180.402714 Y298.822323 Z-0.125000 I-71.457438 J-6.857893
G02 X180.712489 Y299.976767 Z-0.125000 I1.061976 J0.333821
G03 X181.572669 Y300.808765 Z-0.125000 I-15.075160 J16.446451
G03 X184.803744 Y303.713144 Z-0.125000 I-251.684146 J283.243963
G02 X188.146419 Y306.517452 Z-0.125000 I36.798377 J-40.468519
G02 X189.378621 Y307.241368 Z-0.125000 I2.776184 J-3.314794
G02 X190.746772 Y307.736497 Z-0.125000 I14.499190 J-37.926637
G02 X190.827770 Y308.198759 Z-0.125000 I220.235802 J-38.351830
G02 X190.911620 Y308.661503 Z-0.125000 I48.784659 J-8.600913
G03 X186.408410 Y309.331443 Z-0.125000 I-4.538988 J-15.040382
G02 X181.833116 Y309.428897 Z-0.125000 I0.273987 J120.313141
G03 X169.222891 Y309.101940 Z-0.125000 I-3.260943 J-117.572367
G03 X156.796434 Y307.170123 Z-0.125000 I6.701419 J-84.039672
G02 X156.033333 Y307.166347 Z-0.125000 I-0.385867 J0.870590
G02 X155.714848 Y307.804710 Z-0.125000 I0.219156 J0.507968
G02 X155.528640 Y327.680387 Z-0.125000 I2344.150968 J31.900193
G02 X155.584107 Y347.555723 Z-0.125000 I1254.779775 J6.435986
G02 X155.709667 Y351.286252 Z-0.125000 I61.339685 J-0.197155
G02 X156.094151 Y355.003319 Z-0.125000 I47.827791 J-3.068776
G02 X157.809998 Y359.898532 Z-0.125000 I27.034817 J-6.727791
G02 X160.328514 Y364.526757 Z-0.125000 I35.244424 J-16.179414
G02 X161.569176 Y365.890418 Z-0.125000 I4.151691 J-2.531009
G03 X162.518557 Y367.463525 Z-0.125000 I-1.461112 J1.954824
G03 X161.714661 Y367.473422 Z-0.125000 I-0.847619 J-36.195151
G03 X160.911941 Y367.466626 Z-0.125000 I-0.050107 J-41.491592
G01 X160.911941 Y367.466626 Z-0.125000
G00 Z5.000000

(End cutting path id: path6)


(Start cutting path id: path6)
(Change tool to Default tool)

G00 Z5.000000
G00 X67.249040 Y223.049266

G01 Z-0.125000 F100.0(Penetrate)
G03 X57.700031 Y222.979020 Z-0.125000 I-2.888887 J-256.360907 F400.000000
G02 X48.139636 Y223.094226 Z-0.125000 I-3.266273 J125.690692
G03 X41.381108 Y223.374340 Z-0.125000 I-11.792877 J-202.861612
G02 X34.620066 Y223.587218 Z-0.125000 I12.509902 J504.788828
G01 X32.060020 Y223.587218 Z-0.125000
G03 X35.250048 Y200.438616 Z-0.125000 I3213.288916 J431.018093
G02 X38.474607 Y177.296044 Z-0.125000 I-5496.453456 J-777.641485
G02 X40.606728 Y162.066724 Z-0.125000 I-1385.621679 J-201.752428
G02 X42.271786 Y146.799236 Z-0.125000 I-304.746374 J-40.959888
G02 X37.038673 Y149.585587 Z-0.125000 I41.071358 J83.444505
G03 X31.398562 Y151.685238 Z-0.125000 I-9.133802 J-15.910247
G03 X31.585197 Y149.059676 Z-0.125000 I14.207537 J-0.309486
G03 X32.021777 Y146.458689 Z-0.125000 I501.921314 J82.911064
G02 X35.767497 Y124.830542 Z-0.125000 I-1397.763534 J-253.213296
G02 X38.925223 Y103.125465 Z-0.125000 I-560.941185 J-92.689825
G03 X39.335278 Y100.052907 Z-0.125000 I99.923527 J11.771845
G02 X39.596500 Y96.958406 Z-0.125000 I-24.064226 J-3.589655
G03 X38.952458 Y97.183283 Z-0.125000 I-88.557812 J-252.592022
G02 X38.407427 Y97.550119 Z-0.125000 I0.423254 J1.217168
G02 X35.074575 Y100.827803 Z-0.125000 I147.263423 J153.075391
G03 X31.733939 Y104.093892 Z-0.125000 I-118.799631 J-118.169671
G03 X38.428037 Y66.207555 Z-0.125000 I4752.032577 J820.097043
G02 X45.061792 Y28.309965 Z-0.125000 I-3389.757073 J-612.886807
G02 X46.079061 Y22.388784 Z-0.125000 I-313.460085 J-56.900936
G03 X47.190341 Y16.710197 Z-0.125000 I87.772545 J14.228760
G03 X47.937897 Y20.467454 Z-0.125000 I-17.897405 J5.513921
G02 X48.436776 Y24.258035 Z-0.125000 I51.562804 J-4.858068
G03 X50.401959 Y47.545041 Z-0.125000 I-766.455138 J76.407337
G02 X52.156958 Y70.845307 Z-0.125000 I1892.237959 J-130.809019
G03 X54.361627 Y66.745648 Z-0.125000 I104.935767 J53.788530
G02 X56.625413 Y62.670116 Z-0.125000 I-331.885310 J-187.014838
G02 X58.000681 Y60.175718 Z-0.125000 I-43.747479 J-25.746170
G03 X59.520840 Y57.739665 Z-0.125000 I15.565292 J8.020802
G02 X60.032509 Y57.653270 Z-0.125000 I-46.128386 J-274.753528
G02 X60.556434 Y57.560357 Z-0.125000 I-6.088303 J-35.854521
G02 X60.616067 Y67.961630 Z-0.125000 I2826.944903 J-11.006799
G03 X60.652552 Y78.357506 Z-0.125000 I-1279.187921 J9.687326
G03 X60.688492 Y84.285134 Z-0.125000 I-76.815902 J3.429676
G02 X60.882512 Y90.207941 Z-0.125000 I45.426237 J1.476510
G02 X60.913746 Y101.704325 Z-0.125000 I8045.900616 J-16.111452
G02 X61.016869 Y113.201341 Z-0.125000 I1038.037085 J-3.561816
G02 X65.127323 Y105.454550 Z-0.125000 I-1294.192713 J-691.663626
G03 X69.253050 Y97.711330 Z-0.125000 I822.897737 J433.483962
G02 X69.980641 Y98.455214 Z-0.125000 I4.225062 J-3.404754
G03 X70.307765 Y99.432151 Z-0.125000 I-0.638099 J0.756901
G03 X68.960703 Y119.203523 Z-0.125000 I-3372.660490 J-219.854360
G02 X67.757537 Y138.982669 Z-0.125000 I968.612025 J68.846867
G02 X67.535548 Y141.919100 Z-0.125000 I34.297953 J4.069462
G02 X67.460397 Y144.863439 Z-0.125000 I201.843675 J6.625013
G01 X67.441275 Y144.863439 Z-0.125000
G01 X67.441275 Y145.698013 Z-0.125000
G02 X67.429049 Y146.334308 Z-0.125000 I117.770429 J2.581243
G03 X67.412338 Y146.969768 Z-0.125000 I-32.495815 J-0.536604
G01 X67.428180 Y146.960121 Z-0.125000
G03 X67.441275 Y146.948580 Z-0.125000 I0.144825 J0.151131
G01 X67.441275 Y151.600489 Z-0.125000
G03 X67.278427 Y151.578642 Z-0.125000 I1.255470 J-9.976239
G02 X67.115198 Y151.559664 Z-0.125000 I-0.449597 J3.155472
G02 X66.852315 Y172.703685 Z-0.125000 I633.575540 J18.450868
G03 X66.779302 Y193.843851 Z-0.125000 I-1372.269496 J5.830715
G03 X66.778477 Y198.671172 Z-0.125000 I-942.066452 J2.252614
G02 X66.789121 Y203.498548 Z-0.125000 I488.804104 J1.335926
G02 X67.009527 Y204.688306 Z-0.125000 I3.158656 J0.030144
G02 X68.073795 Y205.524261 Z-0.125000 I1.247014 J-0.492148
G02 X73.883872 Y206.847381 Z-0.125000 I15.752204 J-55.752846
G03 X79.742834 Y207.998525 Z-0.125000 I-23.782688 J136.532141
G02 X80.047081 Y208.056609 Z-0.125000 I0.618598 J-2.414368
G02 X80.346933 Y208.079141 Z-0.125000 I0.368651 J-2.899526
G02 X81.227419 Y207.963697 Z-0.125000 I0.068569 J-2.892475
G02 X82.053803 Y207.613020 Z-0.125000 I-1.080127 J-3.694396
G02 X82.447826 Y206.643408 Z-0.125000 I-2.951980 J-1.764469
G02 X82.619143 Y205.622961 Z-0.125000 I-7.529806 J-1.788736
G02 X84.768856 Y190.260340 Z-0.125000 I-135.573161 J-26.802657
G02 X85.869587 Y174.821780 Z-0.125000 I-659.285945 J-54.763995
G02 X85.958093 Y171.249584 Z-0.125000 I-34.859067 J-2.650878
G03 X86.176543 Y167.695091 Z-0.125000 I20.313749 J-0.535529
G02 X86.297959 Y160.283197 Z-0.125000 I-438.175310 J-10.884803
G02 X86.272661 Y152.877412 Z-0.125000 I-326.546773 J-2.587441
G01 X86.267751 Y152.877150 Z-0.125000
G01 X86.262842 Y152.876893 Z-0.125000
G01 X86.262842 Y143.850067 Z-0.125000
G02 X84.184508 Y141.060390 Z-0.125000 I-25.408213 J16.760318
G02 X81.919445 Y138.390974 Z-0.125000 I-217.752083 J182.472102
G02 X80.078587 Y138.865012 Z-0.125000 I-0.559417 J1.638955
G03 X78.841601 Y140.058572 Z-0.125000 I-9.722126 J-8.838076
G02 X75.311619 Y143.725713 Z-0.125000 I289.818888 J282.511566
G02 X71.890096 Y147.462760 Z-0.125000 I98.174997 J93.320797
G03 X73.813407 Y147.408874 Z-0.125000 I2.555579 J56.863690
G02 X75.725515 Y147.157871 Z-0.125000 I-0.089906 J-8.093466
G02 X80.832934 Y146.544645 Z-0.125000 I-4.382479 J-58.076610
G02 X85.860284 Y145.526447 Z-0.125000 I-11.559550 J-69.995566
G01 X86.089728 Y144.993148 Z-0.125000
G01 X86.089728 Y152.867593 Z-0.125000
G02 X84.380673 Y152.794577 Z-0.125000 I-1.227134 J8.684958
G02 X82.686320 Y152.948725 Z-0.125000 I1.307431 J23.760004
G03 X77.476552 Y152.914244 Z-0.125000 I-2.432065 J-26.128831
G03 X72.340712 Y152.213888 Z-0.125000 I9.306583 J-87.428080
G03 X69.950711 Y151.914801 Z-0.125000 I6.167425 J-58.982638
G02 X67.565299 Y151.616507 Z-0.125000 I-8.503010 J58.310390
G01 X67.565299 Y146.855563 Z-0.125000
G02 X68.245919 Y146.301238 Z-0.125000 I-0.873905 J-1.768020
G02 X68.754374 Y145.616365 Z-0.125000 I-13.854251 J-10.816685
G03 X73.883794 Y137.859563 Z-0.125000 I15352.040697 J10146.426459
G02 X78.947019 Y130.072106 Z-0.125000 I-483.121671 J-319.654287
G03 X79.988573 Y129.562100 Z-0.125000 I0.983639 J0.690271
G02 X81.171688 Y129.587919 Z-0.125000 I1.080540 J-22.393845
G03 X86.847396 Y130.544534 Z-0.125000 I-3.261362 J36.665665
G03 X92.342052 Y132.125217 Z-0.125000 I-19.905184 J79.533358
G03 X100.307813 Y135.439297 Z-0.125000 I-20.480110 J60.456570
G03 X107.155599 Y140.345374 Z-0.125000 I-11.797015 J23.698020
G02 X111.403072 Y139.299822 Z-0.125000 I-6.352405 J-34.956429
G02 X115.497713 Y137.817368 Z-0.125000 I-14.632773 J-46.812820
G02 X115.475103 Y124.594926 Z-0.125000 I-761.955620 J-5.308317
G03 X115.449654 Y111.372491 Z-0.125000 I781.258585 J-8.114858
G02 X115.509147 Y103.930034 Z-0.125000 I-103.072186 J-4.545386
G03 X116.542610 Y96.509858 Z-0.125000 I22.597194 J-0.634778
G03 X119.423920 Y91.959081 Z-0.125000 I10.735129 J3.609379
G03 X123.513753 Y88.235951 Z-0.125000 I69.054212 J71.747671
G03 X131.025610 Y82.372002 Z-0.125000 I129.437443 J158.069017
G03 X138.730376 Y76.699206 Z-0.125000 I590.566457 J794.036054
G03 X140.733767 Y75.729004 Z-0.125000 I3.435469 J4.540450
G03 X142.953369 Y75.375788 Z-0.125000 I2.935411 J11.295497
G01 X142.953369 Y82.149510 Z-0.125000
G03 X142.922325 Y82.149449 Z-0.125000 I-0.015087 J-0.221032
G02 X142.891356 Y82.149510 Z-0.125000 I-0.015072 J0.208712
G03 X140.351685 Y84.527730 Z-0.125000 I-93.332874 J-97.123896
G02 X138.193458 Y87.178148 Z-0.125000 I7.825789 J8.576441
G02 X137.121832 Y99.087585 Z-0.125000 I775.367651 J75.771467
G02 X136.409589 Y111.031946 Z-0.125000 I264.963252 J21.793193
G02 X136.157911 Y114.776805 Z-0.125000 I25.087670 J3.566932
G03 X136.093330 Y118.526074 Z-0.125000 I-77.337664 J0.543048
G02 X135.773115 Y127.934216 Z-0.125000 I117.466745 J8.707617
G03 X135.757950 Y137.351247 Z-0.125000 I-623.006986 J3.705267
G02 X135.878087 Y137.398276 Z-0.125000 I1.078453 J-2.577984
G03 X135.998247 Y137.445299 Z-0.125000 I-0.963156 J2.638271
G01 X135.998247 Y142.704402 Z-0.125000
G02 X135.935302 Y142.663766 Z-0.125000 I-0.192937 J0.229793
G03 X135.872673 Y142.622235 Z-0.125000 I0.118785 J-0.247115
G02 X135.572726 Y143.271135 Z-0.125000 I1.818899 J1.234540
G02 X135.499053 Y143.957554 Z-0.125000 I2.053419 J0.567557
G03 X135.498064 Y146.316768 Z-0.125000 I-242.466349 J1.077965
G02 X135.825130 Y148.664237 Z-0.125000 I8.274027 J0.043722
G02 X142.641966 Y153.268136 Z-0.125000 I63.295456 J-86.370747
G03 X149.651143 Y157.646105 Z-0.125000 I-798.403038 J1286.051831
G02 X149.791294 Y155.044787 Z-0.125000 I-5.310788 J-1.590565
G02 X149.114224 Y152.536346 Z-0.125000 I-15.926214 J2.953154
G02 X146.564254 Y149.025007 Z-0.125000 I-11.291402 J5.518354
G02 X143.092895 Y146.208060 Z-0.125000 I-17.795896 J18.382739
G02 X139.542008 Y144.528023 Z-0.125000 I-6.345109 J8.818317
G03 X136.060257 Y142.744708 Z-0.125000 I2.377350 J-8.932098
G01 X136.060257 Y137.470103 Z-0.125000
G02 X137.390503 Y138.018148 Z-0.125000 I55.813827 J-133.586087
G02 X138.749495 Y138.525334 Z-0.125000 I9.534582 J-23.473364
G02 X141.551482 Y139.662777 Z-0.125000 I21.508420 J-48.964081
G03 X144.339329 Y140.847153 Z-0.125000 I-11.937963 J31.973500
G02 X147.684783 Y141.015181 Z-0.125000 I4.184033 J-49.916293
G02 X151.041754 Y141.062127 Z-0.125000 I10.188625 J-608.517577
G02 X152.571642 Y129.994050 Z-0.125000 I-1053.083915 J-151.202655
G02 X153.764580 Y118.894003 Z-0.125000 I-220.974474 J-29.362563
G02 X153.899452 Y114.943208 Z-0.125000 I-37.035034 J-3.241996
G03 X154.100476 Y110.996307 Z-0.125000 I28.264740 J-0.538985
G02 X154.054199 Y107.757805 Z-0.125000 I-16.891000 J-1.378212
G03 X153.927878 Y104.523839 Z-0.125000 I22.688700 J-2.505683
G02 X153.606989 Y98.237477 Z-0.125000 I-78.654948 J0.863585
G02 X152.920706 Y91.974218 Z-0.125000 I-173.202177 J15.809043
G03 X152.375724 Y88.715954 Z-0.125000 I394.174614 J-67.604865
G02 X151.396253 Y85.519848 Z-0.125000 I-12.187290 J1.986754
G02 X148.142530 Y83.809339 Z-0.125000 I-98.024191 J182.511399
G02 X144.722768 Y82.373268 Z-0.125000 I-10.949266 J21.284001
G02 X143.934812 Y82.173443 Z-0.125000 I-1.054540 J2.504840
G02 X143.126999 Y82.150542 Z-0.125000 I-0.567443 J5.757073
G01 X143.126999 Y75.377323 Z-0.125000
G03 X144.951519 Y75.351594 Z-0.125000 I1.276987 J25.850781
G03 X146.707657 Y75.417116 Z-0.125000 I-1.151949 J54.441391
G03 X151.331936 Y76.528445 Z-0.125000 I-1.012679 J14.390357
G02 X155.644051 Y78.348193 Z-0.125000 I432.608244 J-1019.098831
G03 X159.678402 Y80.180536 Z-0.125000 I-45.468245 J105.466960
G03 X163.631150 Y82.149510 Z-0.125000 I-57.580798 J120.546485
G03 X168.449094 Y85.468608 Z-0.125000 I-10.644544 J20.607801
G03 X172.107109 Y89.768680 Z-0.125000 I-13.858196 J15.494935
G03 X173.445311 Y92.943343 Z-0.125000 I-7.817746 J5.164756
G03 X174.111116 Y96.249932 Z-0.125000 I-107.533429 J23.372949
G03 X174.609035 Y99.826103 Z-0.125000 I-82.474644 J13.305886
G03 X174.953442 Y103.413834 Z-0.125000 I-85.121987 J9.981766
G03 X174.633688 Y91.444740 Z-0.125000 I664.979368 J-23.753769
G03 X174.443914 Y79.472168 Z-0.125000 I3214.692995 J-56.942968
G03 X174.735113 Y76.900818 Z-0.125000 I12.473327 J0.110409
G03 X175.828323 Y74.474037 Z-0.125000 I6.336861 J1.394989
G03 X177.822780 Y72.412942 Z-0.125000 I6.979238 J4.758056
G03 X180.315381 Y70.827236 Z-0.125000 I13.494841 J18.460862
G03 X190.633640 Y65.615947 Z-0.125000 I81.892655 J149.325358
G02 X201.156978 Y60.736887 Z-0.125000 I-6079.725770 J-13126.767391
G02 X202.053129 Y60.345473 Z-0.125000 I-2.799294 J-7.630624
G03 X203.043682 Y60.109534 Z-0.125000 I0.981207 J1.922141
G03 X204.229084 Y61.121966 Z-0.125000 I-3.030411 J4.748322
G02 X205.271966 Y62.260832 Z-0.125000 I35.419407 J-31.387310
G02 X200.264804 Y65.580690 Z-0.125000 I45.637029 J74.267810
G02 X195.691685 Y69.346180 Z-0.125000 I24.994761 J35.015410
G02 X194.447658 Y73.116186 Z-0.125000 I4.309323 J3.512247
G02 X194.656089 Y76.951380 Z-0.125000 I242.470794 J-11.254308
G02 X195.313388 Y91.825158 Z-0.125000 I1001.472778 J-36.805468
G03 X196.002261 Y106.694769 Z-0.125000 I-1403.269471 J72.460816
G03 X196.036686 Y108.659470 Z-0.125000 I-16.692458 J1.275131
G02 X196.232221 Y110.617503 Z-0.125000 I7.008234 J0.288917
G02 X196.703439 Y123.722224 Z-0.125000 I1001.505774 J-29.451218
G03 X197.125704 Y136.825698 Z-0.125000 I-637.586244 J27.105039
G03 X197.128283 Y151.972155 Z-0.125000 I-346.439974 J7.632204
G02 X197.467283 Y167.117351 Z-0.125000 I171.904947 J3.728576
G02 X198.137695 Y167.318383 Z-0.125000 I2.025817 J-5.537396
G02 X198.867197 Y167.379349 Z-0.125000 I0.568414 J-2.406514
G03 X203.766706 Y167.436261 Z-0.125000 I-5.497628 J684.203557
G03 X208.666587 Y167.520943 Z-0.125000 I-17.861452 J1175.309543
G02 X205.291059 Y164.000679 Z-0.125000 I-100.608829 J93.093780
G02 X201.786395 Y160.582873 Z-0.125000 I-110.305602 J109.603091
G03 X201.090348 Y159.875561 Z-0.125000 I10.136425 J-10.671118
G03 X200.501720 Y159.105447 Z-0.125000 I3.923666 J-3.609024
G03 X200.482074 Y157.653490 Z-0.125000 I1.488353 J-0.746249
G03 X201.821018 Y156.767607 Z-0.125000 I1.394223 J0.652463
G03 X205.933752 Y156.587374 Z-0.125000 I4.467958 J54.939839
G03 X210.059265 Y156.670974 Z-0.125000 I0.497930 J77.263540
G02 X210.578483 Y132.769843 Z-0.125000 I-28485.189661 J-630.757082
G02 X210.795652 Y108.866202 Z-0.125000 I-978.238448 J-20.840272
G03 X210.633118 Y103.310326 Z-0.125000 I565.876178 J-19.334659
G03 X210.542438 Y97.750620 Z-0.125000 I346.180488 J-8.426890
G02 X210.553727 Y83.382537 Z-0.125000 I-8797.851831 J-14.096310
G03 X210.999259 Y69.022172 Z-0.125000 I231.423426 J-0.007149
G03 X211.643331 Y67.724773 Z-0.125000 I1.822284 J0.096074
G02 X212.774857 Y66.748398 Z-0.125000 I-48.070207 J-56.852689
G03 X221.421168 Y62.023757 Z-0.125000 I26.514238 J38.248379
G03 X230.700874 Y58.361858 Z-0.125000 I105.269036 J253.175892
G03 X240.888146 Y54.866540 Z-0.125000 I86.919273 J236.737088
G03 X251.227760 Y51.720930 Z-0.125000 I118.859724 J372.125803
G03 X252.561567 Y51.536393 Z-0.125000 I1.347213 J4.824906
G03 X253.843618 Y51.982921 Z-0.125000 I0.005481 J2.048015
G03 X256.479907 Y54.377078 Z-0.125000 I-4.480250 J7.581889
G02 X258.787495 Y56.999150 Z-0.125000 I15.397312 J-11.224153
G03 X262.999140 Y61.152125 Z-0.125000 I-139.388130 J145.569345
G02 X267.344056 Y65.199662 Z-0.125000 I49.120542 J-48.373674
G02 X268.560702 Y66.191974 Z-0.125000 I8.224922 J-8.842341
G03 X269.188914 Y67.630518 Z-0.125000 I-0.886043 J1.243377
G03 X273.564775 Y67.304922 Z-0.125000 I16.193493 J188.065414
G03 X277.971826 Y67.478092 Z-0.125000 I1.356937 J21.631643
G03 X279.897067 Y68.067424 Z-0.125000 I0.168077 J2.890295
G03 X281.250697 Y69.387534 Z-0.125000 I-4.766401 J6.241483
G02 X285.442875 Y74.731916 Z-0.125000 I76.201302 J-55.456564
G03 X289.803660 Y79.974453 Z-0.125000 I-353.595846 J298.558855
G02 X292.242910 Y82.916122 Z-0.125000 I37.296097 J-28.443989
G03 X294.386820 Y86.025254 Z-0.125000 I-10.877833 J9.794573
G02 X290.850469 Y91.293223 Z-0.125000 I54.328132 J40.291045
G03 X286.869461 Y96.298509 Z-0.125000 I-21.492917 J-13.008810
G03 X286.169396 Y96.238313 Z-0.125000 I7.781367 J-94.595600
G02 X285.469552 Y96.181722 Z-0.125000 I-3.568360 J39.773511
G02 X284.895003 Y92.854123 Z-0.125000 I-30.439239 J3.542296
G02 X284.127508 Y89.557331 Z-0.125000 I-628.154327 J144.496893
G02 X281.676181 Y81.049534 Z-0.125000 I-169.998498 J44.374122
G02 X278.268979 Y72.775943 Z-0.125000 I-50.298759 J15.875499
G03 X277.800566 Y71.957082 Z-0.125000 I57.755798 J-33.581480
G02 X276.782763 Y71.700545 Z-0.125000 I-0.630679 J0.354881
G02 X271.295590 Y76.289798 Z-0.125000 I7.893849 J15.013352
G02 X268.325923 Y82.412558 Z-0.125000 I12.862423 J10.020100
G02 X267.815213 Y87.983270 Z-0.125000 I32.113741 J5.752882
G03 X267.549214 Y93.564309 Z-0.125000 I-66.469368 J-0.371157
G02 X267.409644 Y100.545087 Z-0.125000 I1135.391457 J26.192205
G02 X267.347681 Y107.530375 Z-0.125000 I434.012183 J7.342814
G02 X267.323005 Y108.436619 Z-0.125000 I15.003465 J0.861973
G03 X267.079473 Y109.323533 Z-0.125000 I-1.718346 J0.005062
G03 X267.308677 Y110.225079 Z-0.125000 I-1.125557 J0.766065
G03 X267.155964 Y111.107405 Z-0.125000 I-6.217792 J-0.621800
G03 X267.077713 Y114.736375 Z-0.125000 I-19.851063 J1.387282
G02 X267.719764 Y118.374653 Z-0.125000 I6.471739 J0.733716
G01 X267.719764 Y124.561874 Z-0.125000
G02 X267.514880 Y124.580428 Z-0.125000 I1.027328 J12.485051
G03 X267.309951 Y124.598545 Z-0.125000 I-0.978333 J-9.897958
G02 X267.547367 Y130.075361 Z-0.125000 I68.292629 J-0.216884
G03 X267.885128 Y135.543608 Z-0.125000 I-125.349174 J10.487081
G03 X268.367666 Y141.999486 Z-0.125000 I-89.564642 J9.940388
G02 X269.975440 Y148.353661 Z-0.125000 I15.772385 J-0.610336
G02 X270.907188 Y149.255832 Z-0.125000 I1.833915 J-0.961806
G02 X272.362349 Y149.572706 Z-0.125000 I1.385387 J-2.862365
G01 X272.362878 Y149.572706 Z-0.125000
G02 X273.284080 Y149.285211 Z-0.125000 I-0.038834 J-1.744058
G02 X273.858380 Y148.416706 Z-0.125000 I-0.729173 J-1.106298
G03 X276.110905 Y143.047538 Z-0.125000 I916.444332 J381.318427
G03 X278.383702 Y137.686109 Z-0.125000 I3388.751061 J1433.384148
G02 X281.253738 Y130.873422 Z-0.125000 I-308.306300 J-133.893576
G03 X284.213815 Y124.096261 Z-0.125000 I142.159554 J58.056351
G03 X284.203170 Y123.639110 Z-0.125000 I15.516080 J-0.589985
G03 X284.204528 Y123.182100 Z-0.125000 I19.825156 J-0.169609
G02 X280.694817 Y123.321196 Z-0.125000 I-0.958253 J20.169623
G03 X277.224061 Y123.720050 Z-0.125000 I-17.975027 J-141.115094
G02 X272.530049 Y124.101077 Z-0.125000 I4.721511 J87.270259
G03 X267.843774 Y124.551000 Z-0.125000 I-20.742507 J-191.417989
G01 X267.843774 Y118.605634 Z-0.125000
G03 X267.878041 Y118.670697 Z-0.125000 I-1.194654 J0.670760
G02 X267.913544 Y118.735862 Z-0.125000 I0.813373 J-0.400887
G02 X273.932425 Y118.097253 Z-0.125000 I0.276085 J-26.081146
G03 X279.812530 Y116.799564 Z-0.125000 I138.500792 J613.605677
G02 X283.331543 Y115.973776 Z-0.125000 I-56.965989 J-250.665587
G03 X286.850358 Y115.123166 Z-0.125000 I1240.632434 J5124.565471
G03 X287.588616 Y114.935876 Z-0.125000 I3.836648 J13.574547
G03 X288.355677 Y114.764551 Z-0.125000 I50.627115 J224.865867
G03 X290.915642 Y114.152812 Z-0.125000 I35.352963 J142.280644
G02 X293.485597 Y113.545484 Z-0.125000 I-45.627385 J-198.817011
G03 X294.458740 Y113.407997 Z-0.125000 I1.531445 J7.326952
G03 X295.374376 Y113.805437 Z-0.125000 I0.079972 J1.069215
G03 X299.709229 Y118.927492 Z-0.125000 I-14.548671 J16.708049
G03 X303.026090 Y124.562906 Z-0.125000 I-151.899386 J93.197932
G03 X301.712593 Y128.081935 Z-0.125000 I-31.344639 J-9.694904
G02 X300.292921 Y131.590363 Z-0.125000 I57.731051 J25.402106
G03 X298.339946 Y136.404072 Z-0.125000 I-4935.055873 J-1999.402962
G02 X296.419267 Y141.226973 Z-0.125000 I347.604987 J141.224645
G02 X295.315572 Y144.013022 Z-0.125000 I34.749413 J15.377639
G03 X294.156871 Y146.775982 Z-0.125000 I-23.829230 J-8.368811
G03 X290.148104 Y148.922854 Z-0.125000 I-28.271965 J-47.974952
G02 X286.063832 Y150.989157 Z-0.125000 I56.868811 J117.477029
G03 X284.546835 Y151.721598 Z-0.125000 I-109.179538 J-224.190233
G03 X283.034039 Y152.441262 Z-0.125000 I-150.684002 J-314.800750
G02 X279.041968 Y154.299106 Z-0.125000 I281.408363 J609.898525
G03 X274.874353 Y155.820897 Z-0.125000 I-10.635111 J-22.657919
G03 X274.417762 Y155.842954 Z-0.125000 I-1.827076 J-33.085353
G03 X273.957096 Y155.857587 Z-0.125000 I-0.991139 J-23.943396
G03 X273.496257 Y155.862917 Z-0.125000 I-0.482485 J-21.792561
G03 X273.033649 Y155.857071 Z-0.125000 I-0.016856 J-16.973871
G03 X271.490779 Y155.745065 Z-0.125000 I0.444995 J-16.812073
G03 X270.003856 Y155.471566 Z-0.125000 I1.409662 J-11.842584
G03 X259.121960 Y147.308819 Z-0.125000 I299.829566 J-411.042643
G02 X248.209342 Y139.192475 Z-0.125000 I-237.940760 J308.522731
G03 X247.419986 Y133.962425 Z-0.125000 I34.412817 J-7.868419
G02 X246.847671 Y128.713022 Z-0.125000 I-77.941070 J5.841608
G02 X246.334265 Y125.302046 Z-0.125000 I-13.184719 J0.240381
G03 X245.869955 Y121.891226 Z-0.125000 I11.425419 J-3.292341
G02 X246.215547 Y107.736182 Z-0.125000 I-328.994528 J-15.114082
G03 X246.339693 Y93.582406 Z-0.125000 I1207.923641 J3.517473
G02 X245.895706 Y90.162153 Z-0.125000 I-15.364247 J0.255505
G03 X245.409517 Y86.751296 Z-0.125000 I16.760805 J-4.129194
G02 X247.503026 Y84.607927 Z-0.125000 I-40.541388 J-41.692386
G03 X249.590134 Y82.448727 Z-0.125000 I53.558653 J49.682119
G03 X257.263682 Y75.273245 Z-0.125000 I261.044982 J271.473877
G03 X265.690941 Y68.772564 Z-0.125000 I44.317302 J48.738675
G03 X256.776777 Y69.288915 Z-0.125000 I-462.902747 J-7914.237363
G03 X247.860529 Y69.760623 Z-0.125000 I-57.553891 J-1003.384059
G02 X243.628981 Y69.953869 Z-0.125000 I5.646771 J170.074397
G03 X239.426427 Y69.555994 Z-0.125000 I-0.806692 J-13.872989
G03 X241.331489 Y68.259349 Z-0.125000 I2.203888 J1.190201
G02 X243.653037 Y67.824298 Z-0.125000 I-2.147413 J-17.870910
G03 X250.042426 Y66.641678 Z-0.125000 I28.743766 J137.443694
G02 X256.374725 Y65.224479 Z-0.125000 I-8.571518 J-53.154597
G03 X256.607310 Y64.452747 Z-0.125000 I27.546943 J7.881168
G02 X256.294112 Y63.640077 Z-0.125000 I-0.664623 J-0.210546
G03 X252.535780 Y60.620542 Z-0.125000 I226.624046 J-285.921393
G02 X248.596916 Y57.781019 Z-0.125000 I-26.079940 J32.025294
G02 X246.802144 Y58.091275 Z-0.125000 I-0.567463 J2.063667
G03 X245.187309 Y58.935447 Z-0.125000 I-4.061090 J-5.801932
G02 X239.119480 Y61.931432 Z-0.125000 I161.130280 J333.983156
G03 X233.044397 Y64.920103 Z-0.125000 I-144.440748 J-285.936454
G02 X232.680989 Y70.944274 Z-0.125000 I55.275399 J6.357532
G03 X232.461486 Y76.971541 Z-0.125000 I-99.176721 J-0.594220
G03 X232.214522 Y88.076515 Z-0.125000 I-1541.982306 J-28.736478
G02 X231.970560 Y99.170690 Z-0.125000 I1440.682435 J37.230077
G02 X231.900523 Y105.273435 Z-0.125000 I125.251419 J4.489204
G03 X231.663604 Y111.365268 Z-0.125000 I-58.928613 J0.758719
G03 X231.551486 Y124.636015 Z-0.125000 I-1332.471393 J-4.621525
G02 X231.479637 Y137.906768 Z-0.125000 I827.904334 J11.117940
G02 X231.486532 Y139.138225 Z-0.125000 I21.271682 J0.496651
G03 X231.318406 Y140.366562 Z-0.125000 I-3.649780 J0.126118
G02 X231.282042 Y148.354729 Z-0.125000 I352.933330 J5.600788
G03 X231.268796 Y156.347997 Z-0.125000 I-474.616718 J3.210162
G02 X238.530005 Y156.826376 Z-0.125000 I17.598306 J-211.773316
G02 X245.804325 Y157.140712 Z-0.125000 I32.323065 J-663.689803
G03 X246.164871 Y160.686230 Z-0.125000 I-16.195239 J3.437996
G02 X246.245641 Y164.243627 Z-0.125000 I60.946746 J0.395824
G02 X243.228653 Y164.178191 Z-0.125000 I-4.260467 J126.847914
G02 X240.212424 Y164.179548 Z-0.125000 I-1.441882 J147.163076
G03 X238.290812 Y164.053721 Z-0.125000 I-0.196166 J-11.740406
G02 X236.365636 Y164.082398 Z-0.125000 I-0.875060 J5.890330
G02 X233.630815 Y163.986992 Z-0.125000 I-2.365727 J28.568971
G03 X230.900343 Y163.974912 Z-0.125000 I-1.016127 J-78.913852
G03 X230.469300 Y172.801705 Z-0.125000 I-453.780524 J-17.735794
G02 X230.018229 Y181.623939 Z-0.125000 I592.610137 J34.722128
G02 X229.983609 Y183.406629 Z-0.125000 I16.241614 J1.207093
G03 X229.799638 Y185.180824 Z-0.125000 I-6.447979 J0.228028
G02 X229.629063 Y189.733159 Z-0.125000 I103.826666 J6.169723
G03 X229.297343 Y194.284651 Z-0.125000 I-39.906819 J-0.620639
G01 X228.296373 Y194.801413 Z-0.125000
G03 X226.953368 Y193.705573 Z-0.125000 I1.258513 J-2.913245
G03 X226.098577 Y192.319916 Z-0.125000 I11.706003 J-8.177743
G02 X221.601574 Y184.462115 Z-0.125000 I-147.645487 J79.281487
G02 X216.456800 Y176.912089 Z-0.125000 I-76.046370 J46.291979
G02 X213.104611 Y172.591389 Z-0.125000 I-76.622773 J55.986561
G02 X209.508395 Y168.429412 Z-0.125000 I-88.675164 J72.986402
G03 X209.398285 Y169.676503 Z-0.125000 I-80.651866 J-6.492626
G03 X209.268617 Y170.918146 Z-0.125000 I-75.276185 J-7.233718
G02 X209.025168 Y172.502170 Z-0.125000 I4.785072 J1.546136
G03 X208.793193 Y174.087975 Z-0.125000 I-5.265143 J0.039671
G02 X208.673539 Y175.037076 Z-0.125000 I35.248403 J4.925877
G03 X208.562717 Y175.985014 Z-0.125000 I-107.514411 J-12.088896
G02 X202.989201 Y176.046418 Z-0.125000 I-0.723050 J187.350034
G03 X197.421294 Y176.088884 Z-0.125000 I-3.946281 J-152.375776
G02 X197.150530 Y180.467423 Z-0.125000 I23.240448 J3.634803
G03 X197.087464 Y184.866631 Z-0.125000 I-47.859534 J1.513953
G03 X196.919305 Y192.319731 Z-0.125000 I-364.967623 J-4.506073
G02 X196.765519 Y199.772682 Z-0.125000 I306.868682 J10.060036
G03 X196.548801 Y200.938195 Z-0.125000 I-2.600337 J0.119392
G03 X195.353720 Y201.576186 Z-0.125000 I-1.002781 J-0.440100
G03 X193.669702 Y200.025397 Z-0.125000 I5.323360 J-7.470440
G03 X192.239703 Y198.302487 Z-0.125000 I98.411298 J-83.135309
G02 X185.177563 Y190.277695 Z-0.125000 I-80.643054 J63.849258
G02 X177.204980 Y182.933937 Z-0.125000 I-73.508518 J71.803333
G02 X168.391601 Y176.318421 Z-0.125000 I-88.443371 J108.648299
G02 X158.837649 Y170.560031 Z-0.125000 I-51.052143 J73.897593
G03 X158.801860 Y169.215049 Z-0.125000 I12.330218 J-1.001069
G03 X158.872273 Y167.870275 Z-0.125000 I27.464482 J0.763818
G02 X167.034767 Y167.826572 Z-0.125000 I-0.000012 J-762.289477
G03 X175.203039 Y167.798961 Z-0.125000 I5.968031 J557.317589
G02 X175.584608 Y165.752579 Z-0.125000 I-24.772117 J-5.677775
G02 X175.793700 Y163.682423 Z-0.125000 I-24.112334 J-3.481054
G02 X176.723841 Y149.382877 Z-0.125000 I-163.133303 J-17.791345
G02 X176.729559 Y135.043382 Z-0.125000 I-343.304884 J-7.306635
G02 X176.038960 Y122.115806 Z-0.125000 I-201.241283 J4.268190
G03 X175.190636 Y109.196401 Z-0.125000 I323.086738 J-27.702344
G03 X175.195529 Y109.907947 Z-0.125000 I-194.466307 J1.693133
G03 X175.194771 Y110.619567 Z-0.125000 I-58.210752 J0.293817
G03 X174.441965 Y123.591783 Z-0.125000 I-82.582514 J1.715507
G02 X172.893621 Y136.499621 Z-0.125000 I371.789384 J51.144319
G01 X172.711205 Y136.768337 Z-0.125000
G03 X172.457567 Y139.303722 Z-0.125000 I-20.032870 J-0.723693
G02 X172.068866 Y141.824354 Z-0.125000 I122.127693 J20.123316
G03 X171.493962 Y145.194519 Z-0.125000 I-197.485748 J-31.954226
G03 X170.400755 Y148.475618 Z-0.125000 I-11.851637 J-2.126099
G03 X168.618938 Y151.245773 Z-0.125000 I-11.910851 J-5.703160
G03 X166.258377 Y153.657206 Z-0.125000 I-16.584655 J-13.873683
G03 X159.224108 Y159.136533 Z-0.125000 I-57.421516 J-66.461897
G03 X151.406071 Y163.733064 Z-0.125000 I-32.761978 J-46.776455
G03 X147.687904 Y164.167036 Z-0.125000 I-2.410045 J-4.503515
G03 X144.185850 Y163.087627 Z-0.125000 I11.735893 J-44.296913
G03 X132.768478 Y157.682491 Z-0.125000 I35.842414 J-90.471740
G03 X121.931422 Y151.424787 Z-0.125000 I183.512315 J-330.318248
G03 X119.670833 Y149.625325 Z-0.125000 I4.439939 J-7.897380
G03 X118.345600 Y147.202829 Z-0.125000 I4.335208 J-3.945322
G02 X117.446846 Y145.022852 Z-0.125000 I-9.033021 J2.448849
G02 X116.120931 Y143.025312 Z-0.125000 I-15.190040 J8.643931
G02 X112.283872 Y143.908711 Z-0.125000 I1.384749 J14.789535
G03 X108.555510 Y145.096499 Z-0.125000 I-13.545776 J-36.073603
G02 X110.207118 Y163.196091 Z-0.125000 I917.135710 J-74.564483
G03 X111.815774 Y181.303029 Z-0.125000 I-737.266067 J74.625084
G02 X112.106620 Y184.759721 Z-0.125000 I67.853824 J-3.968645
G03 X111.499515 Y188.232315 Z-0.125000 I-6.284431 J0.690674
G03 X109.277279 Y191.769850 Z-0.125000 I-13.556300 J-6.049143
G02 X106.561319 Y195.017938 Z-0.125000 I285.758769 J241.703002
G03 X96.632214 Y206.392068 Z-0.125000 I-7180.265142 J-6258.028246
G03 X86.511923 Y217.635133 Z-0.125000 I-394.682480 J-345.091676
G03 X84.332566 Y217.577666 Z-0.125000 I-0.914887 J-6.657495
G03 X82.264644 Y217.007267 Z-0.125000 I2.530238 J-13.206826
G03 X75.599481 Y214.720950 Z-0.125000 I278.868692 J-823.827630
G02 X68.898551 Y212.516589 Z-0.125000 I-69.398950 J199.675462
G02 X67.925055 Y212.292273 Z-0.125000 I-1.788581 J5.537580
G02 X66.942600 Y212.157955 Z-0.125000 I-14.919053 J105.463806
G02 X66.822945 Y217.617785 Z-0.125000 I16.913866 J3.101902
G03 X67.249040 Y223.049266 Z-0.125000 I-45.556390 J6.306312
G01 X67.249040 Y223.049266 Z-0.125000
G00 Z5.000000

(End cutting path id: path6)


(Start cutting path id: path6)
(Change tool to Default tool)

G00 Z5.000000
G00 X303.026090 Y124.562906

G01 Z-0.125000 F100.0(Penetrate)
G03 X303.221153 Y107.697688 Z-0.125000 I1777.458312 J12.124356 F400.000000
G02 X303.263791 Y90.832172 Z-0.125000 I-611.816791 J-9.979562
G02 X302.960613 Y84.947161 Z-0.125000 I-101.774890 J2.292825
G02 X301.303707 Y79.192583 Z-0.125000 I-15.027896 J1.211132
G02 X297.172631 Y74.497873 Z-0.125000 I-26.221226 J18.908266
G02 X291.094005 Y71.802886 Z-0.125000 I-6.910224 J7.383465
G03 X291.535767 Y70.588155 Z-0.125000 I8.981319 J2.578550
G03 X292.075872 Y69.393196 Z-0.125000 I92.422074 J41.053997
G02 X300.342933 Y69.209565 Z-0.125000 I3.450635 J-30.835735
G02 X308.368391 Y67.481690 Z-0.125000 I-11.342380 J-72.183776
G03 X314.664802 Y65.780012 Z-0.125000 I59.686622 J208.348033
G03 X321.040461 Y64.312382 Z-0.125000 I35.570842 J139.944101
G03 X327.510071 Y63.233908 Z-0.125000 I12.546578 J55.320703
G03 X334.088240 Y62.888714 Z-0.125000 I6.429326 J59.669343
G03 X336.159988 Y62.722530 Z-0.125000 I1.792719 J9.352151
G02 X338.261111 Y62.691309 Z-0.125000 I0.697331 J-23.787624
G02 X343.117731 Y62.652937 Z-0.125000 I1.609888 J-103.603647
G03 X347.983477 Y62.705755 Z-0.125000 I1.807346 J57.651277
G02 X348.032065 Y63.889295 Z-0.125000 I315.598512 J-12.363543
G03 X348.071848 Y65.072556 Z-0.125000 I-63.616732 J2.731172
G02 X345.827155 Y65.361935 Z-0.125000 I2.957332 J31.790484
G03 X343.607539 Y65.681811 Z-0.125000 I-8.898080 J-53.882735
G03 X342.656749 Y65.897128 Z-0.125000 I-3.811039 J-14.621822
G02 X341.735826 Y66.101413 Z-0.125000 I3.205881 J16.630053
G02 X336.434294 Y67.517025 Z-0.125000 I11.839251 J54.973607
G02 X331.465137 Y69.676379 Z-0.125000 I8.255382 J25.794723
G02 X328.074110 Y72.325076 Z-0.125000 I6.856325 J12.272951
G02 X326.306298 Y76.048094 Z-0.125000 I4.912590 J4.613876
G02 X325.689505 Y88.268692 Z-0.125000 I16338.392245 J830.750410
G02 X325.236589 Y100.499267 Z-0.125000 I468.701150 J23.480363
G02 X325.021355 Y105.319248 Z-0.125000 I33.628389 J3.916456
G03 X324.791640 Y110.130194 Z-0.125000 I-32.385536 J0.864598
G02 X324.662404 Y115.709345 Z-0.125000 I73.711099 J4.498518
G03 X324.400454 Y121.267498 Z-0.125000 I-45.095213 J0.659956
G03 X323.929964 Y137.429185 Z-0.125000 I-652.888629 J-10.918802
G02 X323.468222 Y153.585378 Z-0.125000 I625.358710 J25.957312
G03 X325.638822 Y154.905821 Z-0.125000 I-30.479064 J52.547035
G03 X327.767696 Y156.274615 Z-0.125000 I-170.971587 J268.250591
G02 X328.775372 Y153.289576 Z-0.125000 I-207.318242 J-71.648158
G03 X329.769637 Y150.293592 Z-0.125000 I732.215014 J241.334193
G02 X331.739896 Y144.401924 Z-0.125000 I-404.470708 J-138.536148
G03 X333.712532 Y138.514481 Z-0.125000 I376.255426 J122.793246
G02 X333.902317 Y137.819420 Z-0.125000 I-19.310793 J-5.646216
G02 X333.907873 Y137.091313 Z-0.125000 I-1.478379 J-0.375357
G02 X331.487978 Y134.025477 Z-0.125000 I-58.633426 J43.792015
G03 X329.125245 Y130.927344 Z-0.125000 I34.537606 J-28.789474
G02 X330.136672 Y130.027950 Z-0.125000 I-61.142872 J-69.777542
G02 X331.027967 Y129.016367 Z-0.125000 I-3.956332 J-4.384328
G03 X339.260631 Y134.999922 Z-0.125000 I-726.464556 J1008.184765
G03 X347.412454 Y141.067810 Z-0.125000 I-411.801331 J561.738606
G02 X350.359710 Y143.404204 Z-0.125000 I34.978276 J-41.096400
G03 X352.762508 Y146.198757 Z-0.125000 I-4.898275 J6.641867
G03 X352.901580 Y148.496143 Z-0.125000 I-8.077697 J1.641884
G03 X352.321713 Y150.745243 Z-0.125000 I-6.735914 J-0.537365
G03 X349.155903 Y157.085028 Z-0.125000 I-48.571603 J-20.294193
G03 X345.487005 Y163.213201 Z-0.125000 I-343.511125 J-201.495603
G02 X343.105768 Y166.898688 Z-0.125000 I307.309891 J201.168527
G03 X340.581371 Y170.506286 Z-0.125000 I-43.292034 J-27.606352
G03 X339.602884 Y171.124267 Z-0.125000 I-1.131693 J-0.708238
G03 X338.433698 Y171.090747 Z-0.125000 I-0.468741 J-4.057639
G03 X337.006123 Y170.479932 Z-0.125000 I0.301999 J-2.679468
G02 X335.779587 Y169.627788 Z-0.125000 I-5.379169 J6.433744
G02 X329.816367 Y166.223953 Z-0.125000 I-143.861824 J245.107782
G03 X323.817048 Y162.875754 Z-0.125000 I682.517556 J-1229.987367
G02 X323.258252 Y167.647837 Z-0.125000 I38.642929 J6.943725
G03 X322.647591 Y172.413662 Z-0.125000 I-33.298682 J-1.844634
G03 X322.112257 Y173.484954 Z-0.125000 I-1.983746 J-0.321894
G03 X321.057527 Y173.936565 Z-0.125000 I-1.061040 J-1.020585
G03 X320.681811 Y173.879660 Z-0.125000 I-0.005280 J-1.233922
G03 X320.254465 Y173.668881 Z-0.125000 I0.468384 J-1.488235
G03 X309.807818 Y165.116347 Z-0.125000 I555.506569 J-689.189897
G02 X299.328648 Y156.600692 Z-0.125000 I-383.186075 J460.834486
G03 X297.854169 Y154.981881 Z-0.125000 I4.647792 J-5.714311
G02 X296.639929 Y153.215890 Z-0.125000 I-69.850436 J46.726527
G03 X296.680094 Y152.563633 Z-0.125000 I38.138094 J2.021125
G03 X296.731898 Y151.910546 Z-0.125000 I35.910831 J2.519910
G03 X299.580314 Y152.007401 Z-0.125000 I0.749700 J19.885157
G02 X302.435435 Y152.083144 Z-0.125000 I1.905099 J-17.962736
G03 X302.574356 Y142.788476 Z-0.125000 I138.774980 J-2.574197
G02 X302.776482 Y133.494646 Z-0.125000 I-173.947030 J-8.432192
G02 X302.824754 Y129.018687 Z-0.125000 I-65.088992 J-2.940209
G03 X303.026090 Y124.562906 Z-0.125000 I32.466011 J-0.765455
G01 X303.026090 Y124.562906 Z-0.125000
G00 Z5.000000

(End cutting path id: path6)


(Footer)
M5
G00 X0.0000 Y0.0000
M2
(Using default footer. To add your own footer create file "footer" in the output dir.)
(end)
%