%
(Header)
(Generated by gcodetools from Inkscape.)
(Using default header. To add your own header create file "header" in the output dir.)
M3
(Header end.)
G21 (All units in mm)

(Start cutting path id: text1310)
(Change tool to Default tool)

G00 Z5.000000
G00 X208.374614 Y212.746033

G01 Z-0.125000 F100.0(Penetrate)
G02 X207.205944 Y204.250035 Z-0.125000 I-90.162682 J8.073991 F400.000000
G02 X205.400641 Y196.774935 Z-0.125000 I-71.507311 J13.314102
G02 X202.811402 Y189.551888 Z-0.125000 I-64.042801 J18.881757
G02 X199.815458 Y183.627433 Z-0.125000 I-45.978341 J19.531099
G01 X197.023385 Y183.877546 Z-0.125000
G01 X197.000646 Y183.627433 Z-0.125000
G01 X188.306616 Y183.627433 Z-0.125000
G03 X188.974210 Y188.396701 Z-0.125000 I-17.739371 J4.914487
G03 X188.324184 Y194.247961 Z-0.125000 I-24.892509 J0.196387
G03 X185.018941 Y202.008086 Z-0.125000 I-23.792209 J-5.549776
G03 X180.176890 Y206.789299 Z-0.125000 I-13.338289 J-8.665573
G03 X175.756344 Y208.726247 Z-0.125000 I-8.493889 J-13.372135
G03 X170.558367 Y209.348827 Z-0.125000 I-4.794548 J-18.019631
G03 X168.118829 Y209.161577 Z-0.125000 I0.480951 J-22.250990
G03 X165.399514 Y208.665666 Z-0.125000 I3.719147 J-28.097440
G03 X157.675231 Y205.336918 Z-0.125000 I5.403481 J-23.165038
G03 X152.977033 Y200.444474 Z-0.125000 I8.537994 J-12.901063
G03 X151.199657 Y196.155571 Z-0.125000 I12.957346 J-7.882424
G03 X150.619556 Y191.139111 Z-0.125000 I19.820179 J-4.833767
G03 X150.722615 Y189.180570 Z-0.125000 I22.491838 J0.201539
G03 X150.997828 Y187.066496 Z-0.125000 I31.896733 J3.077413
G01 X140.096183 Y181.855449 Z-0.125000
G02 X140.071413 Y182.261222 Z-0.125000 I4.108804 J0.454460
G03 X140.032103 Y182.676588 Z-0.125000 I-2.528900 J-0.029787
G03 X139.911932 Y183.148098 Z-0.125000 I-3.461930 J-0.631257
G02 X139.777855 Y183.609862 Z-0.125000 I6.315800 J2.084189
G03 X139.178254 Y185.520677 Z-0.125000 I-16.857978 J-4.240436
G03 X138.323167 Y187.309891 Z-0.125000 I-11.036969 J-4.175765
G03 X136.458476 Y189.831021 Z-0.125000 I-12.684296 J-7.431471
G03 X134.524954 Y191.438317 Z-0.125000 I-6.946794 J-6.390128
G03 X132.261711 Y192.493321 Z-0.125000 I-5.095602 J-7.976211
G03 X129.699412 Y192.951917 Z-0.125000 I-3.079784 J-9.820150
G03 X129.421975 Y192.962101 Z-0.125000 I-0.565870 J-11.631620
G03 X129.141825 Y192.965869 Z-0.125000 I-0.306432 J-12.368290
G03 X127.201845 Y192.820840 Z-0.125000 I-0.028944 J-12.660443
G03 X125.081613 Y192.345237 Z-0.125000 I2.373831 J-15.546265
G03 X122.764420 Y191.494800 Z-0.125000 I4.575373 J-16.048632
G03 X119.653010 Y189.883374 Z-0.125000 I13.894734 J-30.638064
G01 X106.127239 Y181.958803 Z-0.125000
G01 X118.200905 Y161.350267 Z-0.125000
G01 X110.527998 Y153.883033 Z-0.125000
G02 X110.424008 Y154.005370 Z-0.125000 I0.686682 J0.689063
G03 X110.317675 Y154.127463 Z-0.125000 I-0.696393 J-0.499151
G03 X108.247773 Y155.776105 Z-0.125000 I-10.479115 J-11.033013
G03 X106.140675 Y156.897316 Z-0.125000 I-6.843437 J-10.320361
G03 X103.847191 Y157.508231 Z-0.125000 I-3.382138 J-8.086628
G03 X101.493936 Y157.479193 Z-0.125000 I-1.071204 J-8.558130
G03 X99.216213 Y156.878655 Z-0.125000 I1.461938 J-10.164590
G03 X97.029613 Y155.733048 Z-0.125000 I4.099320 J-10.483868
G03 X95.036718 Y154.211609 Z-0.125000 I9.982565 J-15.141855
G03 X92.259886 Y151.539511 Z-0.125000 I28.308286 J-32.196728
G01 X86.947554 Y145.946059 Z-0.125000
G01 X82.145269 Y150.507015 Z-0.125000
G01 X95.384238 Y164.445682 Z-0.125000
G01 X90.204200 Y169.365272 Z-0.125000
G01 X70.440056 Y148.556234 Z-0.125000
G01 X90.890978 Y129.132122 Z-0.125000
G01 X83.039787 Y120.064466 Z-0.125000
G03 X80.038124 Y122.902149 Z-0.125000 I-14.844947 J-12.696382
G03 X75.812848 Y125.514770 Z-0.125000 I-15.453736 J-20.269661
G03 X70.686945 Y127.414260 Z-0.125000 I-11.905134 J-24.260762
G03 X66.258920 Y127.990579 Z-0.125000 I-4.523326 J-17.454983
G03 X63.559326 Y127.784338 Z-0.125000 I-0.091404 J-16.574929
G03 X60.947107 Y127.145156 Z-0.125000 I2.584402 J-16.219399
G03 X55.110187 Y123.651510 Z-0.125000 I4.900587 J-14.810296
G03 X50.141063 Y116.892063 Z-0.125000 I16.330726 J-17.211547
G03 X47.828972 Y108.804798 Z-0.125000 I21.356118 J-10.479701
G03 X48.642965 Y102.071287 Z-0.125000 I15.389319 J-1.555588
G03 X52.216025 Y96.296448 Z-0.125000 I14.998604 J5.287272
G03 X59.039733 Y91.332921 Z-0.125000 I17.640551 J17.079425
G03 X63.764365 Y89.551454 Z-0.125000 I11.649705 J23.740358
G03 X67.905330 Y88.906722 Z-0.125000 I4.975841 J18.338081
G03 X68.067081 Y88.912506 Z-0.125000 I0.044496 J1.020169
G02 X68.228307 Y88.919633 Z-0.125000 I0.130787 J-1.131451
G01 X66.574663 Y76.126648 Z-0.125000
G01 X37.078826 Y80.124842 Z-0.125000
G01 X33.377249 Y52.816966 Z-0.125000
G02 X41.811459 Y51.263568 Z-0.125000 I-12.153850 J-89.663216
G02 X49.196936 Y49.120556 Z-0.125000 I-16.557054 J-70.858495
G02 X56.294676 Y46.206030 Z-0.125000 I-21.763520 J-63.100473
G02 X62.076752 Y42.944210 Z-0.125000 I-21.604418 J-45.052862
G01 X61.700549 Y40.166591 Z-0.125000
G01 X77.210177 Y38.063897 Z-0.125000
G01 X78.386331 Y46.740870 Z-0.125000
G01 X69.857146 Y47.896859 Z-0.125000
G01 X71.696826 Y61.467613 Z-0.125000
G01 X64.587708 Y61.467613 Z-0.125000
G01 X63.303033 Y51.989641 Z-0.125000
G03 X59.068786 Y54.471005 Z-0.125000 I-25.712883 J-39.023564
G03 X53.736188 Y56.940756 Z-0.125000 I-30.830648 J-59.576588
G03 X48.173939 Y58.925073 Z-0.125000 I-22.516544 J-54.328310
G03 X41.639266 Y60.582900 Z-0.125000 I-22.099660 J-73.402633
G01 X42.878467 Y69.726518 Z-0.125000
G01 X65.295158 Y66.687941 Z-0.125000
G01 X64.607861 Y61.616440 Z-0.125000
G01 X71.716979 Y61.616440 Z-0.125000
G01 X72.869362 Y70.117201 Z-0.125000
G01 X81.398547 Y68.961185 Z-0.125000
G01 X82.574701 Y77.637656 Z-0.125000
G01 X67.121916 Y79.732095 Z-0.125000
G02 X67.842415 Y84.191330 Z-0.125000 I785.273999 J-124.592508
G02 X68.627766 Y88.936170 Z-0.125000 I2375.183305 J-390.695563
G03 X71.286981 Y89.104956 Z-0.125000 I0.087109 J19.659919
G03 X73.872399 Y89.691157 Z-0.125000 I-1.892555 J14.341571
G03 X79.077987 Y92.673377 Z-0.125000 I-4.636259 J14.127177
G03 X83.570504 Y98.109765 Z-0.125000 I-14.947920 J16.927101
G01 X78.896378 Y101.443934 Z-0.125000
G01 X77.848380 Y102.090390 Z-0.125000
G02 X77.123953 Y101.092748 Z-0.125000 I-9.935658 J6.452832
G02 X76.268116 Y100.203172 Z-0.125000 I-5.589601 J4.521131
G02 X74.810247 Y99.212243 Z-0.125000 I-4.777669 J5.461088
G02 X73.052298 Y98.548497 Z-0.125000 I-3.772687 J7.332201
G02 X71.180535 Y98.284335 Z-0.125000 I-2.170126 J8.613354
G02 X68.782277 Y98.405357 Z-0.125000 I-0.480590 J14.299504
G02 X66.425902 Y98.972246 Z-0.125000 I2.004470 J13.512727
G02 X63.399667 Y100.218148 Z-0.125000 I7.964116 J23.642699
G02 X60.629991 Y101.817861 Z-0.125000 I10.432274 J21.259508
G02 X58.661462 Y103.399864 Z-0.125000 I8.233209 J12.260552
G02 X56.993861 Y105.320609 Z-0.125000 I10.175550 J10.518749
G02 X56.106066 Y106.919559 Z-0.125000 I6.125457 J4.447018
G02 X55.567031 Y108.810104 Z-0.125000 I8.783695 J3.526536
G02 X55.480264 Y110.486773 Z-0.125000 I6.793439 J1.192140
G02 X55.774854 Y112.173748 Z-0.125000 I8.797838 J-0.667123
G02 X56.409405 Y113.843669 Z-0.125000 I9.264142 J-2.564749
G02 X57.333778 Y115.342245 Z-0.125000 I8.201623 J-4.024658
G02 X58.518320 Y116.621791 Z-0.125000 I7.123594 J-5.406613
G02 X59.958388 Y117.618484 Z-0.125000 I4.649620 J-5.179303
G02 X61.744991 Y118.298692 Z-0.125000 I3.825157 J-7.360578
G02 X62.904098 Y118.513048 Z-0.125000 I2.057354 J-7.883865
G02 X64.274548 Y118.579282 Z-0.125000 I1.217182 J-10.973596
G02 X65.100970 Y118.540926 Z-0.125000 I-0.185748 J-12.924504
G02 X66.015009 Y118.441831 Z-0.125000 I-1.216029 J-15.481505
G02 X68.380937 Y117.889346 Z-0.125000 I-1.818397 J-13.129078
G02 X71.430692 Y116.640391 Z-0.125000 I-7.711985 J-23.179483
G02 X74.106453 Y115.116213 Z-0.125000 I-11.018022 J-22.453413
G02 X75.990098 Y113.657112 Z-0.125000 I-8.194201 J-12.523813
G02 X77.557249 Y111.915233 Z-0.125000 I-8.212781 J-8.964874
G02 X78.646262 Y110.060450 Z-0.125000 I-8.236258 J-6.082909
G02 X79.219916 Y108.250888 Z-0.125000 I-7.695126 J-3.435160
G02 X79.349579 Y106.482891 Z-0.125000 I-7.210662 J-1.417577
G02 X79.066414 Y104.731050 Z-0.125000 I-8.879166 J0.536411
G02 X78.432323 Y103.037094 Z-0.125000 I-8.930841 J2.377386
G02 X78.210501 Y102.651423 Z-0.125000 I-3.040992 J1.492423
G03 X77.970337 Y102.287795 Z-0.125000 I45.644672 J-30.407896
G01 X79.262762 Y101.365882 Z-0.125000
G02 X82.312194 Y99.474145 Z-0.125000 I-4.294631 J-10.326509
G03 X84.678445 Y99.944278 Z-0.125000 I1.001335 J1.150049
G03 X86.999346 Y108.053537 Z-0.125000 I-21.450214 J10.525887
G03 X86.187396 Y114.787278 Z-0.125000 I-15.369861 J1.562536
G03 X85.285817 Y116.829949 Z-0.125000 I-14.619621 J-5.232404
G03 X84.124990 Y118.727607 Z-0.125000 I-16.020841 J-8.496315
G03 X83.647606 Y119.343314 Z-0.125000 I-6.489688 J-4.538815
G02 X83.135389 Y119.946647 Z-0.125000 I62.168641 J53.298979
G01 X90.999500 Y129.029278 Z-0.125000
G01 X92.355488 Y127.741500 Z-0.125000
G01 X97.220301 Y123.121114 Z-0.125000
G01 X108.955486 Y135.476944 Z-0.125000
G03 X111.187662 Y138.109743 Z-0.125000 I-22.189336 J21.075531
G03 X112.535624 Y140.218250 Z-0.125000 I-12.815322 J9.677925
G03 X113.461544 Y142.553528 Z-0.125000 I-10.454438 J5.496304
G03 X113.964476 Y145.361082 Z-0.125000 I-14.689999 J4.080318
G03 X113.873949 Y147.603932 Z-0.125000 I-9.200493 J0.751898
G03 X113.215169 Y149.938577 Z-0.125000 I-10.633919 J-1.740365
G03 X112.751636 Y150.905857 Z-0.125000 I-7.778018 J-3.132621
G03 X112.191460 Y151.835097 Z-0.125000 I-14.970672 J-8.391331
G03 X111.474452 Y152.821368 Z-0.125000 I-9.398230 J-6.078654
G03 X110.617914 Y153.778647 Z-0.125000 I-10.647109 J-8.664797
G01 X118.272734 Y161.228313 Z-0.125000
G01 X119.740860 Y158.722524 Z-0.125000
G01 X124.797393 Y150.091022 Z-0.125000
G01 X133.016002 Y154.906226 Z-0.125000
G01 X126.934729 Y165.285939 Z-0.125000
G01 X132.049655 Y168.282654 Z-0.125000
G03 X135.316990 Y170.575884 Z-0.125000 I-12.316987 J21.023141
G03 X137.306692 Y172.656541 Z-0.125000 I-8.110884 J9.748010
G03 X138.830337 Y175.129895 Z-0.125000 I-11.515969 J8.800090
G03 X139.898261 Y177.998327 Z-0.125000 I-14.465379 J7.018508
G03 X140.152757 Y179.665114 Z-0.125000 I-7.864191 J2.053579
G03 X140.127186 Y181.454442 Z-0.125000 I-14.448615 J0.688364
G01 X151.062423 Y186.682023 Z-0.125000
G02 X151.145141 Y186.148222 Z-0.125000 I-10.229467 J-1.858482
G03 X151.244324 Y185.598370 Z-0.125000 I5.467242 J0.702310
G03 X154.520345 Y177.895412 Z-0.125000 I23.683951 J5.524524
G03 X159.361132 Y173.075635 Z-0.125000 I13.590007 J8.808418
G03 X165.737664 Y170.767238 Z-0.125000 I8.325509 J13.036506
G03 X174.134889 Y171.198750 Z-0.125000 I2.997103 J23.597118
G01 X173.808811 Y178.407605 Z-0.125000
G02 X173.208750 Y178.180984 Z-0.125000 I-14.070401 J36.348715
G02 X172.579945 Y177.992643 Z-0.125000 I-1.834822 J4.981999
G02 X170.786585 Y177.756246 Z-0.125000 I-2.097656 J8.992664
G02 X169.015827 Y177.874819 Z-0.125000 I-0.293427 J8.899429
G02 X167.325840 Y178.376253 Z-0.125000 I1.204123 J7.156872
G02 X165.699237 Y179.317109 Z-0.125000 I3.287541 J7.560191
G02 X164.310380 Y180.599012 Z-0.125000 I5.286014 J7.120364
G02 X162.886494 Y182.532411 Z-0.125000 I10.786887 J9.435210
G02 X161.833675 Y184.715427 Z-0.125000 I11.743307 J7.008915
G02 X160.882485 Y187.846810 Z-0.125000 I23.306509 J8.789759
G02 X160.367850 Y191.003732 Z-0.125000 I23.068523 J5.380991
G02 X160.346601 Y193.529142 Z-0.125000 I14.701874 J1.386497
G02 X160.778106 Y196.035799 Z-0.125000 I14.585428 J-1.220323
G02 X161.454023 Y197.735081 Z-0.125000 I7.319303 J-1.927303
G02 X162.576545 Y199.349067 Z-0.125000 I8.289938 J-4.568274
G02 X163.819769 Y200.477547 Z-0.125000 I5.223358 J-4.505411
G02 X165.312466 Y201.317355 Z-0.125000 I5.053194 J-7.235200
G02 X167.007166 Y201.883144 Z-0.125000 I3.878449 J-8.796106
G02 X168.101270 Y202.070233 Z-0.125000 I2.109365 J-9.042940
G02 X169.183776 Y202.122404 Z-0.125000 I0.965583 J-8.778395
G02 X169.835684 Y202.089759 Z-0.125000 I-0.124030 J-9.002493
G02 X170.492737 Y202.008718 Z-0.125000 I-0.783244 J-9.054310
G02 X172.175778 Y201.524676 Z-0.125000 I-1.067167 J-6.878634
G02 X173.833097 Y200.572114 Z-0.125000 I-3.277137 J-7.619772
G02 X175.212561 Y199.309853 Z-0.125000 I-4.978710 J-6.825893
G02 X176.646358 Y197.356812 Z-0.125000 I-10.665831 J-9.332988
G02 X177.716257 Y195.175417 Z-0.125000 I-11.321962 J-6.906103
G02 X178.679824 Y192.023811 Z-0.125000 I-22.811441 J-8.697437
G02 X179.193407 Y188.987428 Z-0.125000 I-24.355119 J-5.681123
G02 X179.256017 Y186.605542 Z-0.125000 I-14.885505 J-1.583046
G02 X178.899377 Y184.289924 Z-0.125000 I-12.136076 J0.683865
G02 X178.152724 Y182.272996 Z-0.125000 I-9.923070 J2.526783
G02 X177.114708 Y180.683116 Z-0.125000 I-7.534614 J3.785479
G02 X175.827807 Y179.463352 Z-0.125000 I-5.661616 J4.684485
G02 X174.919045 Y178.902835 Z-0.125000 I-4.322044 J5.990353
G02 X173.956089 Y178.457214 Z-0.125000 I-5.226439 J10.030734
G01 X174.281648 Y171.244226 Z-0.125000
G03 X181.927541 Y174.568716 Z-0.125000 I-5.532511 J23.178583
G03 X186.585276 Y179.425627 Z-0.125000 I-8.513621 J12.826304
G03 X187.557377 Y181.378232 Z-0.125000 I-11.719731 J7.052933
G03 X188.265275 Y183.434163 Z-0.125000 I-19.983455 J8.030533
G03 X188.269937 Y183.456378 Z-0.125000 I-0.147255 J0.042506
G02 X188.274575 Y183.478605 Z-0.125000 I0.154515 J-0.020638
G01 X196.987211 Y183.478605 Z-0.125000
G01 X195.627606 Y168.288337 Z-0.125000
G01 X204.348510 Y167.507507 Z-0.125000
G01 X205.116420 Y176.080100 Z-0.125000
G01 X218.972404 Y174.839351 Z-0.125000
G01 X218.650978 Y181.941232 Z-0.125000
G01 X208.906881 Y182.813531 Z-0.125000
G03 X211.193547 Y187.156090 Z-0.125000 I-40.162578 J23.921778
G03 X213.418746 Y192.595350 Z-0.125000 I-60.891291 J28.085398
G03 X215.148509 Y198.241986 Z-0.125000 I-55.294725 J20.026969
G03 X216.507959 Y204.845233 Z-0.125000 I-74.328438 J18.744012
G01 X225.698602 Y204.022028 Z-0.125000
G01 X223.681156 Y181.490616 Z-0.125000
G01 X218.800838 Y181.927797 Z-0.125000
G01 X219.121748 Y174.825916 Z-0.125000
G01 X227.450430 Y174.080225 Z-0.125000
G01 X226.682520 Y165.507114 Z-0.125000
G01 X235.403940 Y164.726285 Z-0.125000
G01 X236.750625 Y179.765140 Z-0.125000
G01 X246.253394 Y177.440739 Z-0.125000
G03 X246.549004 Y175.691469 Z-0.125000 I20.777551 J2.611602
G03 X247.050759 Y173.979456 Z-0.125000 I11.595083 J2.468744
G03 X250.789663 Y168.320048 Z-0.125000 I14.462571 J5.489974
G03 X257.787040 Y163.652967 Z-0.125000 I16.490514 J17.145167
G03 X258.074649 Y163.551513 Z-0.125000 I0.853376 J1.960808
G02 X258.359098 Y163.454530 Z-0.125000 I-0.653899 J-2.383505
G01 X261.242640 Y169.823125 Z-0.125000
G03 X260.917028 Y169.922150 Z-0.125000 I-1.337746 J-3.813869
G02 X260.591001 Y170.034481 Z-0.125000 I0.549281 J2.123513
G02 X259.011242 Y170.915066 Z-0.125000 I3.687621 J8.472877
G02 X257.661466 Y172.066913 Z-0.125000 I5.070731 J7.308847
G02 X256.604957 Y173.477934 Z-0.125000 I5.238000 J5.023022
G02 X255.861580 Y175.203669 Z-0.125000 I7.149996 J4.102908
G02 X255.512466 Y177.061247 Z-0.125000 I8.493566 J2.557877
G02 X255.524133 Y179.462317 Z-0.125000 I14.283183 J1.131160
G02 X255.982664 Y181.842269 Z-0.125000 I13.599221 J-1.385932
G02 X257.088893 Y184.922443 Z-0.125000 I23.961681 J-6.866983
G02 X258.560221 Y187.762403 Z-0.125000 I21.736096 J-9.459932
G02 X260.050466 Y189.801210 Z-0.125000 I12.615268 J-7.656957
G02 X261.893025 Y191.554809 Z-0.125000 I10.975699 J-9.687684
G02 X263.449738 Y192.514734 Z-0.125000 I4.721714 J-5.914994
G02 X265.313813 Y193.139559 Z-0.125000 I3.923321 J-8.611637
G02 X266.984911 Y193.302799 Z-0.125000 I1.501328 J-6.733998
G02 X268.683735 Y193.085696 Z-0.125000 I-0.264683 J-8.826278
G02 X270.381098 Y192.528172 Z-0.125000 I-2.136035 J-9.365640
G02 X271.920113 Y191.672996 Z-0.125000 I-3.639556 J-8.362338
G02 X273.252221 Y190.547932 Z-0.125000 I-5.086626 J-7.373874
G02 X274.313693 Y189.154924 Z-0.125000 I-4.963883 J-4.883403
G02 X275.074854 Y187.401358 Z-0.125000 I-7.175181 J-4.156471
G02 X275.428196 Y185.565133 Z-0.125000 I-8.070895 J-2.505182
G02 X275.412806 Y183.142193 Z-0.125000 I-14.126738 J-1.121785
G02 X274.969105 Y180.753552 Z-0.125000 I-13.205065 J1.217368
G02 X273.860973 Y177.650027 Z-0.125000 I-23.489705 J6.637541
G02 X272.460582 Y174.907270 Z-0.125000 I-22.938265 J9.982890
G02 X271.089043 Y172.958846 Z-0.125000 I-12.885014 J7.613108
G02 X269.420259 Y171.313810 Z-0.125000 I-9.322315 J7.787938
G02 X267.617450 Y170.141452 Z-0.125000 I-6.461041 J7.963231
G02 X265.835883 Y169.485681 Z-0.125000 I-3.783890 J7.531968
G02 X264.075538 Y169.275356 Z-0.125000 I-1.745562 J7.137810
G02 X262.713445 Y169.422327 Z-0.125000 I0.108327 J7.389217
G02 X261.385266 Y169.776616 Z-0.125000 I2.266772 J11.164513
G01 X258.500176 Y163.405436 Z-0.125000
G03 X265.210289 Y161.796500 Z-0.125000 I8.721799 J21.577674
G03 X270.804828 Y162.288195 Z-0.125000 I1.400338 J16.140231
G01 X282.393272 Y153.204005 Z-0.125000
G03 X282.448079 Y153.188840 Z-0.125000 I0.045591 J0.058150
G03 X282.497650 Y153.216925 Z-0.125000 I-0.009336 J0.074269
G03 X282.513060 Y153.271703 Z-0.125000 I-0.059029 J0.046162
G03 X282.485241 Y153.321310 Z-0.125000 I-0.073264 J-0.008481
G01 X270.982072 Y162.338836 Z-0.125000
G02 X271.836002 Y162.556098 Z-0.125000 I4.843881 J-17.251729
G03 X272.683261 Y162.823560 Z-0.125000 I-1.219100 J5.337518
G03 X274.543297 Y163.753167 Z-0.125000 I-5.333019 J12.996418
G03 X276.265477 Y164.900434 Z-0.125000 I-10.576594 J17.742918
G03 X279.821466 Y168.401756 Z-0.125000 I-10.655577 J14.378359
G03 X282.926037 Y173.677665 Z-0.125000 I-20.073136 J15.363278
G03 X284.906507 Y181.876280 Z-0.125000 I-22.402844 J9.750177
G03 X283.875863 Y188.602316 Z-0.125000 I-15.871606 J1.009943
G03 X280.119138 Y194.273607 Z-0.125000 I-14.570373 J-5.571681
G03 X273.139561 Y198.928805 Z-0.125000 I-16.448579 J-17.101621
G03 X268.451901 Y200.474009 Z-0.125000 I-10.710339 J-24.608747
G03 X264.415051 Y200.937466 Z-0.125000 I-4.078290 J-17.710290
G03 X261.260738 Y200.638911 Z-0.125000 I-0.038295 J-16.407730
G03 X258.266081 Y199.748393 Z-0.125000 I3.032989 J-15.679935
G03 X252.660569 Y195.915312 Z-0.125000 I5.966750 J-14.741099
G03 X248.014006 Y188.872069 Z-0.125000 I17.867352 J-16.841772
G03 X246.465137 Y183.968061 Z-0.125000 I22.587807 J-9.830672
G03 X246.063740 Y179.722767 Z-0.125000 I19.546715 J-3.989783
G03 X246.125228 Y178.650175 Z-0.125000 I12.085476 J0.154757
G03 X246.240474 Y177.597319 Z-0.125000 I72.137101 J7.363401
G01 X236.764061 Y179.915003 Z-0.125000
G01 X236.799719 Y180.315494 Z-0.125000
G01 X234.159056 Y180.552172 Z-0.125000
G01 X233.275907 Y180.768180 Z-0.125000
G03 X233.219327 Y180.759510 Z-0.125000 I-0.017802 J-0.072782
G03 X233.185472 Y180.713403 Z-0.125000 I0.038609 J-0.063831
G03 X233.187826 Y180.669996 Z-0.125000 I0.072848 J-0.017817
G03 X233.211828 Y180.636923 Z-0.125000 I0.069604 J0.025267
G01 X233.167902 Y180.641056 Z-0.125000
G01 X235.823034 Y210.287787 Z-0.125000
G01 X208.374614 Y212.746033 Z-0.125000
G01 X208.374614 Y212.746033 Z-0.125000
G00 Z5.000000

(End cutting path id: text1310)


(Start cutting path id: text1310)
(Change tool to Default tool)

G00 Z5.000000
G00 X180.838348 Y148.807898

G01 Z-0.125000 F100.0(Penetrate)
G03 X171.692082 Y146.987183 Z-0.125000 I0.166528 J-24.719793 F400.000000
G03 X163.312306 Y141.386138 Z-0.125000 I9.419706 J-23.161965
G03 X156.150797 Y123.761883 Z-0.125000 I17.694363 J-17.457143
G03 X163.548984 Y106.235876 Z-0.125000 I24.854148 J0.167100
G01 X205.993886 Y68.747243 Z-0.125000
G01 X197.896199 Y60.460424 Z-0.125000
G01 X172.527753 Y60.578772 Z-0.125000
G02 X172.433052 Y55.518567 Z-0.125000 I-1012.001675 J16.408607
G02 X172.336550 Y51.578823 Z-0.125000 I-601.249443 J12.756224
G02 X172.228932 Y47.672261 Z-0.125000 I-298.448099 J6.266877
G02 X172.090054 Y44.340493 Z-0.125000 I-220.069490 J7.504390
G02 X171.522898 Y35.968969 Z-0.125000 I-190.137017 J8.676469
G02 X170.914416 Y31.273110 Z-0.125000 I-60.212988 J5.414947
G02 X169.650567 Y26.879853 Z-0.125000 I-19.372531 J3.194656
G02 X168.069633 Y24.483354 Z-0.125000 I-7.145677 J2.994187
G02 X167.444654 Y23.990716 Z-0.125000 I-2.360585 J2.351972
G02 X166.756537 Y23.682356 Z-0.125000 I-1.555887 J2.550055
G02 X166.006934 Y23.533212 Z-0.125000 I-1.130690 J3.724550
G02 X164.486393 Y23.458598 Z-0.125000 I-1.520541 J15.456067
G02 X164.076571 Y23.467445 Z-0.125000 I0.000000 J9.496643
G02 X163.747937 Y23.490639 Z-0.125000 I0.260494 J6.030709
G02 X163.447174 Y23.523983 Z-0.125000 I4.073910 J38.119221
G02 X163.200687 Y23.554192 Z-0.125000 I1.868026 J16.263026
G01 X162.817764 Y23.554192 Z-0.125000
G01 X162.817764 Y12.889221 Z-0.125000
G03 X163.229443 Y12.835867 Z-0.125000 I1.235687 J7.919583
G03 X164.678113 Y12.697002 Z-0.125000 I10.081790 J97.549375
G03 X166.156276 Y12.599617 Z-0.125000 I3.087244 J35.593108
G03 X167.522380 Y12.568838 Z-0.125000 I1.366104 J30.301110
G03 X169.716055 Y12.798210 Z-0.125000 I-0.000000 J10.604635
G03 X171.761910 Y13.465430 Z-0.125000 I-2.086191 J9.866907
G03 X173.627612 Y14.541224 Z-0.125000 I-4.379184 J9.750333
G03 X175.099169 Y15.867870 Z-0.125000 I-5.286995 J7.343967
G03 X176.060163 Y17.077409 Z-0.125000 I-9.224824 J8.315773
G03 X177.177593 Y18.846493 Z-0.125000 I-18.744545 J13.077313
G03 X178.100240 Y20.723288 Z-0.125000 I-14.988931 J8.533863
G03 X179.146980 Y23.554192 Z-0.125000 I-33.089833 J13.844085
G03 X179.922652 Y26.435109 Z-0.125000 I-32.587446 J10.318881
G03 X180.760833 Y30.793024 Z-0.125000 I-73.831427 J16.459958
G03 X181.353590 Y35.228915 Z-0.125000 I-67.468995 J11.273266
G03 X181.854820 Y41.682281 Z-0.125000 I-142.444523 J14.309748
G03 X182.013609 Y44.629215 Z-0.125000 I-814.340172 J45.356652
G03 X182.101316 Y46.422550 Z-0.125000 I-284.325472 J14.804395
G03 X182.182048 Y48.216055 Z-0.125000 I-1225.109897 J56.045226
G03 X182.319907 Y51.354536 Z-0.125000 I-4429.653501 J196.145176
G01 X193.971896 Y51.354536 Z-0.125000
G01 X193.971896 Y12.889221 Z-0.125000
G01 X204.475116 Y12.889221 Z-0.125000
G01 X204.475116 Y60.429944 Z-0.125000
G01 X198.325112 Y60.458361 Z-0.125000
G01 X206.971602 Y69.307418 Z-0.125000
G01 X214.862584 Y60.615470 Z-0.125000
G03 X214.897690 Y60.598449 Z-0.125000 I0.038692 J0.035088
G03 X214.934931 Y60.610284 Z-0.125000 I0.003649 J0.053030
G01 X215.096160 Y60.742073 Z-0.125000
G01 X215.113406 Y60.775075 Z-0.125000
G01 X215.101328 Y60.810283 Z-0.125000
G01 X207.186576 Y69.527578 Z-0.125000
G01 X208.392701 Y70.762122 Z-0.125000
G01 X248.653759 Y106.059664 Z-0.125000
G03 X256.124705 Y123.555409 Z-0.125000 I-17.384133 J17.766261
G03 X249.036164 Y141.209404 Z-0.125000 I-24.854193 J0.270507
G03 X231.540175 Y148.680731 Z-0.125000 I-17.767163 J-17.384987
G03 X213.885899 Y141.592325 Z-0.125000 I-0.271145 J-24.853628
G01 X206.158732 Y134.031564 Z-0.125000
G01 X198.463605 Y141.623847 Z-0.125000
G03 X190.008638 Y147.111053 Z-0.125000 I-17.557720 J-17.796306
G03 X180.838348 Y148.807898 Z-0.125000 I-9.003449 J-23.029507
G01 X180.838348 Y148.807898 Z-0.125000
G00 Z5.000000

(End cutting path id: text1310)


(Start cutting path id: text1310)
(Change tool to Default tool)

G00 Z5.000000
G00 X125.966313 Y184.447021

G01 Z-0.125000 F100.0(Penetrate)
G02 X126.859460 Y184.346515 Z-0.125000 I-0.020634 J-4.202097 F400.000000
G02 X127.857668 Y184.024824 Z-0.125000 I-1.233817 J-5.538093
G02 X128.991317 Y183.306509 Z-0.125000 I-1.512902 J-3.641398
G02 X129.939709 Y182.139670 Z-0.125000 I-3.321343 J-3.668383
G02 X130.626389 Y180.727663 Z-0.125000 I-8.768428 J-5.137196
G02 X130.942746 Y179.593577 Z-0.125000 I-5.312917 J-2.093220
G02 X131.000592 Y178.462280 Z-0.125000 I-4.293532 J-0.786669
G02 X130.761364 Y177.302246 Z-0.125000 I-4.760323 J0.377017
G02 X130.133720 Y176.101143 Z-0.125000 I-4.646807 J1.663678
G02 X129.073097 Y174.933402 Z-0.125000 I-5.450617 J3.885093
G02 X127.822263 Y173.960215 Z-0.125000 I-9.153004 J10.473871
G02 X125.777694 Y172.658092 Z-0.125000 I-18.556920 J26.881496
G01 X123.423837 Y171.278331 Z-0.125000
G01 X117.831420 Y180.823991 Z-0.125000
G01 X119.243735 Y181.651329 Z-0.125000
G02 X121.288170 Y182.822183 Z-0.125000 I60.351119 J-103.009120
G02 X122.534486 Y183.493075 Z-0.125000 I21.047153 J-37.606184
G02 X123.820805 Y184.041553 Z-0.125000 I3.620445 J-6.708250
G02 X125.364799 Y184.403611 Z-0.125000 I3.005749 J-9.344784
G02 X125.662782 Y184.436740 Z-0.125000 I0.578278 J-3.844779
G02 X125.966313 Y184.447021 Z-0.125000 I0.285949 J-3.956140
G01 X125.966313 Y184.447021 Z-0.125000
G00 Z5.000000

(End cutting path id: text1310)


(Start cutting path id: text1310)
(Change tool to Default tool)

G00 Z5.000000
G00 X100.643344 Y148.263746

G01 Z-0.125000 F100.0(Penetrate)
G02 X101.577705 Y148.155390 Z-0.125000 I0.029747 J-3.826222 F400.000000
G02 X102.338328 Y147.851366 Z-0.125000 I-0.686238 J-2.820363
G02 X103.037067 Y147.389488 Z-0.125000 I-3.355166 J-5.835233
G02 X103.733588 Y146.799236 Z-0.125000 I-4.854994 J-6.435181
G02 X104.388137 Y146.041729 Z-0.125000 I-3.504402 J-3.689637
G02 X104.826544 Y145.248428 Z-0.125000 I-3.398010 J-2.395654
G02 X105.083266 Y144.414367 Z-0.125000 I-3.602353 J-1.565336
G02 X105.151073 Y143.537425 Z-0.125000 I-3.932271 J-0.745146
G02 X105.022567 Y142.652648 Z-0.125000 I-3.419304 J0.044904
G02 X104.556277 Y141.434197 Z-0.125000 I-6.971891 J1.969627
G02 X103.899157 Y140.324200 Z-0.125000 I-6.876101 J3.321162
G02 X102.913484 Y139.128396 Z-0.125000 I-8.985230 J6.402172
G01 X98.745786 Y134.740038 Z-0.125000
G01 X91.929157 Y141.214056 Z-0.125000
G01 X96.097371 Y145.602411 Z-0.125000
G02 X97.591496 Y146.994283 Z-0.125000 I12.112367 J-11.504319
G02 X98.605742 Y147.667399 Z-0.125000 I3.766133 J-4.574088
G02 X99.727391 Y148.120424 Z-0.125000 I2.837442 J-5.410188
G02 X100.643344 Y148.263746 Z-0.125000 I1.008354 J-3.445750
G01 X100.643344 Y148.263746 Z-0.125000
G00 Z5.000000

(End cutting path id: text1310)


(Start cutting path id: text1310)
(Change tool to Default tool)

G00 Z5.000000
G00 X105.129885 Y60.727600

G01 Z-0.125000 F100.0(Penetrate)
G03 X105.077268 Y60.705802 Z-0.125000 I-0.000000 J-0.074405 F400.000000
G03 X105.055472 Y60.653173 Z-0.125000 I0.052640 J-0.052629
G03 X105.077259 Y60.600572 Z-0.125000 I0.074391 J0.000000
G03 X105.129885 Y60.578772 Z-0.125000 I0.052627 J0.052624
G01 X96.599150 Y60.578772 Z-0.125000
G01 X96.599150 Y51.803083 Z-0.125000
G01 X105.926217 Y51.803083 Z-0.125000
G01 X105.926217 Y32.810469 Z-0.125000
G02 X105.901267 Y29.896393 Z-0.125000 I-170.189217 J-0.000000
G02 X105.844053 Y28.006118 Z-0.125000 I-71.981927 J1.232696
G02 X105.615790 Y26.180252 Z-0.125000 I-11.468638 J0.506565
G02 X105.132986 Y24.579451 Z-0.125000 I-9.279897 J1.925622
G02 X104.255419 Y23.171208 Z-0.125000 I-4.584044 J1.879059
G02 X102.917104 Y22.080914 Z-0.125000 I-4.012422 J3.558647
G02 X101.309096 Y21.465983 Z-0.125000 I-2.657202 J4.538539
G02 X98.513760 Y21.184322 Z-0.125000 I-2.795336 J13.730240
G02 X96.321806 Y21.328518 Z-0.125000 I0.000000 J16.732192
G02 X94.875744 Y21.664910 Z-0.125000 I1.002261 J7.584782
G02 X93.462689 Y22.200519 Z-0.125000 I15.550230 J43.156736
G02 X92.140514 Y22.753722 Z-0.125000 I15.154132 J38.075539
G01 X91.156077 Y22.753722 Z-0.125000
G01 X91.156077 Y13.081467 Z-0.125000
G03 X93.056032 Y12.710306 Z-0.125000 I5.548252 J23.352749
G03 X95.532550 Y12.408633 Z-0.125000 I6.045025 J39.309191
G03 X98.024992 Y12.220279 Z-0.125000 I4.715732 J45.817194
G03 X100.838680 Y12.152331 Z-0.125000 I2.813688 J58.222379
G03 X104.936875 Y12.470549 Z-0.125000 I0.000000 J26.548553
G03 X107.813440 Y13.241672 Z-0.125000 I-2.153801 J13.785321
G03 X110.463238 Y14.615146 Z-0.125000 I-5.553826 J13.957633
G03 X112.627091 Y16.379971 Z-0.125000 I-7.174886 J11.006100
G03 X114.251186 Y18.435258 Z-0.125000 I-8.005216 J7.995078
G03 X115.471877 Y20.992076 Z-0.125000 I-11.259593 J6.945422
G03 X116.179191 Y23.788670 Z-0.125000 I-15.719174 J5.463433
G03 X116.428924 Y26.885265 Z-0.125000 I-19.073736 J3.096620
G01 X116.428924 Y60.578772 Z-0.125000
G01 X121.278233 Y60.578772 Z-0.125000
G03 X121.330859 Y60.600572 Z-0.125000 I0.000000 J0.074423
G03 X121.352647 Y60.653173 Z-0.125000 I-0.052604 J0.052601
G03 X121.330850 Y60.705802 Z-0.125000 I-0.074437 J0.000000
G03 X121.278233 Y60.727600 Z-0.125000 I-0.052618 J-0.052606
G01 X105.129885 Y60.727600 Z-0.125000
G01 X105.129885 Y60.727600 Z-0.125000
G00 Z5.000000

(End cutting path id: text1310)


(Start cutting path id: text1310)
(Change tool to Default tool)

G00 Z5.000000
G00 X156.304992 Y60.727600

G01 Z-0.125000 F100.0(Penetrate)
G03 X156.252373 Y60.705801 Z-0.125000 I-0.000000 J-0.074405 F400.000000
G03 X156.230578 Y60.653173 Z-0.125000 I0.052641 J-0.052628
G03 X156.252364 Y60.600573 Z-0.125000 I0.074391 J0.000000
G03 X156.304992 Y60.578772 Z-0.125000 I0.052628 J0.052622
G01 X151.220554 Y60.578772 Z-0.125000
G01 X142.878437 Y37.967245 Z-0.125000
G01 X132.758137 Y60.578772 Z-0.125000
G01 X121.352647 Y60.578772 Z-0.125000
G01 X137.900453 Y24.899861 Z-0.125000
G02 X137.314419 Y24.114839 Z-0.125000 I-1.694020 J0.653366
G02 X135.821513 Y23.298393 Z-0.125000 I-3.343409 J4.340417
G02 X134.120469 Y22.874898 Z-0.125000 I-2.845839 J7.802811
G02 X131.445557 Y22.689667 Z-0.125000 I-2.674912 J19.221481
G02 X130.026275 Y22.737115 Z-0.125000 I0.000000 J21.250454
G02 X128.573387 Y22.881886 Z-0.125000 I1.501552 J22.432067
G02 X127.132166 Y23.141488 Z-0.125000 I4.522514 J29.237772
G02 X126.549223 Y23.298393 Z-0.125000 I1.015355 J4.933678
G01 X125.920320 Y23.298393 Z-0.125000
G01 X125.920320 Y12.889221 Z-0.125000
G03 X126.770064 Y12.817663 Z-0.125000 I1.671884 J14.772389
G03 X129.394007 Y12.697002 Z-0.125000 I7.746047 J139.856884
G03 X132.020378 Y12.595857 Z-0.125000 I6.242615 J127.949817
G03 X133.934291 Y12.568838 Z-0.125000 I1.913912 J67.771525
G03 X135.651515 Y12.640750 Z-0.125000 I0.000000 J20.539031
G03 X137.380590 Y12.857180 Z-0.125000 I-1.785166 J21.276896
G03 X139.076842 Y13.300673 Z-0.125000 I-1.542265 J9.364417
G03 X140.909050 Y14.138238 Z-0.125000 I-4.272312 J11.768651
G03 X142.547349 Y15.268980 Z-0.125000 I-4.365248 J8.076890
G03 X144.355347 Y17.116887 Z-0.125000 I-10.125349 J11.715104
G03 X145.816351 Y19.256567 Z-0.125000 I-10.886703 J9.002231
G03 X147.309686 Y22.433339 Z-0.125000 I-22.630974 J12.577738
G01 X162.134086 Y60.578772 Z-0.125000
G01 X172.453339 Y60.578772 Z-0.125000
G03 X172.505966 Y60.600572 Z-0.125000 I0.000000 J0.074423
G03 X172.527753 Y60.653173 Z-0.125000 I-0.052604 J0.052601
G03 X172.505957 Y60.705802 Z-0.125000 I-0.074437 J0.000000
G03 X172.453339 Y60.727600 Z-0.125000 I-0.052618 J-0.052606
G01 X156.304992 Y60.727600 Z-0.125000
G01 X156.304992 Y60.727600 Z-0.125000
G00 Z5.000000

(End cutting path id: text1310)


(Start cutting path id: text1310)
(Change tool to Default tool)

G00 Z5.000000
G00 X263.664712 Y60.504345

G01 Z-0.125000 F100.0(Penetrate)
G03 X263.642915 Y60.556974 Z-0.125000 I-0.074437 J0.000000 F400.000000
G03 X263.590298 Y60.578772 Z-0.125000 I-0.052618 J-0.052606
G01 X252.040112 Y60.578772 Z-0.125000
G01 X247.441948 Y60.578772 Z-0.125000
G01 X240.853212 Y60.578772 Z-0.125000
G01 X225.125510 Y31.849821 Z-0.125000
G01 X225.125510 Y60.578772 Z-0.125000
G01 X214.896173 Y60.578772 Z-0.125000
G01 X214.896173 Y60.504345 Z-0.125000
G01 X214.896173 Y12.889221 Z-0.125000
G01 X224.906919 Y12.889221 Z-0.125000
G01 X241.810259 Y44.628863 Z-0.125000
G01 X241.810259 Y12.889221 Z-0.125000
G01 X252.040112 Y12.889221 Z-0.125000
G01 X252.040112 Y60.429944 Z-0.125000
G01 X263.590298 Y60.429944 Z-0.125000
G03 X263.642925 Y60.451744 Z-0.125000 I0.000000 J0.074423
G03 X263.664712 Y60.504345 Z-0.125000 I-0.052604 J0.052601
G01 X263.664712 Y60.504345 Z-0.125000
G00 Z5.000000

(End cutting path id: text1310)


(Start cutting path id: text1310)
(Change tool to Default tool)

G00 Z5.000000
G00 X336.483959 Y72.689133

G01 Z-0.125000 F100.0(Penetrate)
G01 X337.366053 Y63.130040 Z-0.125000 F400.000000
G01 X345.035361 Y61.272271 Z-0.125000
G01 X345.565030 Y55.530502 Z-0.125000
G01 X352.368226 Y55.504679 Z-0.125000
G01 X351.990481 Y59.597434 Z-0.125000
G01 X365.597376 Y56.294274 Z-0.125000
G01 X352.824526 Y50.557162 Z-0.125000
G01 X352.381667 Y55.355322 Z-0.125000
G01 X345.579000 Y55.381172 Z-0.125000
G01 X346.293665 Y47.637965 Z-0.125000
G01 X339.093594 Y44.407671 Z-0.125000
G01 X339.685811 Y37.989470 Z-0.125000
G01 X324.355501 Y33.881713 Z-0.125000
G01 X315.933798 Y60.578772 Z-0.125000
G01 X303.844630 Y60.578772 Z-0.125000
G01 X293.976002 Y29.294928 Z-0.125000
G01 X283.494493 Y29.294928 Z-0.125000
G01 X283.494493 Y60.578772 Z-0.125000
G01 X263.664712 Y60.578772 Z-0.125000
G01 X263.664712 Y60.504345 Z-0.125000
G01 X263.664712 Y51.803083 Z-0.125000
G01 X272.991263 Y51.803083 Z-0.125000
G01 X272.991263 Y32.810469 Z-0.125000
G02 X272.966619 Y29.896393 Z-0.125000 I-172.305067 J0.000000
G02 X272.909612 Y28.006118 Z-0.125000 I-71.432944 J1.208269
G02 X272.681361 Y26.180255 Z-0.125000 I-11.468242 J0.506449
G02 X272.198545 Y24.579451 Z-0.125000 I-9.278966 J1.925397
G02 X271.320994 Y23.171215 Z-0.125000 I-4.583952 J1.878976
G02 X269.982663 Y22.080914 Z-0.125000 I-4.012323 J3.558535
G02 X268.374657 Y21.465982 Z-0.125000 I-2.657177 J4.538462
G02 X265.579314 Y21.184322 Z-0.125000 I-2.795343 J13.730368
G02 X263.387444 Y21.328505 Z-0.125000 I-0.000000 J16.732421
G02 X261.941303 Y21.664910 Z-0.125000 I1.002227 J7.584929
G02 X260.528282 Y22.200512 Z-0.125000 I15.563997 J43.192533
G02 X259.206073 Y22.753722 Z-0.125000 I15.149080 J38.064004
G01 X258.221639 Y22.753722 Z-0.125000
G01 X258.221639 Y13.081467 Z-0.125000
G03 X260.121363 Y12.710315 Z-0.125000 I5.549943 J23.359717
G03 X262.597593 Y12.408633 Z-0.125000 I6.042353 J39.282660
G03 X265.090270 Y12.220273 Z-0.125000 I4.715381 J45.813776
G03 X267.904231 Y12.152331 Z-0.125000 I2.813961 J58.239081
G03 X272.002428 Y12.470549 Z-0.125000 I-0.000000 J26.548645
G03 X274.879009 Y13.241672 Z-0.125000 I-2.153821 J13.785489
G03 X277.528820 Y14.615157 Z-0.125000 I-5.553147 J13.956299
G03 X279.692647 Y16.379971 Z-0.125000 I-7.175539 J11.006820
G03 X281.316743 Y18.435253 Z-0.125000 I-8.005839 J7.995582
G03 X282.537444 Y20.992076 Z-0.125000 I-11.258869 J6.945121
G03 X283.244763 Y23.788671 Z-0.125000 I-15.718778 J5.463364
G03 X283.494493 Y26.885265 Z-0.125000 I-19.073631 J3.096594
G01 X283.494493 Y29.146100 Z-0.125000
G01 X293.929488 Y29.146100 Z-0.125000
G01 X288.801129 Y12.889221 Z-0.125000
G01 X299.386010 Y12.889221 Z-0.125000
G01 X302.203395 Y22.529462 Z-0.125000
G01 X309.663922 Y22.529462 Z-0.125000
G01 X309.268079 Y31.273110 Z-0.125000
G01 X304.746911 Y31.273110 Z-0.125000
G01 X309.752292 Y48.376416 Z-0.125000
G01 X314.757647 Y31.273110 Z-0.125000
G01 X309.417939 Y31.273110 Z-0.125000
G01 X309.812749 Y22.529462 Z-0.125000
G01 X317.301692 Y22.529462 Z-0.125000
G01 X320.119078 Y12.889221 Z-0.125000
G01 X330.977326 Y12.889221 Z-0.125000
G01 X324.398390 Y33.744262 Z-0.125000
G01 X339.699251 Y37.844266 Z-0.125000
G01 X339.998468 Y34.602093 Z-0.125000
G01 X375.522864 Y51.580887 Z-0.125000
G01 X374.515675 Y62.498031 Z-0.125000
G01 X336.483959 Y72.689133 Z-0.125000
G01 X336.483959 Y72.689133 Z-0.125000
G00 Z5.000000

(End cutting path id: text1310)


(Start cutting path id: text1310)
(Change tool to Default tool)

G00 Z5.000000
G00 X357.531722 Y119.092943

G01 Z-0.125000 F100.0(Penetrate)
G02 X353.888494 Y117.646981 Z-0.125000 I-244.235640 J610.060165 F400.000000
G02 X351.043750 Y116.540141 Z-0.125000 I-147.788261 J375.628751
G02 X348.219399 Y115.452279 Z-0.125000 I-72.821978 J184.853185
G02 X345.792915 Y114.563520 Z-0.125000 I-50.902729 J135.217538
G02 X339.625781 Y112.515829 Z-0.125000 I-42.733242 J118.391053
G02 X336.055547 Y111.607123 Z-0.125000 I-11.756921 J38.724078
G02 X332.531030 Y111.337525 Z-0.125000 I-2.772219 J13.068641
G02 X330.207336 Y111.936820 Z-0.125000 I0.346834 J6.149376
G02 X329.643439 Y112.303503 Z-0.125000 I1.316755 J2.641877
G02 X329.172764 Y112.792058 Z-0.125000 I1.911643 J2.312687
G02 X328.802862 Y113.370862 Z-0.125000 I3.220585 J2.465812
G02 X328.211587 Y114.620882 Z-0.125000 I14.556108 J7.650071
G02 X328.073272 Y114.966174 Z-0.125000 I9.027395 J3.816468
G02 X327.973885 Y115.247706 Z-0.125000 I6.162199 J2.333707
G02 X327.891772 Y115.508853 Z-0.125000 I27.520784 J8.796942
G02 X327.826592 Y115.723664 Z-0.125000 I20.200280 J6.246643
G01 X327.691205 Y116.043518 Z-0.125000
G01 X320.082909 Y112.828756 Z-0.125000
G03 X320.190024 Y112.469088 Z-0.125000 I8.156609 J2.233389
G03 X320.602259 Y111.216969 Z-0.125000 I97.862129 J31.525215
G03 X321.054461 Y109.952982 Z-0.125000 I35.837681 J12.108337
G03 X321.514859 Y108.802120 Z-0.125000 I30.147201 J11.392756
G03 X322.458783 Y107.028947 Z-0.125000 I10.364529 J4.379589
G03 X323.651155 Y105.531001 Z-0.125000 I8.563010 J5.592652
G03 X325.098093 Y104.281485 Z-0.125000 I7.463203 J7.179850
G03 X326.542438 Y103.467571 Z-0.125000 I4.521104 J6.334500
G03 X327.756337 Y103.025813 Z-0.125000 I4.073457 J9.304683
G03 X329.401178 Y102.628869 Z-0.125000 I4.904056 J16.714853
G03 X331.078890 Y102.423295 Z-0.125000 I2.387121 J12.532756
G03 X333.455198 Y102.403048 Z-0.125000 I1.402875 J25.190403
G03 X335.792109 Y102.624580 Z-0.125000 I-1.051764 J23.531479
G03 X339.188183 Y103.236563 Z-0.125000 I-7.317785 J50.337432
G03 X342.566560 Y104.079965 Z-0.125000 I-9.378481 J44.754996
G03 X347.343213 Y105.605428 Z-0.125000 I-26.506488 J91.240499
G03 X349.501554 Y106.361250 Z-0.125000 I-172.523994 J496.122709
G03 X350.811737 Y106.828595 Z-0.125000 I-63.981798 J181.440578
G03 X352.119731 Y107.301697 Z-0.125000 I-300.667540 J833.306261
G03 X354.407367 Y108.132407 Z-0.125000 I-866.021868 J2388.442682
G01 X358.520310 Y98.399140 Z-0.125000
G01 X331.882173 Y87.143514 Z-0.125000
G01 X331.552476 Y88.145014 Z-0.125000
G03 X331.515287 Y88.188256 Z-0.125000 I-0.070900 J-0.023362
G03 X331.458417 Y88.192559 Z-0.125000 I-0.033625 J-0.066435
G03 X331.415166 Y88.155373 Z-0.125000 I0.023372 J-0.070930
G03 X331.410871 Y88.098500 Z-0.125000 I0.066357 J-0.033609
G01 X331.744696 Y87.085121 Z-0.125000
G01 X331.079111 Y86.804001 Z-0.125000
G01 X334.510938 Y78.682547 Z-0.125000
G01 X336.460703 Y72.759909 Z-0.125000
G03 X336.497879 Y72.716664 Z-0.125000 I0.070838 J0.023294
G03 X336.554735 Y72.712390 Z-0.125000 I0.033578 J0.066374
G03 X336.598005 Y72.749576 Z-0.125000 I-0.023287 J0.070864
G03 X336.602281 Y72.806423 Z-0.125000 I-0.066352 J0.033575
G01 X334.870612 Y78.066042 Z-0.125000
G01 X368.808038 Y92.405726 Z-0.125000
G01 X357.531722 Y119.092943 Z-0.125000
G01 X357.531722 Y119.092943 Z-0.125000
G00 Z5.000000

(End cutting path id: text1310)


(Start cutting path id: text1310)
(Change tool to Default tool)

G00 Z5.000000
G00 X308.801963 Y179.248894

G01 Z-0.125000 F100.0(Penetrate)
G01 X286.526853 Y157.215126 Z-0.125000 F400.000000
G01 X282.543635 Y153.275318 Z-0.125000
G01 X316.534798 Y118.911042 Z-0.125000
G01 X320.045180 Y112.893340 Z-0.125000
G03 X320.090829 Y112.858729 Z-0.125000 I0.064728 J0.037962
G03 X320.147494 Y112.866459 Z-0.125000 I0.019001 J0.072276
G03 X320.181686 Y112.911907 Z-0.125000 I-0.037351 J0.063686
G03 X320.173846 Y112.968270 Z-0.125000 I-0.072911 J0.018586
G01 X316.954929 Y118.486281 Z-0.125000
G01 X317.483064 Y117.952458 Z-0.125000
G01 X343.741365 Y143.926032 Z-0.125000
G01 X337.060645 Y150.680132 Z-0.125000
G01 X315.793251 Y129.643190 Z-0.125000
G01 X308.344605 Y137.173479 Z-0.125000
G01 X329.612527 Y158.210413 Z-0.125000
G01 X322.931304 Y164.964513 Z-0.125000
G01 X301.663884 Y143.927582 Z-0.125000
G01 X294.215264 Y151.457344 Z-0.125000
G01 X315.483186 Y172.494794 Z-0.125000
G01 X308.801963 Y179.248894 Z-0.125000
G01 X308.801963 Y179.248894 Z-0.125000
G00 Z5.000000

(End cutting path id: text1310)


(Footer)
M5
G00 X0.0000 Y0.0000
M2
(Using default footer. To add your own footer create file "footer" in the output dir.)
(end)
%