%
(Header)
(Generated by gcodetools from Inkscape.)
(Using default header. To add your own header create file "header" in the output dir.)
M3
(Header end.)
G21 (All units in mm)

(Start cutting path id: path1882)
(Change tool to Default tool)
 
G00 Z5.000000
G00 X16.804953 Y30.071890

G01 Z-0.125000 F100.0(Penetrate)
G03 X23.563371 Y29.852262 Z-0.125000 I3.820685 J13.475370 F400.000000
G03 X33.264599 Y33.602760 Z-0.125000 I-6.950049 J32.399445
G03 X42.661126 Y40.502667 Z-0.125000 I-27.459209 J47.243088
G03 X49.778561 Y48.690260 Z-0.125000 I-31.897231 J34.915482
G03 X53.706925 Y56.428974 Z-0.125000 I-27.424831 J18.787953
G03 X55.326060 Y64.221280 Z-0.125000 I-28.102713 J9.903731
G01 X64.060485 Y64.221280 Z-0.125000
G02 X67.660107 Y50.720568 Z-0.125000 I-309812.203902 J-82607.682032
G02 X69.842414 Y42.511000 Z-0.125000 I-5660.289388 J-1509.042016
G03 X71.660273 Y36.181643 Z-0.125000 I154.623930 J40.983911
G03 X72.250943 Y34.736890 Z-0.125000 I8.498462 J2.631375
G03 X74.535559 Y31.805256 Z-0.125000 I8.929398 J4.602645
G03 X77.473503 Y30.129820 Z-0.125000 I5.508716 J6.246134
G03 X81.268140 Y29.686640 Z-0.125000 I3.004447 J9.257965
G03 X84.992355 Y30.743480 Z-0.125000 I-0.810040 J9.944841
G03 X87.529616 Y33.150874 Z-0.125000 I-2.803787 J5.495801
G03 X91.219592 Y41.513570 Z-0.125000 I-36.463699 J21.084764
G03 X95.707721 Y55.770646 Z-0.125000 I-3840.634988 J1216.867289
G03 X98.502202 Y64.716340 Z-0.125000 I-12928.853610 J4043.661512
G01 X114.148160 Y64.716340 Z-0.125000
G03 X114.117078 Y60.766320 Z-0.125000 I411.513839 J-5.213312
G03 X114.106460 Y53.848540 Z-0.125000 I2253.616893 J-6.917789
G03 X114.505521 Y35.148928 Z-0.125000 I438.322430 J-0.000000
G03 X114.977200 Y33.493250 Z-0.125000 I3.695629 J0.157806
G03 X116.053606 Y32.156203 Z-0.125000 I4.533779 J2.548166
G03 X117.868160 Y30.920880 Z-0.125000 I5.650860 J6.350138
G03 X119.957616 Y30.226083 Z-0.125000 I3.386370 J6.694593
G03 X122.878920 Y30.040190 Z-0.125000 I2.300722 J13.108760
G03 X127.465817 Y31.065008 Z-0.125000 I-0.636180 J13.624886
G03 X129.762370 Y32.892240 Z-0.125000 I-2.039595 J4.920288
G03 X130.261127 Y34.267137 Z-0.125000 I-2.219259 J1.582971
G03 X130.850330 Y47.096320 Z-0.125000 I-209.884307 J16.067428
G02 X131.431510 Y59.667870 Z-0.125000 I204.222956 J-3.141974
G02 X131.848680 Y60.054090 Z-0.125000 I0.417170 J-0.032190
G02 X132.435377 Y59.711821 Z-0.125000 I0.000000 J-0.673975
G02 X139.223620 Y47.013060 Z-0.125000 I-264.893747 J-149.765205
G03 X145.957210 Y34.083295 Z-0.125000 I505.166592 J254.863460
G03 X146.799490 Y32.909420 Z-0.125000 I4.932653 J2.650168
G03 X149.089567 Y31.374030 Z-0.125000 I4.447751 J4.158394
G03 X152.508100 Y30.748020 Z-0.125000 I3.418533 J9.021004
G03 X156.021739 Y31.342658 Z-0.125000 I-0.000000 J10.678134
G03 X159.068430 Y33.033460 Z-0.125000 I-3.362081 J9.648553
G03 X161.592573 Y36.299840 Z-0.125000 I-5.562430 J6.906923
G03 X162.249030 Y40.097020 Z-0.125000 I-7.050930 J3.174301
G03 X161.633604 Y42.379759 Z-0.125000 I-6.485298 J-0.524107
G03 X156.233590 Y52.675510 Z-0.125000 I-141.736903 J-67.775525
G01 X150.412740 Y62.842750 Z-0.125000
G01 X151.695300 Y63.825710 Z-0.125000
G03 X152.945360 Y64.882580 Z-0.125000 I-10.437512 J13.613143
G03 X154.037760 Y65.967210 Z-0.125000 I-16.265363 J17.474319
G01 X163.334280 Y65.967210 Z-0.125000
G03 X163.908348 Y60.159375 Z-0.125000 I46.898134 J1.703296
G03 X165.132750 Y55.284090 Z-0.125000 I29.116274 J4.721005
G03 X173.870850 Y41.048476 Z-0.125000 I36.325855 J12.497909
G03 X187.649480 Y32.047800 Z-0.125000 I26.782818 J25.953510
G03 X189.281350 Y31.519520 Z-0.125000 I6.938735 J18.649350
G03 X192.450250 Y30.719070 Z-0.125000 I19.332967 J69.864325
G03 X201.087000 Y29.801432 Z-0.125000 I8.154179 J35.643535
G03 X209.394150 Y30.940800 Z-0.125000 I-0.450597 J34.138784
G03 X216.254667 Y33.491122 Z-0.125000 I-9.743757 J36.714035
G03 X222.403470 Y37.264900 Z-0.125000 I-16.105922 J33.138342
G03 X225.896468 Y40.310976 Z-0.125000 I-20.408304 J26.928401
G03 X229.099560 Y43.883140 Z-0.125000 I-31.428086 J31.403134
G01 X237.518110 Y43.883140 Z-0.125000
G03 X237.105066 Y40.318235 Z-0.125000 I13.848295 J-3.410901
G03 X237.512110 Y37.617910 Z-0.125000 I9.867355 J0.106554
G03 X239.140259 Y34.525019 Z-0.125000 I8.607431 J2.556105
G03 X242.028660 Y32.037820 Z-0.125000 I8.299689 J6.717728
G03 X243.965867 Y31.261618 Z-0.125000 I3.530321 J6.005312
G03 X246.671950 Y30.948030 Z-0.125000 I2.706083 J11.519159
G03 X249.376534 Y31.265173 Z-0.125000 I-0.000000 J11.690886
G03 X251.351430 Y32.059580 Z-0.125000 I-1.658757 J6.975664
G03 X253.928169 Y34.486345 Z-0.125000 I-4.037267 J6.868143
G03 X256.300630 Y39.428180 Z-0.125000 I-15.882221 J10.665088
G02 X257.429254 Y42.650107 Z-0.125000 I49.193928 J-15.423731
G02 X257.653790 Y42.920090 Z-0.125000 I0.514625 J-0.199635
G02 X257.961506 Y42.914639 Z-0.125000 I0.149617 J-0.242126
G02 X261.696090 Y40.221030 Z-0.125000 I-35.605306 J-53.301104
G03 X283.552196 Y24.584136 Z-0.125000 I207.401683 J266.798012
G03 X299.100260 Y15.646070 Z-0.125000 I82.780998 J126.008089
G03 X314.665150 Y9.242964 Z-0.125000 I52.203580 J104.778874
G03 X329.001870 Y5.792900 Z-0.125000 I28.113050 J85.310488
G03 X340.067593 Y5.090159 Z-0.125000 I9.402247 J60.577952
G03 X351.528560 Y6.403820 Z-0.125000 I-1.801638 J66.370420
G03 X365.284821 Y10.582528 Z-0.125000 I-15.332987 J75.208105
G03 X377.717360 Y17.128640 Z-0.125000 I-27.793107 J67.864512
G03 X381.247366 Y20.615989 Z-0.125000 I-6.892789 J10.507368
G03 X382.225820 Y23.820240 Z-0.125000 I-4.757430 J3.204251
G03 X381.891482 Y26.188567 Z-0.125000 I-8.555339 J0.000000
G03 X381.013810 Y28.022680 Z-0.125000 I-5.918021 J-1.704878
G03 X377.950952 Y30.718614 Z-0.125000 I-7.114378 J-4.994836
G03 X374.091460 Y31.670320 Z-0.125000 I-3.848519 J-7.305425
G03 X371.925945 Y31.355511 Z-0.125000 I0.021537 J-7.753658
G03 X367.274960 Y29.662770 Z-0.125000 I11.069025 J-37.649222
G02 X350.342359 Y24.010213 Z-0.125000 I-39.796903 J91.026576
G02 X336.507160 Y22.384690 Z-0.125000 I-13.937019 J58.931120
G02 X328.915919 Y22.730876 Z-0.125000 I-0.124596 J80.672174
G02 X325.279110 Y23.430980 Z-0.125000 I1.760833 J18.943001
G02 X324.920701 Y24.293491 Z-0.125000 I0.170615 J0.576620
G02 X333.217020 Y38.123860 Z-0.125000 I158.170709 J-85.477161
G02 X337.512568 Y43.072572 Z-0.125000 I21.122965 J-13.996362
G02 X341.743290 Y45.694290 Z-0.125000 I9.683742 J-10.902399
G02 X344.411937 Y46.622573 Z-0.125000 I10.892831 J-27.014860
G02 X345.061667 Y46.558516 Z-0.125000 I0.245715 J-0.834859
G02 X345.340054 Y46.066453 Z-0.125000 I-0.241994 J-0.461689
G02 X345.040640 Y43.966420 Z-0.125000 I-12.722991 J0.742628
G03 X344.710534 Y42.139888 Z-0.125000 I19.604504 J-4.486179
G03 X344.772740 Y41.956130 Z-0.125000 I0.216994 J-0.028951
G03 X345.739018 Y41.943807 Z-0.125000 I0.489460 J0.489487
G03 X350.226100 Y47.137070 Z-0.125000 I-24.072326 J25.334060
G02 X351.865135 Y48.875434 Z-0.125000 I6.909272 J-4.872607
G02 X352.304240 Y48.794350 Z-0.125000 I0.184340 J-0.231235
G02 X352.545963 Y48.045884 Z-0.125000 I-1.551889 J-0.914460
G02 X352.708850 Y44.421690 Z-0.125000 I-38.143688 J-3.530104
G03 X353.078066 Y41.565278 Z-0.125000 I11.000330 J-0.030181
G03 X353.504440 Y41.431170 Z-0.125000 I0.255655 J0.067965
G03 X354.872895 Y42.924246 Z-0.125000 I-5.133888 J6.079036
G03 X356.351090 Y45.468050 Z-0.125000 I-13.700820 J9.662888
G01 X357.188300 Y47.252040 Z-0.125000
G01 X357.835450 Y46.263650 Z-0.125000
G02 X358.353792 Y45.218490 Z-0.125000 I-4.089689 J-2.679377
G02 X359.021160 Y42.915550 Z-0.125000 I-19.245273 J-6.825247
G01 X359.556110 Y40.557760 Z-0.125000
G01 X361.255010 Y42.705570 Z-0.125000
G03 X362.850072 Y44.921722 Z-0.125000 I-23.789731 J18.804612
G03 X363.965840 Y46.852840 Z-0.125000 I-17.013837 J11.118206
G03 X364.649003 Y48.918269 Z-0.125000 I-6.510208 J3.299020
G03 X364.795850 Y51.692550 Z-0.125000 I-11.732834 J2.012062
G01 X364.613020 Y54.532820 Z-0.125000
G01 X366.642300 Y55.603550 Z-0.125000
G03 X374.361925 Y60.503041 Z-0.125000 I-26.725646 J50.640117
G03 X375.957850 Y62.619170 Z-0.125000 I-2.893011 J3.841693
G03 X375.765032 Y63.061756 Z-0.125000 I-0.321107 J0.123401
G03 X371.840420 Y64.273730 Z-0.125000 I-9.278139 J-23.084135
G01 X369.469930 Y64.796900 Z-0.125000
G01 X372.258560 Y65.232290 Z-0.125000
G03 X374.164381 Y65.824265 Z-0.125000 I-1.056196 J6.764166
G03 X374.173860 Y66.151900 Z-0.125000 I-0.079789 J0.166263
G03 X373.266551 Y66.556423 Z-0.125000 I-2.806430 J-5.074807
G03 X371.186020 Y67.186450 Z-0.125000 I-8.991394 J-25.941903
G01 X369.070740 Y67.736750 Z-0.125000
G01 X370.664670 Y68.016430 Z-0.125000
G03 X382.212227 Y71.907829 Z-0.125000 I-6.983054 J39.801048
G03 X390.672380 Y78.341160 Z-0.125000 I-14.096581 J27.317139
G03 X394.563707 Y85.196691 Z-0.125000 I-12.652171 J11.713767
G03 X395.220660 Y93.832320 Z-0.125000 I-19.958685 J5.861155
G03 X392.870843 Y100.963366 Z-0.125000 I-20.276231 J-2.728731
G03 X382.868430 Y116.288440 Z-0.125000 I-106.426963 J-58.536314
G02 X376.989505 Y124.652572 Z-0.125000 I98.988333 J75.824387
G02 X376.986980 Y125.432900 Z-0.125000 I0.609584 J0.392141
G03 X379.830608 Y140.466619 Z-0.125000 I-24.296500 J12.381478
G03 X374.689766 Y148.377125 Z-0.125000 I-10.188705 J-0.995680
G03 X364.831275 Y150.004197 Z-0.125000 I-7.143711 J-12.603991
G03 X337.908280 Y139.493030 Z-0.125000 I14.822810 J-77.702177
G02 X335.599409 Y138.293638 Z-0.125000 I-2.379601 J1.758790
G02 X333.299410 Y139.383510 Z-0.125000 I-0.067643 J2.829075
G03 X331.893425 Y140.916750 Z-0.125000 I-10.233492 J-7.972872
G03 X331.652090 Y140.912260 Z-0.125000 I-0.118338 J-0.127435
G02 X331.507769 Y140.928285 Z-0.125000 I-0.065751 J0.065733
G02 X331.394120 Y141.320490 Z-0.125000 I0.619930 J0.392205
G03 X331.247230 Y141.837622 Z-0.125000 I-0.983738 J0.000000
G03 X330.983180 Y141.984850 Z-0.125000 I-0.264050 J-0.163170
G02 X330.666266 Y142.122660 Z-0.125000 I0.000000 J0.433300
G02 X330.284440 Y142.735180 Z-0.125000 I1.376132 J1.283107
G03 X327.439391 Y146.495946 Z-0.125000 I-7.881505 J-3.005886
G03 X322.025180 Y148.881870 Z-0.125000 I-7.924858 J-10.647321
G02 X320.833444 Y149.130922 Z-0.125000 I7.361395 J38.200740
G02 X317.241610 Y149.961690 Z-0.125000 I71.970408 J319.344848
G03 X310.727454 Y150.789766 Z-0.125000 I-7.130472 J-30.056462
G03 X298.274770 Y150.339110 Z-0.125000 I-2.215913 J-111.042898
G02 X287.182610 Y150.148371 Z-0.125000 I-6.813563 J73.613448
G02 X281.026770 Y151.339270 Z-0.125000 I1.366282 J23.567841
G02 X276.044240 Y153.289712 Z-0.125000 I17.470285 J51.968276
G02 X271.790000 Y155.483840 Z-0.125000 I18.081736 J40.280441
G01 X269.797510 Y156.651670 Z-0.125000
G01 X269.797510 Y154.899380 Z-0.125000
G03 X269.938254 Y153.288886 Z-0.125000 I9.284598 J0.000000
G03 X270.106170 Y153.147960 Z-0.125000 I0.167916 J0.029575
G02 X270.331155 Y153.026938 Z-0.125000 I0.000000 J-0.269639
G02 X270.829340 Y152.052760 Z-0.125000 I-4.119072 J-2.720926
G03 X272.662089 Y148.099106 Z-0.125000 I28.175231 J10.659243
G03 X276.722610 Y141.432960 Z-0.125000 I84.005550 J46.600182
G02 X280.442288 Y134.291766 Z-0.125000 I-31.218303 J-20.800215
G02 X281.336930 Y129.626530 Z-0.125000 I-12.141612 J-4.746769
G02 X280.775132 Y125.619001 Z-0.125000 I-13.953433 J-0.087071
G02 X278.885860 Y121.252350 Z-0.125000 I-18.527085 J5.423883
G03 X278.940307 Y121.151277 Z-0.125000 I0.057798 J-0.034067
G03 X282.854830 Y121.053210 Z-0.125000 I3.925017 J78.497827
G02 X286.887410 Y120.862609 Z-0.125000 I-0.003805 J-42.834877
G02 X287.717130 Y120.593420 Z-0.125000 I-0.188878 J-1.995493
G02 X287.825017 Y120.180877 Z-0.125000 I-0.153750 J-0.260587
G02 X287.116130 Y119.558870 Z-0.125000 I-1.279246 J0.742973
G03 X285.770505 Y118.914754 Z-0.125000 I5.677402 J-13.588306
G03 X283.745450 Y117.731450 Z-0.125000 I17.642861 J-32.517681
G01 X281.757800 Y116.483270 Z-0.125000
G01 X283.765370 Y116.476270 Z-0.125000
G02 X285.720434 Y116.241737 Z-0.125000 I-0.040405 J-8.602776
G02 X287.554200 Y115.571150 Z-0.125000 I-1.948232 J-8.170148
G02 X288.668093 Y114.006480 Z-0.125000 I-0.927339 J-1.839002
G02 X288.371550 Y109.492340 Z-0.125000 I-11.329107 J-1.522578
G03 X287.247723 Y102.489370 Z-0.125000 I32.446948 J-8.798704
G03 X287.179500 Y87.213670 Z-0.125000 I155.798395 J-8.333811
G02 X287.481034 Y78.111807 Z-0.125000 I-398.735162 J-17.765566
G02 X287.388580 Y77.580450 Z-0.125000 I-1.398621 J-0.030366
G02 X284.976331 Y74.849302 Z-0.125000 I-4.866917 J1.867770
G02 X282.860250 Y75.163760 Z-0.125000 I-0.845895 J1.584818
G02 X282.728642 Y75.376387 Z-0.125000 I0.385601 J0.385717
G02 X281.755080 Y78.465640 Z-0.125000 I87.007333 J29.117935
G03 X275.214842 Y99.815142 Z-0.125000 I-1111.259834 J-328.748450
G03 X274.533120 Y101.250300 Z-0.125000 I-5.562746 J-1.762896
G03 X268.930813 Y105.222232 Z-0.125000 I-7.860893 J-5.150665
G03 X261.470420 Y104.486130 Z-0.125000 I-2.693198 J-10.878025
G03 X258.843257 Y101.901919 Z-0.125000 I2.365454 J-5.032291
G03 X251.816370 Y84.795150 Z-0.125000 I125.627221 J-61.600037
G02 X246.218319 Y69.693565 Z-0.125000 I-243.425230 J81.647645
G02 X245.436150 Y69.109420 Z-0.125000 I-0.875070 J0.355983
G03 X240.845262 Y68.035030 Z-0.125000 I1.770234 J-17.909908
G03 X238.681230 Y66.558770 Z-0.125000 I1.968467 J-5.209798
G03 X237.645281 Y64.886906 Z-0.125000 I4.076464 J-3.682816
G03 X237.349800 Y63.098500 Z-0.125000 I4.026768 J-1.583917
G03 X237.395885 Y62.176629 Z-0.125000 I11.216526 J0.098636
G03 X237.467460 Y61.526310 Z-0.125000 I17.595561 J1.607491
G01 X237.501860 Y61.405020 Z-0.125000
G01 X237.483760 Y61.400020 Z-0.125000
G03 X237.986563 Y59.835941 Z-0.125000 I4.061634 J0.442832
G03 X239.406250 Y57.951480 Z-0.125000 I7.796642 J4.396716
G01 X241.269900 Y56.057940 Z-0.125000
G01 X240.134870 Y52.524360 Z-0.125000
G01 X234.358380 Y52.524360 Z-0.125000
G03 X235.271812 Y55.282588 Z-0.125000 I-20.368799 J8.275821
G03 X235.629170 Y57.526070 Z-0.125000 I-11.505357 J2.982858
G03 X235.617183 Y59.555190 Z-0.125000 I-14.853987 J0.926844
G03 X235.389310 Y61.054260 Z-0.125000 I-9.864081 J-0.732579
G03 X235.193351 Y61.753338 Z-0.125000 I-3.732171 J-0.669164
G03 X235.003730 Y62.221850 Z-0.125000 I-15.310233 J-5.923884
G03 X234.437888 Y63.355085 Z-0.125000 I-8.265139 J-3.419029
G03 X233.617080 Y64.487390 Z-0.125000 I-6.462403 J-3.820942
G03 X230.660014 Y66.619261 Z-0.125000 I-6.122889 J-5.376137
G03 X226.659410 Y67.419970 Z-0.125000 I-3.960201 J-9.391941
G03 X221.414650 Y65.727577 Z-0.125000 I0.034803 J-9.080860
G03 X217.940360 Y61.189990 Z-0.125000 I5.678445 J-7.946680
G02 X207.159438 Y49.957355 Z-0.125000 I-18.371767 J6.842954
G02 X192.251180 Y50.400950 Z-0.125000 I-6.967086 J16.590269
G02 X183.473640 Y59.127894 Z-0.125000 I8.542674 J17.369889
G02 X181.925540 Y71.096570 Z-0.125000 I16.459465 J8.213423
G02 X185.549298 Y79.059994 Z-0.125000 I19.496476 J-4.065669
G02 X191.993210 Y84.381040 Z-0.125000 I14.480867 J-10.974283
G02 X205.845557 Y85.368189 Z-0.125000 I8.137034 J-16.498055
G02 X216.838830 Y76.260310 Z-0.125000 I-6.040108 J-18.478871
G03 X220.757094 Y71.979651 Z-0.125000 I10.771332 J5.925840
G03 X225.229310 Y70.626810 Z-0.125000 I4.441895 J6.615460
G03 X232.345462 Y74.265543 Z-0.125000 I-0.033555 J8.843403
G03 X233.940210 Y82.592520 Z-0.125000 I-8.046005 J5.857136
G03 X229.941460 Y90.476673 Z-0.125000 I-19.745322 J-5.058459
G03 X220.359760 Y99.112830 Z-0.125000 I-33.501346 J-27.535831
G03 X214.811072 Y102.057030 Z-0.125000 I-17.995154 J-27.213290
G03 X208.143320 Y104.155250 Z-0.125000 I-15.425234 J-37.374971
G03 X204.669657 Y104.664146 Z-0.125000 I-5.222222 J-23.536396
G03 X200.079580 Y104.817820 Z-0.125000 I-4.257942 J-58.553040
G03 X196.700446 Y111.214176 Z-0.125000 I-14.991490 J-3.829102
G03 X190.898920 Y115.075580 Z-0.125000 I-10.112881 J-8.905070
G03 X189.033933 Y115.540259 Z-0.125000 I-3.777410 J-11.185711
G03 X186.281900 Y115.902830 Z-0.125000 I-7.091442 J-43.200726
G03 X179.877427 Y114.514045 Z-0.125000 I-0.315507 J-14.006738
G03 X174.521640 Y110.132710 Z-0.125000 I6.429506 J-13.323641
G03 X171.752228 Y102.231985 Z-0.125000 I10.865737 J-8.244465
G03 X174.048260 Y93.864010 Z-0.125000 I15.016985 J-0.378575
G03 X167.798414 Y85.541721 Z-0.125000 I28.491261 J-27.904165
G03 X164.098250 Y75.859310 Z-0.125000 I30.568989 J-17.230256
G03 X164.002550 Y75.246569 Z-0.125000 I4.898288 J-1.078874
G02 X163.921750 Y74.609380 Z-0.125000 I-9.672348 J0.902806
G01 X158.881120 Y74.609380 Z-0.125000
G03 X159.418979 Y77.113438 Z-0.125000 I-11.899824 J3.865818
G03 X159.692110 Y81.981580 Z-0.125000 I-45.741705 J5.008105
G03 X159.385471 Y87.116445 Z-0.125000 I-41.055393 J0.124883
G03 X158.630400 Y90.627280 Z-0.125000 I-19.937031 J-2.451220
G03 X154.125819 Y99.019521 Z-0.125000 I-23.923296 J-7.435910
G03 X147.709190 Y104.025810 Z-0.125000 I-14.177153 J-11.555765
G01 X145.404750 Y105.106550 Z-0.125000
G01 X132.418050 Y105.106550 Z-0.125000
G01 X119.430440 Y105.106550 Z-0.125000
G01 X117.804850 Y104.028560 Z-0.125000
G03 X115.168607 Y100.968015 Z-0.125000 I4.100993 J-6.198102
G03 X113.991570 Y95.839920 Z-0.125000 I11.428423 J-5.322261
G03 X114.579267 Y92.806444 Z-0.125000 I7.524201 J-0.115949
G03 X119.656730 Y82.370780 Z-0.125000 I97.856030 J41.158711
G02 X121.890608 Y78.072776 Z-0.125000 I-75.078539 J-41.751438
G02 X121.876090 Y77.789040 Z-0.125000 I-0.265564 J-0.128651
G02 X121.636214 Y77.611320 Z-0.125000 I-0.342680 J0.211784
G02 X119.834140 Y77.251390 Z-0.125000 I-3.851776 J14.593613
G03 X118.054634 Y76.782804 Z-0.125000 I1.033162 J-7.536775
G03 X116.634530 Y75.978770 Z-0.125000 I2.217749 J-5.573166
G03 X115.489272 Y74.912325 Z-0.125000 I4.840304 J-6.346187
G03 X114.665890 Y73.357560 Z-0.125000 I2.823906 J-2.490910
G01 X101.205800 Y73.357560 Z-0.125000
G03 X108.356529 Y96.634123 Z-0.125000 I-3049.546155 J949.579380
G03 X108.523730 Y97.762390 Z-0.125000 I-3.723158 J1.128267
G03 X107.186779 Y101.532057 Z-0.125000 I-5.982950 J-0.000000
G03 X103.053170 Y104.505550 Z-0.125000 I-7.533036 J-6.112148
G03 X96.171414 Y105.154376 Z-0.125000 I-4.640947 J-12.404084
G03 X92.388102 Y102.673590 Z-0.125000 I0.959352 J-5.588310
G03 X90.054186 Y97.689996 Z-0.125000 I16.255818 J-10.651227
G03 X82.524985 Y70.318180 Z-0.125000 I493.869236 J-150.570703
G02 X81.875117 Y68.416595 Z-0.125000 I-11.054833 J2.716156
G02 X81.612630 Y68.264470 Z-0.125000 I-0.236035 J0.104753
G02 X80.639237 Y69.092659 Z-0.125000 I0.115615 J1.122009
G02 X73.621301 Y97.884600 Z-0.125000 I585.280406 J157.911336
G03 X72.578424 Y100.838661 Z-0.125000 I-12.301557 J-2.681723
G03 X71.095105 Y102.928790 Z-0.125000 I-7.514866 J-3.761734
G03 X67.137994 Y105.199045 Z-0.125000 I-5.931033 J-5.754137
G03 X62.327183 Y105.084840 Z-0.125000 I-2.194938 J-8.922869
G03 X57.447357 Y101.487612 Z-0.125000 I2.540471 J-8.554763
G03 X56.013049 Y95.633550 Z-0.125000 I7.333458 J-4.899517
G03 X56.369980 Y93.567833 Z-0.125000 I16.639492 J1.811406
G03 X58.692205 Y84.373810 Z-0.125000 I338.080780 J80.502120
G02 X60.291198 Y78.375008 Z-0.125000 I-5442.766722 J-1453.981810
G03 X61.758766 Y72.862450 Z-0.125000 I11319.310540 J3010.453464
G01 X54.932334 Y72.862450 Z-0.125000
G03 X51.454881 Y83.204647 Z-0.125000 I-33.969564 J-5.666174
G03 X42.570165 Y96.430980 Z-0.125000 I-65.401588 J-34.335862
G02 X39.262110 Y100.591689 Z-0.125000 I73.030798 J61.460026
G02 X38.752359 Y101.516840 Z-0.125000 I3.021095 J2.267609
G02 X38.998510 Y103.242909 Z-0.125000 I1.684325 J0.640388
G02 X42.283243 Y106.194500 Z-0.125000 I9.228617 J-6.966703
G03 X47.690537 Y110.424526 Z-0.125000 I-14.271321 J23.814319
G03 X50.425727 Y114.375900 Z-0.125000 I-9.644909 J9.598680
G03 X51.410337 Y119.168495 Z-0.125000 I-9.962186 J4.544110
G03 X50.203969 Y124.106880 Z-0.125000 I-11.808319 J-0.268041
G03 X46.604414 Y128.427688 Z-0.125000 I-10.701443 J-5.255346
G03 X40.339039 Y131.422080 Z-0.125000 I-10.822868 J-14.593507
G03 X37.537546 Y131.750008 Z-0.125000 I-2.589963 J-9.995527
G03 X34.296443 Y131.299870 Z-0.125000 I0.285876 J-13.951815
G02 X32.948321 Y131.331856 Z-0.125000 I-0.618274 J2.367294
G02 X31.705078 Y132.108150 Z-0.125000 I0.865769 J2.770217
G03 X30.509463 Y133.214227 Z-0.125000 I-8.848279 J-8.365315
G03 X28.337115 Y134.830770 Z-0.125000 I-21.362238 J-26.439177
G03 X25.969979 Y136.038106 Z-0.125000 I-5.865282 J-8.575428
G03 X22.954356 Y136.755950 Z-0.125000 I-4.765887 J-13.328073
G03 X21.258014 Y136.917699 Z-0.125000 I-3.643711 J-29.237284
G03 X19.981929 Y136.946940 Z-0.125000 I-0.976013 J-14.734666
G03 X18.715271 Y136.857514 Z-0.125000 I0.256300 J-12.645726
G03 X17.423150 Y136.643720 Z-0.125000 I1.822663 J-15.027270
G03 X14.191966 Y135.477809 Z-0.125000 I2.550005 J-12.127411
G03 X11.269221 Y133.397960 Z-0.125000 I6.303129 J-11.951132
G03 X9.162317 Y131.188343 Z-0.125000 I4.414458 J-6.318547
G03 X7.013337 Y126.892860 Z-0.125000 I20.690489 J-13.036505
G03 X6.903049 Y119.307446 Z-0.125000 I12.977362 J-3.982192
G03 X10.940664 Y112.628110 Z-0.125000 I13.852731 J3.813860
G01 X12.892109 Y110.806100 Z-0.125000
G01 X12.636860 Y107.357600 Z-0.125000
G03 X14.264960 Y97.490333 Z-0.125000 I21.226091 J-1.565644
G03 X23.978956 Y80.584970 Z-0.125000 I74.453446 J31.538154
G02 X28.926788 Y72.833491 Z-0.125000 I-49.603487 J-37.117169
G02 X30.242398 Y68.946010 Z-0.125000 I-10.837696 J-5.834074
G02 X28.781995 Y63.775665 Z-0.125000 I-6.306588 J-1.010080
G02 X17.822310 Y54.478520 Z-0.125000 I-34.674451 J29.766695
G03 X11.713237 Y49.890530 Z-0.125000 I20.148923 J-33.190233
G03 X9.609226 Y46.937930 Z-0.125000 I5.909385 J-6.436960
G03 X8.526595 Y42.208154 Z-0.125000 I12.085704 J-5.255174
G03 X9.225457 Y37.328250 Z-0.125000 I13.598293 J-0.542553
G03 X12.136011 Y32.744852 Z-0.125000 I10.763278 J3.619078
G03 X16.804953 Y30.071890 Z-0.125000 I7.710400 J8.053813
G00 Z5.000000

(End cutting path id: path1882)


(Footer)
M5
G00 X0.0000 Y0.0000
M2
(Using default footer. To add your own footer create file "footer" in the output dir.)
(end)
%