%
(Header)
(Generated by gcodetools from Inkscape.)
(Using default header. To add your own header create file "header" in the output dir.)
M3
(Header end.)
G21 (All units in mm)

(Start cutting path id: path36055)
(Change tool to Default tool)

G00 Z5.000000
G00 X24.979322 Y3.110642

G01 Z-0.125000 F100.0(Penetrate)
G02 X90.701984 Y30.027777 Z-0.125000 I145.519811 J-261.615846 F400.000000
G02 X180.347422 Y46.055773 Z-0.125000 I130.845079 J-473.113656
G02 X182.791246 Y39.747193 Z-0.125000 I-4.923733 J-5.534996
G02 X179.112872 Y33.600739 Z-0.125000 I-8.458502 J0.888132
G03 X172.558262 Y26.576804 Z-0.125000 I12.055598 J-17.820359
G03 X170.812615 Y19.293624 Z-0.125000 I11.310796 J-6.561783
G01 X170.812086 Y19.293624 Z-0.125000
G03 X172.944442 Y12.728501 Z-0.125000 I13.467115 J0.745271
G03 X179.112862 Y6.423089 Z-0.125000 I18.510457 J11.938386
G03 X199.198433 Y0.267118 Z-0.125000 I20.085571 J29.689401
G03 X219.284004 Y6.423089 Z-0.125000 I0.000000 J35.845372
G03 X228.491908 Y21.677283 Z-0.125000 I-11.994084 J17.646186
G03 X225.101210 Y29.391170 Z-0.125000 I-8.331536 J0.939957
G03 X219.749038 Y33.265560 Z-0.125000 I-540.309843 J-740.762571
G03 X219.644186 Y33.332028 Z-0.125000 I-0.624911 J-0.869848
G02 X216.560350 Y36.485025 Z-0.125000 I6.168998 J9.118276
G02 X215.494575 Y39.767799 Z-0.125000 I5.669255 J3.654955
G02 X216.118221 Y42.924042 Z-0.125000 I6.484184 J0.358517
G02 X218.486119 Y46.034077 Z-0.125000 I8.649774 J-4.129264
G02 X307.970931 Y29.989920 Z-0.125000 I-41.890627 J-491.209862
G02 X373.563801 Y3.138555 Z-0.125000 I-79.674656 J-288.171553
G02 X359.895236 Y34.764606 Z-0.125000 I119.159096 J70.266509
G02 X351.871620 Y77.473974 Z-0.125000 I214.558449 J62.416493
G02 X358.421372 Y79.798997 Z-0.125000 I5.716323 J-5.715219
G02 X364.824810 Y76.131427 Z-0.125000 I-0.939585 J-9.064344
G03 X372.022135 Y69.873168 Z-0.125000 I17.372705 J12.711741
G03 X379.704508 Y68.150016 Z-0.125000 I6.933959 J12.927006
G03 X386.626433 Y70.248840 Z-0.125000 I-0.767178 J14.993827
G03 X393.089709 Y76.131427 Z-0.125000 I-11.225201 J18.825213
G03 X399.401068 Y95.444691 Z-0.125000 I-26.394386 J19.313264
G03 X393.089709 Y114.757955 Z-0.125000 I-32.705745 J0.000000
G03 X379.888808 Y122.075218 Z-0.125000 I-14.562661 J-10.705805
G03 X366.687739 Y116.927853 Z-0.125000 I-1.234297 J-16.336078
G03 X366.119504 Y116.279747 Z-0.125000 I9.836588 J-9.197490
G03 X364.542658 Y114.280991 Z-0.125000 I49.490586 J-40.665184
G02 X362.167060 Y112.204390 Z-0.125000 I-6.196544 J4.691622
G02 X358.411265 Y111.114250 Z-0.125000 I-4.190756 J7.423286
G02 X355.090585 Y111.726413 Z-0.125000 I-0.372626 J7.291291
G02 X351.894348 Y113.990558 Z-0.125000 I3.967650 J8.989130
G02 X359.917239 Y156.562027 Z-0.125000 I223.293830 J-20.039568
G02 X373.434076 Y188.048491 Z-0.125000 I134.673355 J-39.169423
G03 X307.784210 Y214.911845 Z-0.125000 I-145.804652 J-262.673213
G03 X218.484053 Y230.944529 Z-0.125000 I-131.131807 J-473.676683
G03 X216.116203 Y227.834309 Z-0.125000 I6.283347 J-7.240040
G03 X215.492508 Y224.677734 Z-0.125000 I5.861323 J-2.798018
G03 X216.558531 Y221.395191 Z-0.125000 I6.732406 J0.372013
G03 X219.642636 Y218.242477 Z-0.125000 I9.255913 J5.969637
G02 X219.816365 Y218.145417 Z-0.125000 I-18.734241 J-33.736682
G02 X219.912388 Y218.078664 Z-0.125000 I-0.300725 J-0.535026
G01 X219.875696 Y218.032671 Z-0.125000
G02 X225.943286 Y211.171557 Z-0.125000 I-12.203050 J-16.905180
G02 X227.552446 Y204.602019 Z-0.125000 I-11.423550 J-6.279960
G02 X225.667307 Y198.086000 Z-0.125000 I-13.219195 J0.293721
G02 X219.282453 Y191.333556 Z-0.125000 I-18.549762 J11.145091
G02 X199.196880 Y185.177583 Z-0.125000 I-20.085573 J29.689394
G02 X179.111311 Y191.333556 Z-0.125000 I0.000000 J35.845354
G02 X172.942895 Y197.638953 Z-0.125000 I12.341963 J18.243746
G02 X170.810536 Y204.204076 Z-0.125000 I11.334758 J7.310400
G02 X172.556378 Y211.487260 Z-0.125000 I13.055427 J0.721341
G02 X179.111311 Y218.511193 Z-0.125000 I18.612183 J-10.798826
G03 X182.842355 Y224.696639 Z-0.125000 I-4.856984 J7.147720
G03 X180.507090 Y230.966232 Z-0.125000 I-7.367473 J0.825513
G03 X90.861349 Y214.954647 Z-0.125000 I41.326233 J-490.337807
G03 X24.977245 Y188.021101 Z-0.125000 I80.013344 J-289.775178
G03 X11.460174 Y156.534462 Z-0.125000 I121.163346 J-70.659600
G03 X3.436984 Y113.962671 Z-0.125000 I215.261558 J-62.610680
G03 X6.633434 Y111.698468 Z-0.125000 I7.163135 J6.724062
G03 X9.954408 Y111.086363 Z-0.125000 I2.948203 J6.680447
G03 X13.415622 Y112.135581 Z-0.125000 I-0.383045 J7.497231
G03 X16.647531 Y115.076804 Z-0.125000 I-5.611749 J9.412642
G02 X16.716313 Y115.177171 Z-0.125000 I0.871647 J-0.523590
G02 X20.745984 Y120.323512 Z-0.125000 I709.227762 J-551.186374
G02 X28.779467 Y123.746086 Z-0.125000 I7.148460 J-5.639499
G02 X44.632350 Y114.730068 Z-0.125000 I-2.174855 J-22.269141
G02 X46.785837 Y111.162959 Z-0.125000 I-19.010837 J-13.910557
G02 X48.448134 Y107.186859 Z-0.125000 I-33.058422 J-16.156342
G02 X48.686299 Y107.145714 Z-0.125000 I0.026727 J-0.555157
G02 X48.878598 Y107.014245 Z-0.125000 I-0.213119 J-0.518100
G01 X59.359082 Y111.031568 Z-0.125000
G03 X57.945311 Y115.642708 Z-0.125000 I-714.396627 J-216.510998
G03 X56.931843 Y118.820760 Z-0.125000 I-199.854550 J-61.982227
G03 X55.818614 Y122.423993 Z-0.125000 I-249.643699 J-75.154556
G03 X55.063741 Y124.716516 Z-0.125000 I-102.613431 J-32.517570
G03 X54.338995 Y127.021877 Z-0.125000 I-95.029673 J-28.608278
G03 X53.920661 Y128.204143 Z-0.125000 I-25.547115 J-8.374475
G01 X53.363589 Y130.056224 Z-0.125000
G03 X52.173177 Y132.830446 Z-0.125000 I-17.047572 J-5.672564
G03 X51.439679 Y133.667889 Z-0.125000 I-2.156038 J-1.148477
G03 X50.391065 Y134.098560 Z-0.125000 I-1.274917 J-1.612275
G03 X48.650704 Y133.976921 Z-0.125000 I-0.536146 J-4.840046
G03 X47.362943 Y133.626859 Z-0.125000 I2.436847 J-11.507988
G03 X45.694299 Y132.989895 Z-0.125000 I6.659073 J-19.948790
G02 X44.033374 Y132.326312 Z-0.125000 I-13.097915 J30.373243
G02 X43.267578 Y132.095392 Z-0.125000 I-2.298955 J6.238728
G02 X42.652624 Y131.979918 Z-0.125000 I-4.806441 J23.901415
G02 X42.207696 Y131.910369 Z-0.125000 I-2.184476 J12.516878
G02 X41.852217 Y132.090434 Z-0.125000 I0.033049 J0.506164
G02 X41.482677 Y132.774418 Z-0.125000 I1.477426 J1.240035
G02 X41.369854 Y133.669668 Z-0.125000 I2.598046 J0.782153
G02 X41.539004 Y134.132470 Z-0.125000 I0.810172 J-0.033800
G02 X41.909293 Y134.581470 Z-0.125000 I1.572668 J-0.919785
G02 X42.347739 Y134.842505 Z-0.125000 I0.921448 J-1.048974
G02 X43.026130 Y135.060339 Z-0.125000 I2.897240 J-7.857488
G02 X46.726279 Y136.045524 Z-0.125000 I63.942954 J-232.715177
G03 X50.462384 Y137.214487 Z-0.125000 I-22.499403 J78.464965
G03 X57.269289 Y139.624113 Z-0.125000 I-89.152630 J262.664702
G03 X61.682579 Y141.311749 Z-0.125000 I-68.146135 J184.821307
G03 X64.743759 Y142.585686 Z-0.125000 I-35.665308 J90.016132
G03 X67.825536 Y144.063477 Z-0.125000 I-79.822382 J170.413363
G03 X68.955383 Y144.652740 Z-0.125000 I-11.450026 J23.331962
G02 X69.550309 Y144.817402 Z-0.125000 I1.284353 J-3.483320
G02 X70.098982 Y144.868749 Z-0.125000 I0.548191 J-2.900651
G02 X70.575204 Y144.762888 Z-0.125000 I0.118667 J-0.590258
G02 X70.935623 Y144.251215 Z-0.125000 I-0.588558 J-0.797351
G02 X70.971835 Y144.113072 Z-0.125000 I-1.896888 J-0.571063
G02 X70.998149 Y143.981983 Z-0.125000 I-2.936682 J-0.657675
G01 X78.429212 Y146.492421 Z-0.125000
G02 X78.453892 Y146.991922 Z-0.125000 I2.111487 J0.146030
G02 X78.593544 Y147.443782 Z-0.125000 I1.772033 J-0.300154
G02 X78.915652 Y147.919716 Z-0.125000 I1.605103 J-0.739351
G02 X79.195574 Y148.079403 Z-0.125000 I0.403597 J-0.382297
G02 X79.456461 Y148.128948 Z-0.125000 I0.807331 J-3.539505
G02 X80.509186 Y148.279388 Z-0.125000 I8.748753 J-57.461990
G02 X81.635992 Y148.515522 Z-0.125000 I7.234883 J-31.717461
G02 X83.204625 Y148.794602 Z-0.125000 I11.680643 J-61.105734
G02 X84.850226 Y149.147316 Z-0.125000 I14.261704 J-62.523370
G02 X86.850394 Y149.526338 Z-0.125000 I18.634766 J-92.871872
G03 X88.849940 Y149.907776 Z-0.125000 I-14.955085 J83.828206
G03 X90.841358 Y150.337143 Z-0.125000 I-17.033172 J83.833323
G03 X98.329871 Y152.148275 Z-0.125000 I-65.731745 J288.168842
G03 X101.671690 Y153.106480 Z-0.125000 I-14.897638 J58.263295
G02 X104.978159 Y154.225727 Z-0.125000 I61.346650 J-175.786124
G02 X105.660073 Y154.414925 Z-0.125000 I2.379313 J-7.252102
G02 X107.017580 Y154.357277 Z-0.125000 I0.573253 J-2.513163
G02 X107.479599 Y153.833565 Z-0.125000 I-0.207066 J-0.648327
G02 X107.500603 Y153.641319 Z-0.125000 I-1.264147 J-0.235384
G02 X107.499761 Y153.240319 Z-0.125000 I-5.621305 J-0.188690
G02 X107.415863 Y152.953888 Z-0.125000 I-0.839204 J0.090305
G02 X107.106503 Y152.452772 Z-0.125000 I-2.918849 J1.455883
G02 X106.767472 Y152.057759 Z-0.125000 I-1.301649 J0.774179
G02 X105.935001 Y151.487976 Z-0.125000 I-3.623795 J4.401450
G02 X105.090101 Y151.090819 Z-0.125000 I-2.425560 J4.062782
G02 X103.570290 Y150.649784 Z-0.125000 I-4.546681 J12.828763
G01 X101.324433 Y150.137155 Z-0.125000
G02 X100.268744 Y150.009157 Z-0.125000 I-5.799533 J43.415272
G02 X99.647535 Y149.954219 Z-0.125000 I-1.662821 J15.262868
G03 X99.846564 Y149.309827 Z-0.125000 I2.878162 J0.536023
G03 X101.363192 Y146.060407 Z-0.125000 I75.687820 J33.347748
G03 X102.971712 Y142.844386 Z-0.125000 I298.098208 J147.086085
G03 X105.348473 Y138.199397 Z-0.125000 I617.729387 J313.150951
G03 X107.844260 Y133.591554 Z-0.125000 I697.224617 J374.664065
G03 X110.815316 Y128.185543 Z-0.125000 I962.652140 J525.538741
G03 X113.890600 Y122.808795 Z-0.125000 I5794.686638 J3310.760191
G03 X116.821144 Y117.696282 Z-0.125000 I5353.223481 J3065.125084
G03 X119.834950 Y112.708098 Z-0.125000 I1010.491030 J607.123032
G03 X122.404774 Y108.506149 Z-0.125000 I719.746269 J437.295010
G03 X125.137888 Y104.487833 Z-0.125000 I96.844239 J62.931320
G03 X126.796233 Y102.332898 Z-0.125000 I29.493407 J20.981290
G03 X127.227033 Y103.563172 Z-0.125000 I-11.632440 J4.763852
G03 X128.172374 Y107.031311 Z-0.125000 I-91.577362 J26.824948
G03 X129.009394 Y110.530980 Z-0.125000 I-139.376958 J35.184888
G03 X130.048225 Y115.332074 Z-0.125000 I-261.660509 J59.129416
G03 X130.994360 Y120.152280 Z-0.125000 I-237.785866 J49.176801
G03 X131.981956 Y125.738679 Z-0.125000 I-319.523887 J59.367792
G03 X132.921260 Y131.366935 Z-0.125000 I-184.188193 J33.631816
G03 X133.636632 Y136.679595 Z-0.125000 I-162.801815 J24.626436
G03 X134.233327 Y142.129380 Z-0.125000 I-147.260193 J18.881014
G03 X134.551822 Y146.754419 Z-0.125000 I-105.727744 J9.604243
G03 X134.547650 Y151.469136 Z-0.125000 I-54.661025 J2.308996
G03 X134.217476 Y154.351362 Z-0.125000 I-20.697763 J-0.911012
G03 X133.998673 Y155.296313 Z-0.125000 I-10.988609 J-2.046598
G03 X133.670739 Y156.319717 Z-0.125000 I-13.225596 J-3.673699
G03 X133.213376 Y157.132724 Z-0.125000 I-1.851386 J-0.506359
G03 X132.662017 Y157.385282 Z-0.125000 I-0.588778 J-0.557247
G02 X130.410572 Y156.901711 Z-0.125000 I-20.168425 J88.418472
G02 X128.929949 Y156.633390 Z-0.125000 I-7.585517 J37.638486
G02 X127.528524 Y156.424953 Z-0.125000 I-13.738756 J87.557074
G02 X126.648439 Y156.312480 Z-0.125000 I-4.921812 J35.012869
G02 X125.750281 Y156.330304 Z-0.125000 I-0.111240 J17.033306
G02 X125.194781 Y156.379660 Z-0.125000 I0.303882 J6.570823
G03 X124.620491 Y156.536360 Z-0.125000 I-4.134783 J-14.022904
G03 X124.156086 Y156.640627 Z-0.125000 I-2.303927 J-9.175347
G02 X123.904476 Y157.006025 Z-0.125000 I0.808031 J0.825729
G02 X123.683247 Y157.728931 Z-0.125000 I3.078866 J1.337523
G02 X123.751829 Y158.354813 Z-0.125000 I1.070598 J0.199386
G02 X124.058936 Y158.611564 Z-0.125000 I0.404995 J-0.172381
G01 X125.181864 Y158.867879 Z-0.125000
G03 X126.149128 Y158.994256 Z-0.125000 I-11.179512 J89.330238
G03 X128.431274 Y159.310227 Z-0.125000 I-69.311018 J509.008344
G02 X130.695010 Y159.726312 Z-0.125000 I788.957382 J-4285.932155
G02 X135.135765 Y160.540641 Z-0.125000 I2710.325333 J-14768.046063
G01 X140.836703 Y161.839786 Z-0.125000
G01 X143.168856 Y162.371534 Z-0.125000
G02 X144.452580 Y162.741048 Z-0.125000 I11.663162 J-38.104236
G02 X145.569741 Y163.019041 Z-0.125000 I7.641565 J-28.325200
G02 X146.766148 Y163.372199 Z-0.125000 I12.231513 J-39.233990
G02 X147.538609 Y163.567844 Z-0.125000 I4.496498 J-16.130661
G02 X148.387838 Y163.849897 Z-0.125000 I11.838875 J-34.226007
G02 X148.643968 Y163.919761 Z-0.125000 I0.958841 J-3.010811
G02 X149.013191 Y163.986209 Z-0.125000 I0.903115 J-3.959155
G02 X149.297673 Y164.006576 Z-0.125000 I0.310670 J-2.342489
G02 X149.832973 Y163.865005 Z-0.125000 I0.011117 J-1.040777
G02 X150.120878 Y163.586963 Z-0.125000 I-0.423665 J-0.726774
G01 X151.077925 Y164.018979 Z-0.125000
G03 X150.976989 Y164.411755 Z-0.125000 I-4.376386 J-0.915289
G02 X150.910491 Y164.783272 Z-0.125000 I1.510018 J0.461987
G02 X151.053962 Y165.573113 Z-0.125000 I1.705949 J0.098074
G02 X151.536294 Y166.196619 Z-0.125000 I1.506196 J-0.666849
G03 X155.139182 Y165.501076 Z-0.125000 I11.634976 J50.589585
G03 X159.294465 Y164.981709 Z-0.125000 I10.449233 J66.718672
G03 X163.466663 Y164.726107 Z-0.125000 I16.172398 J229.802656
G03 X167.271746 Y164.565198 Z-0.125000 I10.068980 J193.034436
G03 X171.078687 Y164.500336 Z-0.125000 I4.012572 J123.758602
G03 X174.077009 Y164.554350 Z-0.125000 I0.126578 J76.220307
G03 X177.162602 Y164.689085 Z-0.125000 I-11.893345 J307.770461
G03 X178.571819 Y164.772940 Z-0.125000 I-3.183656 J65.385569
G03 X181.999807 Y165.061598 Z-0.125000 I-8.753375 J124.450867
G03 X185.601871 Y165.462822 Z-0.125000 I-13.471723 J137.314589
G03 X189.194375 Y165.945022 Z-0.125000 I-23.956823 J192.107473
G03 X192.262954 Y166.420385 Z-0.125000 I-20.264460 J140.953810
G03 X195.321180 Y166.958851 Z-0.125000 I-26.257620 J158.084479
G03 X197.334473 Y167.363994 Z-0.125000 I-12.859556 J69.108421
G03 X199.381704 Y167.896954 Z-0.125000 I-4.598723 J21.863248
G03 X199.765330 Y168.121572 Z-0.125000 I-0.292957 J0.940251
G02 X199.922140 Y168.081583 Z-0.125000 I0.018054 J-0.256651
G02 X200.315683 Y167.769137 Z-0.125000 I-1.338423 J-2.089889
G02 X200.604129 Y167.365164 Z-0.125000 I-0.976785 J-1.002411
G02 X200.718241 Y166.917510 Z-0.125000 I-1.093061 J-0.517004
G02 X200.537951 Y165.956943 Z-0.125000 I-2.028667 J-0.116439
G02 X199.933279 Y165.199271 Z-0.125000 I-1.816515 J0.829577
G02 X199.040922 Y164.742007 Z-0.125000 I-2.754806 J4.276685
G02 X197.513273 Y164.246875 Z-0.125000 I-4.791115 J12.177992
G02 X195.934606 Y163.977888 Z-0.125000 I-6.511160 J33.446520
G02 X193.657701 Y163.682570 Z-0.125000 I-10.204628 J69.752603
G03 X191.376796 Y163.407397 Z-0.125000 I17.538403 J-154.966419
G03 X188.569127 Y163.030931 Z-0.125000 I30.704350 J-239.649846
G03 X188.307940 Y162.780784 Z-0.125000 I0.111696 J-0.378056
G03 X188.190858 Y161.928673 Z-0.125000 I2.111102 J-0.724170
G03 X188.412210 Y159.699156 Z-0.125000 I26.896412 J1.544594
G03 X189.232135 Y154.568926 Z-0.125000 I143.455300 J20.296720
G03 X190.249515 Y149.459202 Z-0.125000 I778.531224 J152.354578
G03 X191.575660 Y142.997551 Z-0.125000 I1242.206943 J251.575262
G03 X193.021562 Y136.549045 Z-0.125000 I1391.706028 J308.665697
G03 X194.652470 Y129.424247 Z-0.125000 I1668.187922 J378.108884
G03 X196.400572 Y122.312365 Z-0.125000 I1819.199341 J443.388900
G03 X197.988179 Y115.966681 Z-0.125000 I1458.355724 J361.489975
G03 X199.683047 Y109.731171 Z-0.125000 I1760.470550 J475.163721
G03 X201.008147 Y104.932220 Z-0.125000 I1071.407049 J293.257719
G03 X202.547986 Y100.289424 Z-0.125000 I87.618085 J26.482838
G03 X203.319113 Y98.541932 Z-0.125000 I13.101111 J4.737322
G03 X203.772131 Y98.383334 Z-0.125000 I7.086407 J19.515336
G03 X204.039999 Y98.299044 Z-0.125000 I2.206102 J6.543064
G03 X204.392034 Y98.323801 Z-0.125000 I-28.448130 J406.988270
G02 X205.184114 Y98.379663 Z-0.125000 I120.507410 J-1702.649871
G03 X206.324777 Y98.488653 Z-0.125000 I-1.602996 J22.799945
G03 X207.115260 Y98.613237 Z-0.125000 I-1.334895 J11.040013
G02 X207.991853 Y98.756386 Z-0.125000 I4.348118 J-23.870665
G02 X208.429907 Y98.803393 Z-0.125000 I0.859656 J-5.946559
G02 X208.638186 Y98.732415 Z-0.125000 I0.020103 J-0.282088
G02 X208.880524 Y98.402391 Z-0.125000 I-0.655321 J-0.735191
G02 X208.967552 Y98.578920 Z-0.125000 I3.636216 J-1.682923
G02 X209.075860 Y98.768256 Z-0.125000 I2.610428 J-1.367627
G02 X209.573322 Y99.244440 Z-0.125000 I1.441417 J-1.007889
G02 X209.947642 Y99.322743 Z-0.125000 I0.291080 J-0.457632
G01 X211.083489 Y99.146530 Z-0.125000
G01 X213.092148 Y98.834402 Z-0.125000
G03 X214.150374 Y98.811365 Z-0.125000 I0.813020 J13.030029
G03 X214.788167 Y98.866443 Z-0.125000 I-0.089316 J4.754569
G03 X215.387760 Y99.044986 Z-0.125000 I-0.353007 J2.281543
G03 X215.921945 Y99.380104 Z-0.125000 I-0.966900 J2.134570
G03 X216.352065 Y99.945150 Z-0.125000 I-1.897984 J1.890998
G03 X216.953406 Y101.191360 Z-0.125000 I-8.829223 J5.028607
G03 X217.426128 Y102.605509 Z-0.125000 I-16.448831 J6.284608
G03 X218.067033 Y105.059352 Z-0.125000 I-49.194285 J14.159384
G03 X218.595937 Y107.640505 Z-0.125000 I-51.911137 J11.981880
G03 X219.287110 Y111.867708 Z-0.125000 I-137.694579 J24.683984
G03 X219.966561 Y116.098842 Z-0.125000 I-258.811518 J43.731015
G03 X220.884945 Y122.362658 Z-0.125000 I-570.960768 J86.912015
G03 X221.743358 Y128.635136 Z-0.125000 I-766.304313 J108.066646
G03 X222.896705 Y137.523990 Z-0.125000 I-1538.674815 J204.165449
G03 X223.763355 Y144.779018 Z-0.125000 I-499.761376 J63.378330
G03 X224.254243 Y149.633315 Z-0.125000 I-223.285202 J25.031565
G03 X224.615668 Y154.497017 Z-0.125000 I-154.212110 J13.904878
G03 X224.711062 Y157.447298 Z-0.125000 I-56.453891 J3.302050
G03 X224.581582 Y160.472499 Z-0.125000 I-28.683449 J0.287707
G03 X224.289382 Y161.849091 Z-0.125000 I-6.180059 J-0.592488
G03 X223.712799 Y162.950149 Z-0.125000 I-2.793742 J-0.761484
G03 X223.051219 Y163.322904 Z-0.125000 I-0.827441 J-0.695098
G03 X222.613071 Y163.373319 Z-0.125000 I-0.856347 J-5.513171
G03 X221.816669 Y163.415920 Z-0.125000 I-1.384881 J-18.423980
G01 X220.331491 Y163.646915 Z-0.125000
G03 X219.543494 Y163.743225 Z-0.125000 I-1.876345 J-12.080200
G03 X218.834943 Y163.780754 Z-0.125000 I-0.872014 J-9.756150
G01 X218.048428 Y163.902711 Z-0.125000
G02 X217.933848 Y163.986508 Z-0.125000 I0.023727 J0.152678
G02 X217.835523 Y164.330076 Z-0.125000 I0.877346 J0.436938
G02 X217.819233 Y164.730042 Z-0.125000 I3.644033 J0.348734
G02 X217.846371 Y165.117107 Z-0.125000 I3.465737 J-0.048509
G02 X217.912657 Y165.500154 Z-0.125000 I4.259762 J-0.539893
G02 X218.056177 Y166.070019 Z-0.125000 I9.540437 J-2.099749
G02 X218.331202 Y166.458429 Z-0.125000 I0.687663 J-0.195344
G02 X218.741405 Y166.554743 Z-0.125000 I0.324043 J-0.458420
G01 X226.514049 Y165.347583 Z-0.125000
G03 X230.276615 Y164.822820 Z-0.125000 I18.791369 J120.983384
G03 X232.740018 Y164.577604 Z-0.125000 I6.372829 J51.524435
G03 X235.210308 Y164.473346 Z-0.125000 I2.805110 J37.146736
G03 X237.454453 Y164.535231 Z-0.125000 I0.276037 J30.710996
G02 X238.279273 Y164.195570 Z-0.125000 I0.065071 J-1.013295
G02 X238.467309 Y163.392666 Z-0.125000 I-0.649037 J-0.575471
G03 X238.323661 Y162.822101 Z-0.125000 I9.394545 J-2.668572
G03 X238.047696 Y161.486324 Z-0.125000 I52.112067 J-11.462499
G02 X237.771421 Y160.150588 Z-0.125000 I-51.459411 J9.947065
G02 X237.417761 Y158.627587 Z-0.125000 I-68.168418 J15.027033
G02 X237.132997 Y157.094859 Z-0.125000 I-886.513703 J163.911328
G02 X236.863274 Y155.658264 Z-0.125000 I-695.958052 J129.923737
G03 X236.618920 Y154.316184 Z-0.125000 I61.744443 J-11.935153
G03 X236.518594 Y153.641851 Z-0.125000 I15.588296 J-2.663836
G02 X237.815574 Y154.732226 Z-0.125000 I7.984015 J-8.180271
G02 X240.341612 Y156.399303 Z-0.125000 I21.315502 J-29.550986
G02 X243.095658 Y157.815662 Z-0.125000 I15.951404 J-27.631034
G02 X246.484380 Y159.190344 Z-0.125000 I18.418018 J-40.538070
G02 X249.980290 Y160.259454 Z-0.125000 I12.988979 J-36.222771
G02 X253.938696 Y161.087899 Z-0.125000 I11.615955 J-45.631272
G02 X257.942342 Y161.428080 Z-0.125000 I4.161684 J-25.249707
G02 X261.871019 Y161.136993 Z-0.125000 I0.151964 J-24.606372
G02 X266.980631 Y159.927264 Z-0.125000 I-5.145997 J-33.131248
G02 X271.369654 Y158.084985 Z-0.125000 I-8.421391 J-26.212348
G02 X275.322344 Y155.552633 Z-0.125000 I-10.046958 J-20.033072
G02 X278.403832 Y152.458463 Z-0.125000 I-12.123272 J-15.155095
G02 X280.783425 Y148.811545 Z-0.125000 I-13.726414 J-11.556201
G02 X282.438220 Y144.242954 Z-0.125000 I-20.051854 J-9.846995
G02 X283.179016 Y139.475730 Z-0.125000 I-21.585330 J-5.795392
G02 X282.936377 Y133.422440 Z-0.125000 I-35.194387 J-1.620780
G02 X282.267038 Y129.494667 Z-0.125000 I-46.356218 J5.878729
G02 X281.195923 Y125.314929 Z-0.125000 I-53.513740 J11.486506
G02 X279.888019 Y121.295970 Z-0.125000 I-98.344702 J29.782371
G02 X278.395048 Y117.274092 Z-0.125000 I-100.013454 J34.838204
G02 X276.768227 Y113.302636 Z-0.125000 I-152.545353 J60.167951
G02 X275.094480 Y109.507654 Z-0.125000 I-141.233022 J60.023127
G03 X273.386660 Y105.828808 Z-0.125000 I1292.536280 J-602.266336
G03 X271.904509 Y102.610927 Z-0.125000 I1025.791444 J-474.428254
G03 X270.473021 Y99.472606 Z-0.125000 I147.774328 J-69.300192
G03 X269.410073 Y96.985945 Z-0.125000 I92.097098 J-40.838329
G03 X268.501582 Y94.452918 Z-0.125000 I26.966614 J-11.101231
G03 X268.196193 Y93.035298 Z-0.125000 I8.065988 J-2.479310
G03 X268.299274 Y92.051237 Z-0.125000 I2.150323 J-0.272182
G03 X268.848866 Y91.159430 Z-0.125000 I2.291074 J0.796665
G03 X269.819895 Y90.617653 Z-0.125000 I1.982550 J2.412254
G03 X272.006823 Y90.077842 Z-0.125000 I4.155855 J12.136693
G03 X273.232325 Y89.917388 Z-0.125000 I3.969986 J25.561401
G03 X274.027893 Y89.862365 Z-0.125000 I1.136099 J10.647745
G03 X274.885580 Y89.938263 Z-0.125000 I0.143351 J3.264164
G03 X275.586446 Y90.211694 Z-0.125000 I-0.544703 J2.431153
G02 X275.882379 Y90.167709 Z-0.125000 I0.108058 J-0.290498
G02 X276.236024 Y89.716633 Z-0.125000 I-0.689565 J-0.904788
G02 X276.325042 Y89.392466 Z-0.125000 I-1.083900 J-0.471951
G02 X276.324897 Y89.012789 Z-0.125000 I-1.502152 J-0.189266
G02 X276.188259 Y88.590267 Z-0.125000 I-1.187476 J0.150659
G02 X275.696513 Y87.838702 Z-0.125000 I-4.930485 J2.689345
G01 X276.075819 Y87.472837 Z-0.125000
G02 X276.254168 Y87.611959 Z-0.125000 I0.437454 J-0.376916
G02 X276.490262 Y87.655769 Z-0.125000 I0.193695 J-0.385767
G03 X277.426708 Y87.804531 Z-0.125000 I-0.922819 J8.830898
G03 X279.317490 Y88.260897 Z-0.125000 I-7.872376 J36.761311
G03 X281.124584 Y89.125225 Z-0.125000 I-1.670637 J5.814141
G03 X283.274858 Y91.041082 Z-0.125000 I-7.193030 J10.237754
G03 X285.266169 Y93.384004 Z-0.125000 I-32.023521 J29.235341
G03 X288.263702 Y97.351308 Z-0.125000 I-88.904734 J70.288849
G03 X290.175853 Y100.117546 Z-0.125000 I-40.142249 J29.792175
G03 X293.129013 Y104.922907 Z-0.125000 I-117.852097 J75.736748
G03 X295.930372 Y109.822929 Z-0.125000 I-210.208514 J123.427658
G03 X299.119860 Y115.689187 Z-0.125000 I-298.259762 J165.964253
G03 X302.186430 Y121.620256 Z-0.125000 I-267.245343 J141.933448
G03 X305.364945 Y128.101834 Z-0.125000 I-315.575577 J158.775945
G03 X308.422402 Y134.746141 Z-0.125000 I-275.384075 J130.746856
G03 X311.067450 Y140.895357 Z-0.125000 I-234.153872 J104.363355
G01 X319.683436 Y142.869395 Z-0.125000
G02 X318.335247 Y143.326110 Z-0.125000 I19.056212 J58.470842
G02 X315.732260 Y144.258972 Z-0.125000 I77.477619 J220.285633
G02 X313.226135 Y145.198217 Z-0.125000 I62.454633 J170.456587
G02 X310.392551 Y146.304839 Z-0.125000 I85.391592 J222.832312
G02 X307.575817 Y147.453156 Z-0.125000 I66.823442 J167.941654
G02 X304.848691 Y148.619941 Z-0.125000 I65.262808 J156.309218
G02 X302.244306 Y149.838579 Z-0.125000 I26.917121 J60.917579
G02 X300.623644 Y150.709218 Z-0.125000 I12.091104 J24.450857
G02 X300.412021 Y151.045401 Z-0.125000 I0.689626 J0.668810
G02 X300.196290 Y151.866252 Z-0.125000 I4.129279 J1.524006
G02 X300.227838 Y152.784552 Z-0.125000 I6.910461 J0.222282
G02 X300.365782 Y153.540566 Z-0.125000 I4.805472 J-0.486224
G02 X300.749297 Y154.230273 Z-0.125000 I1.557097 J-0.414350
G02 X301.391544 Y154.630936 Z-0.125000 I1.079851 J-1.015879
G03 X304.566614 Y152.607433 Z-0.125000 I31.581415 J46.051538
G03 X308.303272 Y150.546954 Z-0.125000 I36.490493 J61.756694
G03 X312.145615 Y148.722915 Z-0.125000 I106.654622 J219.709290
G03 X315.668178 Y147.129079 Z-0.125000 I84.680584 J182.464313
G03 X319.228023 Y145.622653 Z-0.125000 I52.106209 J118.173215
G03 X322.057963 Y144.537509 Z-0.125000 I29.676126 J73.159508
G03 X324.999293 Y143.493303 Z-0.125000 I107.603831 J298.434718
G03 X326.348150 Y143.037861 Z-0.125000 I22.192415 J63.500878
G03 X329.660893 Y142.007837 Z-0.125000 I39.515955 J121.248293
G03 X333.165792 Y141.019381 Z-0.125000 I39.863667 J134.641698
G03 X336.692575 Y140.109003 Z-0.125000 I50.734006 J189.255861
G03 X339.720439 Y139.392092 Z-0.125000 I34.600382 J139.381731
G03 X342.762226 Y138.737241 Z-0.125000 I35.594448 J157.944481
G03 X344.776964 Y138.354432 Z-0.125000 I14.051035 J68.457835
G03 X346.870835 Y138.078196 Z-0.125000 I3.933762 J21.744056
G03 X347.295159 Y138.144107 Z-0.125000 I0.075998 J0.909561
G02 X347.429205 Y138.048463 Z-0.125000 I-0.085061 J-0.260967
G02 X347.702882 Y137.604090 Z-0.125000 I-2.210125 J-1.667618
G02 X347.849443 Y137.110168 Z-0.125000 I-1.372623 J-0.676002
G02 X347.817076 Y136.651178 Z-0.125000 I-1.211508 J-0.145204
G02 X347.345226 Y135.815264 Z-0.125000 I-1.847025 J0.491463
G02 X346.547395 Y135.335508 Z-0.125000 I-1.294549 J1.249554
G02 X345.573821 Y135.244248 Z-0.125000 I-0.931735 J4.701156
G02 X343.979591 Y135.358262 Z-0.125000 I0.111405 J12.760660
G02 X342.415625 Y135.703707 Z-0.125000 I6.613894 J33.656803
G02 X340.182428 Y136.290502 Z-0.125000 I16.976101 J69.149751
G03 X337.953600 Y136.897820 Z-0.125000 I-43.633531 J-155.739361
G03 X335.200806 Y137.609284 Z-0.125000 I-61.000092 J-230.340058
G03 X334.879008 Y137.471441 Z-0.125000 I-0.035675 J-0.361261
G03 X334.503709 Y136.716832 Z-0.125000 I1.660049 J-1.296244
G03 X334.022265 Y134.544868 Z-0.125000 I25.634053 J-6.821467
G03 X333.202490 Y129.408240 Z-0.125000 I142.809843 J-25.425314
G03 X332.575783 Y124.223281 Z-0.125000 I792.746530 J-98.449845
G03 X331.820150 Y117.648768 Z-0.125000 I1270.674038 J-149.373923
G03 X331.181282 Y111.043341 Z-0.125000 I1440.344746 J-142.641721
G03 X330.506548 Y103.730246 Z-0.125000 I1722.134789 J-162.578413
G03 X329.946068 Y96.387353 Z-0.125000 I1906.929972 J-149.248025
G03 X329.471975 Y89.823101 Z-0.125000 I1520.211542 J-113.094052
G03 X329.132786 Y83.322999 Z-0.125000 I1883.323084 J-101.534873
G03 X328.891136 Y78.311173 Z-0.125000 I1123.167744 J-56.666203
G03 X328.899963 Y73.373731 Z-0.125000 I94.068257 J-2.300570
G03 X329.083356 Y71.431486 Z-0.125000 I14.758140 J0.413731
G03 X329.460016 Y71.110739 Z-0.125000 I14.467135 J16.607535
G03 X329.685388 Y70.930233 Z-0.125000 I4.896986 J5.883234
G02 X330.023752 Y70.819919 Z-0.125000 I-173.249048 J-531.945537
G03 X330.785074 Y70.571591 Z-0.125000 I702.547838 J2152.363446
G03 X331.892131 Y70.240777 Z-0.125000 I7.260167 J22.278123
G03 X332.671260 Y70.058458 Z-0.125000 I2.931177 J10.770290
G02 X333.538068 Y69.860784 Z-0.125000 I-5.035375 J-24.079604
G02 X333.965230 Y69.738578 Z-0.125000 I-1.466118 J-5.932336
G02 X334.170540 Y69.535432 Z-0.125000 I-0.099835 J-0.306219
G02 X334.273734 Y68.824417 Z-0.125000 I-1.884228 J-0.636466
G02 X334.220078 Y68.023665 Z-0.125000 I-13.633199 J0.511337
G02 X334.168853 Y67.739203 Z-0.125000 I-1.759541 J0.170011
G02 X333.860955 Y67.329195 Z-0.125000 I-0.661393 J0.176064
G02 X333.401959 Y67.276712 Z-0.125000 I-0.286885 J0.475636
G02 X332.985215 Y67.430518 Z-0.125000 I1.789983 J5.491547
G02 X332.242345 Y67.756269 Z-0.125000 I7.298971 J17.655114
G03 X331.500596 Y68.085817 Z-0.125000 I-10.422241 J-22.458888
G03 X330.177354 Y68.633203 Z-0.125000 I-29.577534 J-69.627215
G02 X328.829754 Y69.091698 Z-0.125000 I17.078718 J52.407000
G02 X326.648901 Y69.884813 Z-0.125000 I48.832836 J137.672259
G03 X324.549149 Y70.639956 Z-0.125000 I-29.689523 J-79.257837
G03 X321.259557 Y71.743111 Z-0.125000 I-66.631371 J-193.237367
G03 X320.153607 Y72.080660 Z-0.125000 I-9.527572 J-29.235751
G03 X318.781182 Y72.448993 Z-0.125000 I-12.781131 J-44.882114
G03 X317.486590 Y72.767352 Z-0.125000 I-125.212582 J-506.379360
G03 X316.277459 Y73.061370 Z-0.125000 I-112.255043 J-459.008280
G03 X315.066894 Y73.347938 Z-0.125000 I-30.660849 J-126.821953
G03 X314.112721 Y73.563152 Z-0.125000 I-18.904741 J-81.593565
G02 X313.160569 Y73.785209 Z-0.125000 I7.963976 J36.300770
G02 X312.818751 Y73.883006 Z-0.125000 I1.172312 J4.743708
G02 X312.635351 Y74.025947 Z-0.125000 I0.105832 J0.324914
G02 X312.495775 Y74.395636 Z-0.125000 I0.839378 J0.528101
G02 X312.474473 Y74.822836 Z-0.125000 I1.914243 J0.309581
G02 X312.550543 Y75.293260 Z-0.125000 I2.391200 J-0.145309
G02 X312.700595 Y75.750220 Z-0.125000 I4.065286 J-1.081802
G02 X312.834256 Y76.014672 Z-0.125000 I1.476834 J-0.580424
G02 X313.135548 Y76.221425 Z-0.125000 I0.524400 J-0.441278
G02 X313.441976 Y76.223957 Z-0.125000 I0.156992 J-0.455994
G02 X314.220601 Y76.040176 Z-0.125000 I-2.042080 J-10.392945
G02 X315.497125 Y75.656030 Z-0.125000 I-7.805088 J-28.249466
G03 X316.607505 Y75.646137 Z-0.125000 I0.575987 J2.329381
G03 X316.965269 Y75.991415 Z-0.125000 I-0.107142 J0.469007
G03 X317.078812 Y76.559878 Z-0.125000 I-4.456846 J1.185763
G03 X317.439137 Y79.499733 Z-0.125000 I-119.366152 J16.122215
G03 X317.745542 Y82.448261 Z-0.125000 I-241.352606 J26.570987
G03 X318.133139 Y86.599527 Z-0.125000 I-477.712568 J46.696979
G03 X318.563660 Y90.727311 Z-0.125000 I-360.017329 J39.635568
G03 X318.997187 Y95.373656 Z-0.125000 I-450.210792 J44.350349
G03 X319.488913 Y100.091105 Z-0.125000 I-407.543980 J44.864895
G03 X319.860680 Y104.147811 Z-0.125000 I-303.052445 J29.817934
G03 X318.391234 Y104.879901 Z-0.125000 I-12.783604 J-23.818380
G03 X316.093468 Y105.884137 Z-0.125000 I-26.491112 J-57.482782
G03 X313.841494 Y106.768298 Z-0.125000 I-22.241003 J-53.338233
G03 X311.321158 Y107.643191 Z-0.125000 I-24.193538 J-65.627582
G03 X308.340145 Y108.534812 Z-0.125000 I-19.741281 J-60.573158
G03 X305.577855 Y109.209496 Z-0.125000 I-14.035871 J-51.473621
G03 X303.213277 Y109.570440 Z-0.125000 I-4.281625 J-20.123536
G03 X301.610671 Y109.581050 Z-0.125000 I-0.862338 J-9.214458
G01 X303.926804 Y113.057326 Z-0.125000
G02 X305.065745 Y112.947227 Z-0.125000 I-3.159333 J-38.628254
G02 X306.525089 Y112.767423 Z-0.125000 I-7.114827 J-63.758144
G02 X308.763657 Y112.537011 Z-0.125000 I-26.786919 J-271.238564
G02 X311.173362 Y112.269769 Z-0.125000 I-34.369289 J-320.902708
G02 X313.663980 Y111.945954 Z-0.125000 I-18.961923 J-155.585825
G02 X316.050579 Y111.595929 Z-0.125000 I-19.830953 J-143.525825
G02 X318.539678 Y111.262989 Z-0.125000 I-13.029160 J-106.878571
G02 X320.564524 Y110.938599 Z-0.125000 I-10.390341 J-71.338255
G02 X320.771413 Y113.416650 Z-0.125000 I435.230429 J-35.089111
G02 X321.094193 Y117.074649 Z-0.125000 I978.989761 J-84.542238
G03 X321.490631 Y120.706138 Z-0.125000 I-371.010238 J42.339390
G03 X321.863150 Y124.455060 Z-0.125000 I-390.091343 J40.655212
G03 X322.221764 Y128.301584 Z-0.125000 I-354.731732 J35.011767
G03 X322.497224 Y131.676325 Z-0.125000 I-276.512379 J24.268684
G03 X322.813465 Y135.026997 Z-0.125000 I-242.067109 J24.536909
G03 X322.946803 Y136.820702 Z-0.125000 I-68.991460 J6.030403
G03 X322.996565 Y139.500029 Z-0.125000 I-31.376812 J1.922870
G03 X322.863089 Y140.307308 Z-0.125000 I-2.935341 J-0.070655
G03 X322.587015 Y140.971880 Z-0.125000 I-1.936592 J-0.414862
G03 X322.276032 Y141.210611 Z-0.125000 I-0.493286 J-0.320665
G03 X322.169183 Y141.238769 Z-0.125000 I-0.297410 J-0.911739
G03 X322.056931 Y141.255053 Z-0.125000 I-0.201418 J-0.993450
G03 X322.007184 Y141.258224 Z-0.125000 I-0.101339 J-1.197899
G03 X321.956178 Y141.259180 Z-0.125000 I-0.045269 J-1.053876
G03 X321.259981 Y141.074259 Z-0.125000 I0.008064 J-1.433352
G03 X320.076183 Y140.198266 Z-0.125000 I2.938179 J-5.208464
G03 X318.814195 Y138.940031 Z-0.125000 I11.515622 J-12.811966
G03 X316.949236 Y136.740081 Z-0.125000 I33.466274 J-30.260770
G03 X315.321504 Y134.501149 Z-0.125000 I41.493954 J-31.877776
G03 X313.349478 Y131.503203 Z-0.125000 I72.705074 J-49.972405
G03 X311.480220 Y128.545736 Z-0.125000 I242.215986 J-155.161397
G03 X309.500086 Y125.329952 Z-0.125000 I283.774025 J-176.952613
G03 X307.666495 Y122.158191 Z-0.125000 I266.586988 J-156.229530
G03 X305.879639 Y118.980462 Z-0.125000 I264.376412 J-150.751720
G03 X304.224600 Y115.750560 Z-0.125000 I185.915994 J-97.304480
G03 X302.941338 Y113.121403 Z-0.125000 I120.998784 J-60.685861
G02 X303.369516 Y113.097919 Z-0.125000 I-1.171831 J-25.281076
G02 X303.857034 Y113.063010 Z-0.125000 I-1.879163 J-29.664300
G01 X301.533148 Y109.574324 Z-0.125000
G03 X301.340688 Y109.554364 Z-0.125000 I0.673788 J-7.434633
G03 X301.158499 Y109.530403 Z-0.125000 I0.737217 J-6.310226
G02 X300.181511 Y107.611601 Z-0.125000 I-312.269853 J157.788894
G02 X299.056810 Y105.433494 Z-0.125000 I-415.525073 J213.183660
G03 X297.955948 Y103.349261 Z-0.125000 I457.911260 J-243.194949
G03 X296.820793 Y101.176406 Z-0.125000 I484.240889 J-254.362933
G03 X295.795071 Y98.964413 Z-0.125000 I121.321913 J-57.601948
G03 X294.813666 Y96.743079 Z-0.125000 I121.591551 J-55.047656
G03 X293.955911 Y94.578781 Z-0.125000 I29.894003 J-13.099724
G03 X293.354332 Y92.639979 Z-0.125000 I23.449651 J-8.338773
G03 X292.847690 Y88.845535 Z-0.125000 I14.565958 J-3.875922
G03 X293.322291 Y86.647597 Z-0.125000 I5.196670 J-0.028092
G03 X294.710799 Y84.828299 Z-0.125000 I5.316912 J2.618412
G03 X296.596506 Y83.749063 Z-0.125000 I3.541088 J4.000179
G03 X298.804909 Y83.070321 Z-0.125000 I21.220195 J65.111445
G03 X299.328643 Y82.959971 Z-0.125000 I1.009656 J3.493910
G02 X299.964149 Y82.914527 Z-0.125000 I-0.043974 J-5.081231
G02 X300.393695 Y82.816302 Z-0.125000 I-0.325313 J-2.410972
G02 X300.897715 Y82.501983 Z-0.125000 I-0.383205 J-1.175745
G02 X300.970909 Y82.221520 Z-0.125000 I-0.210978 J-0.204843
G02 X300.875377 Y82.068513 Z-0.125000 I-0.296654 J0.078894
G02 X300.373534 Y81.703704 Z-0.125000 I-2.370169 J2.732904
G02 X299.923534 Y81.463965 Z-0.125000 I-2.476558 J4.106391
G02 X299.218550 Y81.164722 Z-0.125000 I-4.638065 J9.946735
G02 X298.274115 Y80.780353 Z-0.125000 I-8.465385 J19.447861
G02 X296.764966 Y80.234554 Z-0.125000 I-18.418399 J48.568056
G02 X295.289790 Y79.921240 Z-0.125000 I-1.485701 J3.365677
G02 X293.360523 Y80.224765 Z-0.125000 I-0.017655 J6.170955
G02 X293.109801 Y80.315918 Z-0.125000 I1.221784 J3.750987
G02 X292.031417 Y80.759619 Z-0.125000 I27.850460 J69.220805
G02 X291.045164 Y81.192801 Z-0.125000 I23.847074 J55.633508
G02 X289.568520 Y81.867561 Z-0.125000 I56.723987 J126.087921
G03 X288.069605 Y82.455156 Z-0.125000 I-188.426800 J-478.457489
G03 X286.403340 Y83.102608 Z-0.125000 I-227.447262 J-582.885191
G03 X284.728515 Y83.726273 Z-0.125000 I-25.168056 J-65.027020
G03 X283.213369 Y84.244151 Z-0.125000 I-18.862755 J-52.711048
G03 X281.089970 Y84.904962 Z-0.125000 I-25.799638 J-79.160575
G03 X279.719524 Y85.280787 Z-0.125000 I-9.764869 J-32.920996
G03 X278.423153 Y85.588864 Z-0.125000 I-17.579042 J-71.090234
G03 X277.639557 Y85.755158 Z-0.125000 I-5.897129 J-25.858474
G03 X276.851359 Y85.885595 Z-0.125000 I-2.562850 J-13.039996
G03 X276.574505 Y85.898827 Z-0.125000 I-0.215002 J-1.595619
G02 X276.213875 Y85.931348 Z-0.125000 I0.188243 J4.103255
G02 X276.041714 Y85.970661 Z-0.125000 I0.130582 J0.968467
G02 X275.939137 Y86.072262 Z-0.125000 I0.049809 J0.152869
G02 X275.887727 Y86.427993 Z-0.125000 I0.946148 J0.318317
G02 X275.842728 Y86.764331 Z-0.125000 I1.170551 J0.327787
G02 X275.893018 Y87.138531 Z-0.125000 I1.495595 J-0.010521
G02 X275.960462 Y87.284653 Z-0.125000 I0.453103 J-0.120506
G03 X276.029967 Y87.389170 Z-0.125000 I-2.860196 J1.977422
G01 X275.643940 Y87.762285 Z-0.125000
G03 X275.636697 Y87.751843 Z-0.125000 I0.057756 J-0.047798
G02 X275.629388 Y87.741118 Z-0.125000 I-0.073562 J0.042277
G02 X274.995689 Y87.138833 Z-0.125000 I-1.714137 J1.169023
G02 X274.470805 Y87.034179 Z-0.125000 I-0.405387 J0.664606
G01 X271.414157 Y87.508576 Z-0.125000
G01 X266.260980 Y88.309046 Z-0.125000
G02 X263.544645 Y88.657165 Z-0.125000 I18.096565 J151.976987
G02 X260.833928 Y89.053688 Z-0.125000 I21.072271 J153.518461
G01 X256.816605 Y89.677443 Z-0.125000
G02 X255.869230 Y90.153911 Z-0.125000 I0.265183 J1.707353
G02 X255.629083 Y90.847376 Z-0.125000 I0.580602 J0.589377
G02 X255.737347 Y91.408695 Z-0.125000 I4.401359 J-0.557813
G02 X255.802199 Y91.510897 Z-0.125000 I0.191720 J-0.049978
G02 X255.938080 Y91.637876 Z-0.125000 I0.304026 J-0.189147
G02 X256.088486 Y91.663350 Z-0.125000 I0.113502 J-0.213392
G02 X256.362894 Y91.719185 Z-0.125000 I41.684387 J-204.172072
G03 X256.637289 Y91.774978 Z-0.125000 I-52.060356 J256.757304
G03 X256.988688 Y91.952760 Z-0.125000 I-0.612039 J1.645901
G03 X257.608804 Y92.412649 Z-0.125000 I-3.693979 J5.629009
G03 X258.632452 Y93.992238 Z-0.125000 I-8.336375 J6.523841
G03 X260.303727 Y97.513624 Z-0.125000 I-40.230456 J21.250963
G03 X261.720056 Y101.259678 Z-0.125000 I-57.400480 J23.843062
G03 X263.277704 Y106.217480 Z-0.125000 I-99.014492 J33.832082
G03 X264.688951 Y111.233849 Z-0.125000 I-112.476127 J34.349429
G03 X266.084768 Y117.116025 Z-0.125000 I-153.296386 J39.483323
G03 X267.303963 Y123.041213 Z-0.125000 I-115.436426 J26.840783
G03 X268.216407 Y129.006756 Z-0.125000 I-115.885506 J20.777518
G03 X268.637542 Y135.286178 Z-0.125000 I-52.780747 J6.693616
G03 X268.303746 Y140.228807 Z-0.125000 I-32.960787 J0.256610
G03 X267.231673 Y145.050932 Z-0.125000 I-32.150513 J-4.617588
G03 X265.727687 Y148.710965 Z-0.125000 I-19.956744 J-6.061628
G03 X263.539898 Y151.974369 Z-0.125000 I-16.477347 J-8.681378
G03 X261.088176 Y154.261009 Z-0.125000 I-10.401380 J-8.694615
G03 X258.159784 Y155.973051 Z-0.125000 I-8.435151 J-11.067572
G03 X255.007934 Y156.881000 Z-0.125000 I-5.148807 J-11.948910
G03 X252.138655 Y157.023543 Z-0.125000 I-2.114497 J-13.613794
G03 X248.909606 Y156.546655 Z-0.125000 I0.975211 J-17.773763
G03 X245.895336 Y155.597292 Z-0.125000 I4.090641 J-18.247870
G03 X242.990593 Y154.115282 Z-0.125000 I7.557375 J-18.400133
G03 X240.358492 Y152.284289 Z-0.125000 I10.492331 J-17.890357
G03 X237.923725 Y149.974452 Z-0.125000 I14.381148 J-17.597110
G03 X236.043125 Y147.384304 Z-0.125000 I11.425769 J-10.273574
G03 X234.842265 Y144.637834 Z-0.125000 I11.668438 J-6.737644
G03 X234.475963 Y143.308237 Z-0.125000 I13.033002 J-4.305831
G03 X233.805121 Y139.969391 Z-0.125000 I81.932057 J-18.198632
G03 X233.231972 Y136.608455 Z-0.125000 I184.698609 J-33.226434
G03 X232.549902 Y132.180720 Z-0.125000 I316.831557 J-51.072717
G03 X231.900931 Y127.747917 Z-0.125000 I4446.521049 J-653.242443
G03 X231.186162 Y122.832473 Z-0.125000 I5230.368671 J-763.073899
G01 X229.997089 Y113.456842 Z-0.125000
G03 X229.664428 Y110.651198 Z-0.125000 I172.493314 J-21.874763
G03 X229.398160 Y108.030297 Z-0.125000 I151.435262 J-16.708930
G03 X229.194408 Y105.501748 Z-0.125000 I115.763343 J-10.600774
G03 X229.072083 Y103.349955 Z-0.125000 I84.591260 J-5.888220
G03 X229.003933 Y101.292874 Z-0.125000 I145.482144 J-5.849377
G03 X228.980098 Y99.816343 Z-0.125000 I74.501345 J-1.941124
G03 X229.020694 Y98.346483 Z-0.125000 I21.812636 J-0.133047
G03 X229.096369 Y97.925501 Z-0.125000 I1.835900 J0.112725
G03 X229.409603 Y97.039795 Z-0.125000 I5.244805 J1.356608
G03 X229.723203 Y96.546759 Z-0.125000 I1.909057 J0.868021
G03 X230.175425 Y96.299353 Z-0.125000 I0.755598 J0.844125
G03 X232.131839 Y95.877046 Z-0.125000 I4.583701 J16.491946
G03 X233.006733 Y95.773731 Z-0.125000 I1.841972 J11.842164
G03 X233.454239 Y95.770075 Z-0.125000 I0.248883 J3.074235
G02 X233.988811 Y95.757710 Z-0.125000 I0.148451 J-5.143440
G02 X234.689301 Y95.677048 Z-0.125000 I-0.669347 J-8.894782
G02 X235.160062 Y95.440024 Z-0.125000 I-0.131571 J-0.847325
G02 X235.401403 Y94.974765 Z-0.125000 I-0.597008 J-0.604907
G02 X235.476385 Y94.462554 Z-0.125000 I-3.450980 J-0.766783
G02 X235.465998 Y94.077670 Z-0.125000 I-1.941599 J-0.140182
G02 X235.394778 Y93.909988 Z-0.125000 I-0.332027 J0.042057
G02 X235.043287 Y93.552129 Z-0.125000 I-1.974863 J1.588171
G02 X234.693700 Y93.314419 Z-0.125000 I-0.657836 J0.591532
G02 X234.295528 Y93.274105 Z-0.125000 I-0.276416 J0.743605
G02 X233.774058 Y93.369057 Z-0.125000 I1.558918 J10.040874
G02 X232.473419 Y93.655475 Z-0.125000 I12.914968 J61.743920
G01 X229.678761 Y94.089550 Z-0.125000
G02 X228.111054 Y94.357628 Z-0.125000 I7.999882 J51.500750
G02 X226.546656 Y94.674543 Z-0.125000 I9.605542 J51.435907
G01 X224.188664 Y95.040911 Z-0.125000
G01 X219.472162 Y95.773700 Z-0.125000
G02 X217.104894 Y96.066103 Z-0.125000 I13.969800 J122.827090
G02 X215.005773 Y96.369012 Z-0.125000 I13.013692 J97.608009
G03 X212.896787 Y96.592082 Z-0.125000 I-41.288646 J-380.277126
G03 X211.225647 Y96.758637 Z-0.125000 I-26.304481 J-255.460633
G03 X209.811458 Y96.871074 Z-0.125000 I-4.865380 J-52.245129
G03 X209.239724 Y96.889896 Z-0.125000 I-0.571734 J-8.673704
G02 X209.066407 Y96.469117 Z-0.125000 I-0.642777 J0.018673
G02 X208.663018 Y96.277016 Z-0.125000 I-0.446455 J0.417918
G02 X208.222839 Y96.263627 Z-0.125000 I-0.388144 J5.518057
G02 X207.425367 Y96.288393 Z-0.125000 I0.173429 J18.435789
G03 X206.627217 Y96.316123 Z-0.125000 I-1.184089 J-22.581718
G03 X205.213620 Y96.328187 Z-0.125000 I-1.413597 J-82.812792
G02 X203.804517 Y96.247821 Z-0.125000 I-3.735990 J53.112126
G02 X201.511525 Y96.165918 Z-0.125000 I-6.257039 J143.035525
G03 X199.306845 Y96.078925 Z-0.125000 I2.127755 J-81.904566
G03 X195.872599 Y95.867230 Z-0.125000 I10.503048 J-198.348952
G03 X194.730790 Y95.765014 Z-0.125000 I2.105740 J-29.950640
G03 X193.325988 Y95.590238 Z-0.125000 I4.970954 J-45.688351
G03 X192.011498 Y95.398155 Z-0.125000 I69.177197 J-477.996543
G03 X190.784544 Y95.215589 Z-0.125000 I73.198390 J-496.150864
G03 X189.558949 Y95.025901 Z-0.125000 I19.982029 J-133.160525
G03 X188.595532 Y94.866260 Z-0.125000 I12.706222 J-79.667432
G02 X187.631394 Y94.713638 Z-0.125000 I-6.233123 J36.254056
G02 X187.280886 Y94.676077 Z-0.125000 I-0.682928 J4.718771
G02 X187.063858 Y94.741912 Z-0.125000 I-0.022383 J0.316850
G02 X186.818384 Y95.034720 Z-0.125000 I0.552446 J0.712442
G02 X186.666964 Y95.424889 Z-0.125000 I1.628920 J0.856631
G02 X186.592041 Y95.898742 Z-0.125000 I2.337501 J0.612441
G02 X186.591538 Y96.383375 Z-0.125000 I4.295645 J0.246776
G02 X186.635449 Y96.684236 Z-0.125000 I1.696044 J-0.093902
G02 X186.856263 Y96.995497 Z-0.125000 I0.715087 J-0.273341
G02 X187.140844 Y97.111088 Z-0.125000 I0.319032 J-0.377336
G02 X187.931403 Y97.233999 Z-0.125000 I2.010916 J-10.330206
G02 X189.247690 Y97.357044 Z-0.125000 I3.331189 J-28.533702
G03 X190.295182 Y97.765613 Z-0.125000 I-0.356571 J2.461246
G03 X190.523062 Y98.229348 Z-0.125000 I-0.296591 J0.433603
G03 X190.453209 Y98.809004 Z-0.125000 I-4.667758 J-0.268459
G03 X189.881758 Y101.705096 Z-0.125000 I-116.970985 J-21.576090
G03 X189.256235 Y104.592251 Z-0.125000 I-235.873603 J-49.592348
G03 X188.335085 Y108.637488 Z-0.125000 I-459.429289 J-102.490192
G03 X187.460470 Y112.680213 Z-0.125000 I-347.509446 J-73.065192
G03 X186.428743 Y117.208020 Z-0.125000 I-439.579159 J-97.783115
G03 X185.429195 Y121.827943 Z-0.125000 I-396.150553 J-83.291497
G03 X184.522401 Y125.778023 Z-0.125000 I-293.340248 J-65.261020
G03 X182.918253 Y125.908391 Z-0.125000 I-2.879522 J-25.497360
G03 X180.445654 Y125.980588 Z-0.125000 I-2.994044 J-60.163168
G03 X178.059538 Y125.956916 Z-0.125000 I-0.644049 J-55.352309
G03 X175.417542 Y125.822473 Z-0.125000 I2.149375 J-68.264888
G03 X172.346276 Y125.530048 Z-0.125000 I4.379371 J-62.269932
G03 X169.537288 Y125.115533 Z-0.125000 I6.307367 J-52.467312
G03 X167.121211 Y124.531122 Z-0.125000 I3.603166 J-20.182701
G03 X165.575779 Y123.899087 Z-0.125000 I2.720172 J-8.856715
G01 X166.040350 Y127.856455 Z-0.125000
G02 X167.386007 Y128.283774 Z-0.125000 I9.907009 J-28.865411
G02 X169.324899 Y128.816600 Z-0.125000 I17.454255 J-59.719866
G02 X171.499744 Y129.449629 Z-0.125000 I80.092135 J-271.113666
G02 X173.845549 Y130.112634 Z-0.125000 I88.724753 J-309.439130
G02 X176.287146 Y130.753512 Z-0.125000 I41.312337 J-152.418927
G02 X178.636464 Y131.329610 Z-0.125000 I36.189190 J-142.500771
G02 X181.079906 Y131.961687 Z-0.125000 I28.583692 J-105.458013
G02 X183.080630 Y132.424639 Z-0.125000 I17.307206 J-70.241219
G02 X182.507537 Y134.830499 Z-0.125000 I423.020717 J102.037793
G02 X181.677618 Y138.389645 Z-0.125000 I925.643731 J217.717241
G03 X180.924919 Y141.952651 Z-0.125000 I-359.576282 J-74.100903
G03 X180.113890 Y145.614518 Z-0.125000 I-381.161406 J-82.498715
G03 X179.259209 Y149.365463 Z-0.125000 I-345.189566 J-76.681185
G03 X178.473166 Y152.638888 Z-0.125000 I-264.620442 J-61.811878
G03 X177.732109 Y155.908127 Z-0.125000 I-234.402280 J-51.414731
G03 X177.302180 Y157.642192 Z-0.125000 I-66.210833 J-15.495388
G03 X176.516789 Y160.184375 Z-0.125000 I-29.612758 J-7.756261
G03 X176.143595 Y160.885919 Z-0.125000 I-2.575820 J-0.920200
G03 X175.679281 Y161.403224 Z-0.125000 I-1.545505 J-0.920162
G03 X175.312124 Y161.511719 Z-0.125000 I-0.328777 J-0.437116
G03 X174.607094 Y161.186212 Z-0.125000 I0.076862 J-1.092762
G03 X173.559262 Y159.725784 Z-0.125000 I4.193051 J-4.114554
G03 X172.762404 Y158.062955 Z-0.125000 I16.765567 J-9.056709
G03 X171.692711 Y155.291436 Z-0.125000 I45.430969 J-19.126694
G03 X170.856006 Y152.567705 Z-0.125000 I54.145413 J-18.123350
G03 X169.932612 Y149.006555 Z-0.125000 I91.414430 J-25.603732
G03 X169.092568 Y145.518166 Z-0.125000 I298.787175 J-73.796762
G03 X168.228843 Y141.747058 Z-0.125000 I353.391638 J-82.924345
G03 X167.488473 Y138.070876 Z-0.125000 I324.334884 J-67.232554
G03 X166.794309 Y134.409012 Z-0.125000 I318.942903 J-62.357418
G03 X166.239898 Y130.744882 Z-0.125000 I218.230625 J-34.893942
G03 X165.849147 Y127.789780 Z-0.125000 I143.008620 J-20.413336
G03 X165.864582 Y127.795086 Z-0.125000 I-0.558330 J1.649222
G03 X165.880153 Y127.800628 Z-0.125000 I-0.445811 J1.277309
G01 X165.411447 Y123.811219 Z-0.125000
G03 X165.347874 Y123.775740 Z-0.125000 I6.178098 J-11.144872
G03 X165.285873 Y123.740416 Z-0.125000 I2.925411 J-5.206865
G02 X164.962716 Y121.567497 Z-0.125000 I-382.905010 J55.835270
G02 X164.581008 Y119.094206 Z-0.125000 I-467.374772 J70.864744
G03 X164.192216 Y116.718444 Z-0.125000 I557.761197 J-92.496953
G03 X163.798628 Y114.246966 Z-0.125000 I572.801884 J-92.486947
G03 X163.520176 Y111.778726 Z-0.125000 I139.949963 J-17.038179
G03 X163.286515 Y109.321171 Z-0.125000 I140.531231 J-14.601402
G03 X163.150570 Y106.956991 Z-0.125000 I34.184809 J-3.151682
G03 X163.185746 Y104.912662 Z-0.125000 I25.465166 J-0.584307
G03 X163.894566 Y101.129557 Z-0.125000 I15.068272 J0.865307
G03 X165.011990 Y99.271144 Z-0.125000 I4.558101 J1.475539
G03 X166.868060 Y98.095585 Z-0.125000 I3.714911 J3.812375
G03 X168.985902 Y97.790114 Z-0.125000 I1.763493 J4.732080
G03 X171.267747 Y97.990298 Z-0.125000 I-4.645490 J66.057834
G03 X171.796581 Y98.085679 Z-0.125000 I-0.382011 J3.631747
G02 X172.410306 Y98.284782 Z-0.125000 I1.925592 J-4.890110
G02 X172.841477 Y98.354919 Z-0.125000 I0.599772 J-2.326737
G02 X173.409226 Y98.249417 Z-0.125000 I0.080594 J-1.146683
G02 X173.568046 Y98.014903 Z-0.125000 I-0.117145 J-0.250370
G02 X173.526799 Y97.836638 Z-0.125000 I-0.325125 J-0.018677
G02 X173.167036 Y97.301773 Z-0.125000 I-3.516669 J1.976968
G02 X172.818281 Y96.905337 Z-0.125000 I-4.178463 J3.324283
G02 X172.249264 Y96.357106 Z-0.125000 I-8.578938 J8.334790
G02 X171.480166 Y95.637175 Z-0.125000 I-16.253431 J16.592666
G02 X170.231818 Y94.552570 Z-0.125000 I-38.321406 J42.846083
G02 X168.926890 Y93.691322 Z-0.125000 I-2.814222 J2.844783
G02 X167.037188 Y93.251880 Z-0.125000 I-2.321606 J5.700645
G02 X166.772922 Y93.243312 Z-0.125000 I-0.265420 J4.106791
G02 X165.623322 Y93.251880 Z-0.125000 I-0.020855 J74.330023
G02 X164.561710 Y93.284666 Z-0.125000 I1.251356 J57.722229
G02 X162.965605 Y93.358348 Z-0.125000 I5.282445 J131.753375
G03 X161.375726 Y93.341833 Z-0.125000 I4.207016 J-481.526174
G03 X159.609742 Y93.318026 Z-0.125000 I7.374182 J-612.522951
G03 X157.844826 Y93.268405 Z-0.125000 I1.018414 J-67.634679
G03 X156.259563 Y93.180046 Z-0.125000 I2.249667 J-54.626600
G03 X154.062382 Y92.995931 Z-0.125000 I5.774869 J-82.118367
G03 X152.656686 Y92.829182 Z-0.125000 I3.251858 J-33.421589
G03 X151.344094 Y92.626793 Z-0.125000 I10.271245 J-70.971644
G03 X150.555527 Y92.485515 Z-0.125000 I4.304902 J-26.299978
G03 X149.776311 Y92.309399 Z-0.125000 I2.542446 J-13.060779
G03 X149.510630 Y92.216302 Z-0.125000 I0.415191 J-1.610518
G02 X149.160930 Y92.109918 Z-0.125000 I-1.390030 J3.941292
G02 X148.988182 Y92.081920 Z-0.125000 I-0.239958 J0.933618
G02 X148.860632 Y92.139061 Z-0.125000 I-0.010334 J0.147861
G02 X148.701377 Y92.452972 Z-0.125000 I0.740187 J0.572870
G02 X148.555849 Y92.749110 Z-0.125000 I0.930344 J0.641015
G02 X148.486403 Y93.122684 Z-0.125000 I1.435035 J0.460009
G02 X148.598102 Y93.604859 Z-0.125000 I0.878468 J0.050524
G02 X148.887413 Y93.835312 Z-0.125000 I0.428659 J-0.241313
G03 X149.718934 Y94.328763 Z-0.125000 I-4.412849 J8.383483
G03 X151.355994 Y95.476044 Z-0.125000 I-22.451166 J33.777250
G03 X152.785419 Y96.971305 Z-0.125000 I-4.043618 J5.296455
G03 X154.212662 Y99.588961 Z-0.125000 I-11.373080 J7.898946
G03 X155.358965 Y102.549098 Z-0.125000 I-43.730370 J18.636454
G03 X156.944791 Y107.409664 Z-0.125000 I-116.626866 J40.740089
G03 X157.885499 Y110.738820 Z-0.125000 I-51.662774 J16.395653
G03 X159.169976 Y116.368287 Z-0.125000 I-146.411515 J36.368043
G03 X160.284628 Y122.037437 Z-0.125000 I-255.872123 J53.252989
G03 X161.463374 Y128.754582 Z-0.125000 I-357.735939 J66.238620
G03 X162.507693 Y135.493728 Z-0.125000 I-317.306581 J52.621296
G03 X163.485471 Y142.784202 Z-0.125000 I-370.810898 J53.442918
G03 X164.300680 Y150.191010 Z-0.125000 I-320.839161 J39.060538
G03 X164.880733 Y156.965749 Z-0.125000 I-266.803625 J26.255915
G01 X172.362953 Y162.087912 Z-0.125000
G02 X170.953813 Y162.005543 Z-0.125000 I-4.185544 J59.510291
G02 X168.220575 Y161.894642 Z-0.125000 I-10.603274 J227.588312
G02 X165.574132 Y161.825933 Z-0.125000 I-5.962259 J178.646425
G02 X162.570799 Y161.790256 Z-0.125000 I-4.174913 J225.018561
G02 X159.567294 Y161.800779 Z-0.125000 I-0.898562 J172.171940
G02 X156.645587 Y161.862601 Z-0.125000 I2.000359 J163.607581
G02 X153.818172 Y162.019890 Z-0.125000 I2.103680 J63.307075
G02 X152.029852 Y162.222786 Z-0.125000 I1.999397 J25.605167
G02 X151.727995 Y162.457154 Z-0.125000 I0.367369 J0.784732
G02 X151.269695 Y163.147276 Z-0.125000 I3.141064 J2.583173
G02 X151.190540 Y163.469666 Z-0.125000 I1.414149 J0.518121
G03 X151.131717 Y163.775661 Z-0.125000 I-2.593938 J-0.339993
G01 X150.245986 Y163.375688 Z-0.125000
G03 X150.268584 Y163.338953 Z-0.125000 I0.075002 J0.020820
G02 X150.290425 Y163.299723 Z-0.125000 I-0.047449 J-0.052113
G02 X150.258546 Y162.500183 Z-0.125000 I-1.770842 J-0.329798
G02 X149.917324 Y161.918931 Z-0.125000 I-1.233071 J0.333087
G02 X149.344665 Y161.455256 Z-0.125000 I-2.790655 J2.861113
G02 X148.555650 Y161.010459 Z-0.125000 I-3.355053 J5.029240
G02 X147.803083 Y160.667449 Z-0.125000 I-5.506641 J11.084565
G02 X146.967636 Y160.349520 Z-0.125000 I-5.609277 J13.483262
G03 X146.144639 Y160.072328 Z-0.125000 I0.961843 J-4.216124
G03 X145.639038 Y159.747487 Z-0.125000 I0.854665 J-1.886145
G03 X143.260948 Y150.421724 Z-0.125000 I1521.199863 J-392.875376
G03 X140.980930 Y141.245282 Z-0.125000 I1485.920778 J-374.069691
G02 X138.787480 Y132.179213 Z-0.125000 I-4016.526850 J966.962519
G02 X136.748633 Y123.836539 Z-0.125000 I-3531.415717 J858.613781
G02 X134.648588 Y115.600740 Z-0.125000 I-1009.993529 J253.152538
G02 X132.765421 Y108.477812 Z-0.125000 I-756.070533 J196.080262
G02 X130.852808 Y101.497727 Z-0.125000 I-377.672315 J99.733891
G02 X129.285017 Y96.223782 Z-0.125000 I-216.182546 J61.394819
G02 X127.625876 Y91.028253 Z-0.125000 I-119.167894 J35.192401
G02 X126.423179 Y87.897169 Z-0.125000 I-44.453125 J15.278604
G02 X124.878927 Y85.080865 Z-0.125000 I-14.930924 J6.355479
G02 X124.157687 Y84.590411 Z-0.125000 I-0.987429 J0.676530
G02 X123.709672 Y84.834954 Z-0.125000 I0.714487 J1.841642
G02 X123.115891 Y85.349023 Z-0.125000 I2.742208 J3.767372
G02 X122.621269 Y85.862616 Z-0.125000 I2.895889 J3.283895
G02 X121.949040 Y86.777348 Z-0.125000 I8.570729 J7.002929
G02 X120.134236 Y89.466792 Z-0.125000 I110.345154 J76.416595
G02 X117.676954 Y93.276698 Z-0.125000 I218.107413 J143.370579
G02 X115.269277 Y97.119053 Z-0.125000 I436.376976 J276.115796
G02 X112.530505 Y101.570238 Z-0.125000 I587.027281 J364.260548
G03 X109.795378 Y106.023603 Z-0.125000 I-751.158273 J-458.272864
G03 X106.860573 Y110.740712 Z-0.125000 I-840.226928 J-519.485592
G03 X103.887250 Y115.540651 Z-0.125000 I-1555.628816 J-960.313726
G03 X100.946730 Y120.254350 Z-0.125000 I-1464.819329 J-910.515712
G01 X98.242507 Y124.619970 Z-0.125000
G02 X96.037130 Y128.306525 Z-0.125000 I624.534961 J376.113162
G02 X93.914093 Y131.904258 Z-0.125000 I588.130719 J349.483691
G03 X91.787761 Y135.499689 Z-0.125000 I-449.094255 J-263.167148
G03 X89.987724 Y138.482662 Z-0.125000 I-307.797876 J-183.702120
G03 X88.197099 Y141.545076 Z-0.125000 I-104.917064 J-59.291353
G03 X86.863887 Y143.649783 Z-0.125000 I-51.185941 J-30.948768
G03 X85.487934 Y145.673923 Z-0.125000 I-23.061824 J-14.197041
G03 X84.825770 Y146.374160 Z-0.125000 I-3.355903 J-2.510238
G02 X82.660709 Y145.912230 Z-0.125000 I-17.509015 J76.759831
G02 X81.439417 Y145.701333 Z-0.125000 I-4.802870 J24.171481
G02 X80.210630 Y145.537074 Z-0.125000 I-6.951819 J47.326763
G02 X79.589921 Y145.478610 Z-0.125000 I-1.433672 J11.896940
G02 X78.967317 Y145.579202 Z-0.125000 I0.339062 J4.075643
G02 X78.741396 Y145.683765 Z-0.125000 I0.150212 J0.620902
G02 X78.554344 Y145.950450 Z-0.125000 I0.934566 J0.854440
G02 X78.461827 Y146.217582 Z-0.125000 I0.841850 J0.441150
G01 X78.461033 Y146.223522 Z-0.125000
G01 X78.460239 Y146.229462 Z-0.125000
G01 X71.028661 Y143.718506 Z-0.125000
G02 X70.718289 Y142.737212 Z-0.125000 I-1.505305 J-0.063620
G02 X69.540898 Y141.782711 Z-0.125000 I-2.584965 J1.985178
G03 X68.879861 Y141.516252 Z-0.125000 I4.121366 J-11.177569
G03 X68.062437 Y141.134689 Z-0.125000 I7.660063 J-17.476532
G01 X66.444967 Y140.332153 Z-0.125000
G03 X65.733982 Y139.938381 Z-0.125000 I5.482538 J-10.737885
G03 X65.106031 Y139.530138 Z-0.125000 I5.206283 J-8.695275
G01 X64.185677 Y138.882116 Z-0.125000
G03 X64.021656 Y138.475135 Z-0.125000 I0.355607 J-0.379858
G03 X64.380495 Y135.147458 Z-0.125000 I30.253075 J1.579137
G03 X65.028184 Y131.882762 Z-0.125000 I154.321173 J28.919470
G03 X66.080649 Y127.029628 Z-0.125000 I341.906709 J71.606254
G03 X67.260629 Y122.216854 Z-0.125000 I1246.213434 J302.991507
G03 X68.644829 Y116.658688 Z-0.125000 I1627.776578 J402.428221
G03 X70.074546 Y111.112186 Z-0.125000 I427.661832 J107.280511
G03 X71.349055 Y106.441761 Z-0.125000 I306.684004 J81.181682
G03 X72.330895 Y102.893957 Z-0.125000 I1012.189891 J278.209600
G03 X73.662606 Y98.138908 Z-0.125000 I1795.547772 J500.301504
G03 X75.078471 Y93.515729 Z-0.125000 I485.750799 J146.234460
G03 X76.450546 Y89.187536 Z-0.125000 I430.271841 J134.018403
G03 X77.936784 Y85.003079 Z-0.125000 I239.339719 J82.652683
G03 X79.098958 Y81.933728 Z-0.125000 I129.482514 J47.272342
G03 X80.460467 Y79.035089 Z-0.125000 I22.856604 J8.966819
G03 X80.939154 Y78.600087 Z-0.125000 I0.876852 J0.484029
G03 X81.366789 Y78.509085 Z-0.125000 I0.526789 J1.425196
G03 X82.361288 Y78.507060 Z-0.125000 I0.513229 J7.847977
G02 X83.338344 Y78.655704 Z-0.125000 I13.663602 J-86.526759
G02 X84.676389 Y78.846070 Z-0.125000 I24.384841 J-166.599000
G03 X85.981291 Y79.147208 Z-0.125000 I-7.636399 J36.068088
G03 X87.270025 Y79.494087 Z-0.125000 I-9.009580 J36.040079
G03 X88.629997 Y79.915643 Z-0.125000 I-13.212148 J45.027872
G03 X89.724654 Y80.296091 Z-0.125000 I-9.603665 J29.397515
G02 X90.647500 Y80.557091 Z-0.125000 I2.142433 J-5.813221
G02 X90.951967 Y80.542603 Z-0.125000 I0.123345 J-0.614326
G02 X91.179031 Y80.370330 Z-0.125000 I-0.118258 J-0.391646
G02 X91.481649 Y79.709061 Z-0.125000 I-2.251079 J-1.430046
G02 X91.514569 Y78.924715 Z-0.125000 I-1.516371 J-0.456507
G02 X91.174693 Y78.258511 Z-0.125000 I-1.406070 J0.297532
G02 X90.642672 Y77.752688 Z-0.125000 I-2.187795 J1.768411
G02 X90.031094 Y77.425471 Z-0.125000 I-1.483593 J2.037740
G02 X89.524075 Y77.255808 Z-0.125000 I-3.050127 J8.272555
G02 X88.496822 Y76.962980 Z-0.125000 I-10.341255 J34.329291
G02 X87.463778 Y76.689531 Z-0.125000 I-34.443331 J128.033166
G02 X85.652039 Y76.222438 Z-0.125000 I-97.521384 J374.514555
G03 X83.870198 Y75.657568 Z-0.125000 I51.332797 J-165.018182
G03 X81.161880 Y74.772418 Z-0.125000 I125.747839 J-389.339917
G03 X78.465825 Y73.850672 Z-0.125000 I44.505398 J-134.579709
G03 X74.523533 Y72.427842 Z-0.125000 I101.343999 J-286.970667
G01 X74.021756 Y72.242845 Z-0.125000
G01 X70.674678 Y71.008830 Z-0.125000
G02 X68.853197 Y70.259445 Z-0.125000 I-32.211199 J75.705261
G02 X67.104874 Y69.589792 Z-0.125000 I-27.552969 J69.317937
G03 X65.376517 Y68.846953 Z-0.125000 I277.237915 J-647.428783
G03 X63.813607 Y68.170225 Z-0.125000 I248.026658 J-574.963263
G02 X62.361671 Y67.432827 Z-0.125000 I-173.664749 J340.147583
G02 X61.554314 Y67.028708 Z-0.125000 I-54.873112 J108.618050
G01 X60.271192 Y66.349682 Z-0.125000
G02 X59.890898 Y66.349749 Z-0.125000 I-0.190056 J0.515440
G02 X59.434552 Y66.658715 Z-0.125000 I0.398916 J1.080701
G02 X59.031756 Y67.049198 Z-0.125000 I1.105297 J1.543139
G02 X58.821153 Y67.461248 Z-0.125000 I1.026229 J0.784362
G02 X58.791163 Y67.826149 Z-0.125000 I0.839142 J0.252651
G02 X58.932773 Y68.325270 Z-0.125000 I1.744551 J-0.225314
G02 X59.229855 Y68.813304 Z-0.125000 I1.213217 J-0.404085
G02 X59.714121 Y69.127804 Z-0.125000 I0.936524 J-0.911974
G03 X63.161543 Y70.558535 Z-0.125000 I-16.091207 J43.641328
G03 X65.180445 Y71.657879 Z-0.125000 I-7.420381 J16.030742
G03 X66.919217 Y73.042163 Z-0.125000 I-5.476931 J8.663624
G03 X67.328632 Y73.787455 Z-0.125000 I-1.055746 J1.065057
G03 X67.353786 Y75.081487 Z-0.125000 I-5.895766 J0.761867
G03 X66.854761 Y79.065171 Z-0.125000 I-57.168415 J-5.138230
G03 X66.191747 Y83.156480 Z-0.125000 I-107.554521 J-15.330290
G03 X65.155125 Y88.417546 Z-0.125000 I-178.115670 J-32.362637
G03 X63.961977 Y93.745628 Z-0.125000 I-281.664536 J-60.277102
G03 X62.563037 Y99.498521 Z-0.125000 I-328.957824 J-76.946667
G03 X61.054180 Y105.223368 Z-0.125000 I-276.054524 J-69.696425
G03 X59.663477 Y110.054960 Z-0.125000 I-199.349295 J-54.763849
G03 X59.590010 Y110.290395 Z-0.125000 I-11.739584 J-3.534143
G02 X59.517750 Y110.521605 Z-0.125000 I11.979068 J3.870699
G01 X49.018144 Y106.497059 Z-0.125000
G02 X48.948323 Y106.331257 Z-0.125000 I-0.538706 J0.129253
G02 X48.829526 Y106.196281 Z-0.125000 I-0.477411 J0.300421
G02 X50.267705 Y90.294716 Z-0.125000 I-35.770775 J-11.251022
G02 X44.632371 Y76.104117 Z-0.125000 I-30.184681 J3.772618
G02 X38.169107 Y70.221542 Z-0.125000 I-17.688570 J12.942745
G02 X31.247160 Y68.122706 Z-0.125000 I-7.689124 J12.894991
G02 X23.565043 Y69.845919 Z-0.125000 I-0.748293 J14.649209
G02 X16.367983 Y76.104117 Z-0.125000 I10.176083 J18.970196
G03 X9.964420 Y79.771467 Z-0.125000 I-7.342479 J-5.396401
G03 X3.414785 Y77.446135 Z-0.125000 I-0.832928 J-8.040604
G03 X11.427179 Y34.709682 Z-0.125000 I223.570356 J19.796506
G03 X24.979333 Y3.110716 Z-0.125000 I134.784546 J39.100743
G00 Z5.000000

(End cutting path id: path36055)


(Footer)
M5
G00 X0.0000 Y0.0000
M2
(Using default footer. To add your own footer create file "footer" in the output dir.)
(end)
%