%
(Header)
(Generated by gcodetools from Inkscape.)
(Using default header. To add your own header create file "header" in the output dir.)
M3
(Header end.)
G21 (All units in mm)

(Start cutting path id: path16377)
(Change tool to Default tool)

G00 Z5.000000
G00 X24.471861 Y4.451960

G01 Z-0.125000 F100.0(Penetrate)
G03 X24.899845 Y4.375469 Z-0.125000 I0.427756 J1.157817 F400.000000
G03 X25.328138 Y4.451960 Z-0.125000 I-0.000229 J1.238594
G01 X25.367929 Y4.466512 Z-0.125000
G01 X26.688260 Y5.165170 Z-0.125000
G03 X27.494473 Y5.568746 Z-0.125000 I-55.548284 J111.974420
G03 X28.924296 Y6.294807 Z-0.125000 I-168.384244 J333.367748
G02 X30.476557 Y6.966761 Z-0.125000 I237.904930 J-547.448761
G02 X32.192311 Y7.704029 Z-0.125000 I292.097676 J-677.397772
G03 X33.927315 Y8.369124 Z-0.125000 I-25.972351 J70.348556
G03 X35.731625 Y9.111161 Z-0.125000 I-30.744120 J77.320868
G01 X35.736281 Y9.113807 Z-0.125000
G01 X39.078708 Y10.346288 Z-0.125000
G01 X39.580484 Y10.531284 Z-0.125000
G02 X43.516817 Y11.951816 Z-0.125000 I104.619564 J-283.739529
G02 X46.198679 Y12.868611 Z-0.125000 I47.102000 J-133.404629
G02 X48.897591 Y13.750430 Z-0.125000 I124.610506 J-376.813780
G02 X50.669200 Y14.311937 Z-0.125000 I53.968552 J-167.200543
G03 X52.466144 Y14.775301 Z-0.125000 I-96.019362 J376.082737
G03 X53.499513 Y15.048854 Z-0.125000 I-33.440155 J128.411822
G03 X54.531297 Y15.342753 Z-0.125000 I-9.482929 J35.249546
G03 X55.088046 Y15.528913 Z-0.125000 I-2.773327 J9.219789
G03 X55.848817 Y15.936351 Z-0.125000 I-1.082238 J2.934744
G03 X56.492609 Y16.545918 Z-0.125000 I-2.045872 J2.805490
G03 X56.972945 Y17.501682 Z-0.125000 I-1.554382 J1.379766
G03 X56.925657 Y18.588155 Z-0.125000 I-2.160571 J0.450227
G03 X56.780978 Y18.994525 Z-0.125000 I-4.160896 J-1.252450
G03 X56.609914 Y19.324039 Z-0.125000 I-1.971173 J-0.814154
G03 X56.372025 Y19.613132 Z-0.125000 I-1.294057 J-0.822430
G03 X55.973261 Y19.844924 Z-0.125000 I-0.687039 J-0.723047
G03 X55.563072 Y19.891941 Z-0.125000 I-0.334802 J-1.108102
G03 X55.205351 Y19.844924 Z-0.125000 I0.179454 J-2.749691
G03 X54.832719 Y19.751103 Z-0.125000 I0.781090 J-3.889199
G03 X54.344422 Y19.587061 Z-0.125000 I2.583784 J-8.499825
G02 X53.274174 Y19.215095 Z-0.125000 I-10.452840 J28.350005
G02 X51.930102 Y18.798472 Z-0.125000 I-14.410376 J44.113013
G02 X50.670466 Y18.459711 Z-0.125000 I-9.994647 J34.652532
G02 X49.395379 Y18.165457 Z-0.125000 I-8.887230 J35.601063
G03 X48.106791 Y17.981742 Z-0.125000 I21.607327 J-156.166570
G03 X47.150040 Y17.836263 Z-0.125000 I13.628819 J-92.848971
G02 X46.232315 Y17.849011 Z-0.125000 I-0.371379 J6.304195
G02 X46.034862 Y17.885872 Z-0.125000 I0.088860 J1.023264
G01 X46.043062 Y17.907411 Z-0.125000
G02 X45.550657 Y18.575243 Z-0.125000 I2.289105 J2.203246
G02 X45.155511 Y19.365723 Z-0.125000 I9.479842 J5.232791
G02 X44.525914 Y20.861928 Z-0.125000 I30.303381 J13.632121
G02 X43.370720 Y23.913452 Z-0.125000 I126.835979 J49.759810
G02 X41.888868 Y28.086262 Z-0.125000 I239.437470 J87.378791
G01 X41.887781 Y28.089318 Z-0.125000
G01 X41.886751 Y28.092082 Z-0.125000
G02 X40.520116 Y32.403179 Z-0.125000 I429.421565 J138.500571
G02 X39.109664 Y37.008318 Z-0.125000 I482.497366 J150.296753
G01 X39.107018 Y37.015991 Z-0.125000
G01 X39.106489 Y37.018637 Z-0.125000
G02 X37.777126 Y41.765522 Z-0.125000 I1775.714275 J499.847688
G02 X36.797071 Y45.307018 Z-0.125000 I1016.948057 J283.331158
G01 X36.796542 Y45.309664 Z-0.125000
G01 X36.795484 Y45.312839 Z-0.125000
G02 X35.523736 Y49.973322 Z-0.125000 I304.323175 J85.547160
G02 X34.095912 Y55.512699 Z-0.125000 I426.406440 J112.863785
G02 X32.713940 Y61.062617 Z-0.125000 I1598.109772 J400.888357
G02 X31.535865 Y65.868135 Z-0.125000 I1264.476857 J312.534465
G01 X31.534806 Y65.870780 Z-0.125000
G03 X31.533808 Y65.874999 Z-0.125000 I-0.060744 J-0.012149
G01 X31.532690 Y65.878453 Z-0.125000
G02 X30.485070 Y70.711094 Z-0.125000 I337.087476 J75.603702
G02 X29.841838 Y73.953924 Z-0.125000 I153.998774 J32.231664
G02 X29.598963 Y75.641337 Z-0.125000 I42.886619 J7.033995
G02 X29.522478 Y76.510854 Z-0.125000 I12.168914 J1.508529
G02 X29.514631 Y76.954856 Z-0.125000 I6.429423 J0.335703
G02 X29.527637 Y77.144927 Z-0.125000 I1.850168 J-0.031127
G01 X29.531582 Y77.157883 Z-0.125000
G03 X29.535390 Y77.167681 Z-0.125000 I-0.045819 J0.023446
G01 X30.307951 Y77.711823 Z-0.125000
G02 X30.895076 Y78.093665 Z-0.125000 I5.479603 J-7.783200
G02 X31.570406 Y78.467842 Z-0.125000 I5.859270 J-9.778518
G01 X33.181158 Y79.267280 Z-0.125000
G02 X33.975126 Y79.637807 Z-0.125000 I8.208879 J-16.554111
G02 X34.597090 Y79.888442 Z-0.125000 I4.506705 J-10.286618
G01 X34.624996 Y79.898760 Z-0.125000
G01 X34.651867 Y79.911196 Z-0.125000
G03 X35.456723 Y80.394746 Z-0.125000 I-2.149380 J4.489189
G03 X36.021806 Y80.948864 Z-0.125000 I-1.681579 J2.280047
G03 X36.285500 Y81.422663 Z-0.125000 I-1.466396 J1.126407
G03 X36.430050 Y81.940521 Z-0.125000 I-2.845642 J1.073405
G01 X42.974346 Y84.152276 Z-0.125000
G02 X43.040471 Y84.051612 Z-0.125000 I-1.451737 J-1.025675
G03 X43.112321 Y83.955903 Z-0.125000 I0.529563 J0.322725
G01 X43.155212 Y83.908886 Z-0.125000
G01 X43.206372 Y83.872189 Z-0.125000
G03 X43.743981 Y83.636272 Z-0.125000 I0.806329 J1.106954
G03 X44.375292 Y83.547148 Z-0.125000 I1.093097 J5.462517
G01 X44.422835 Y83.543444 Z-0.125000
G01 X44.470375 Y83.546619 Z-0.125000
G03 X45.135817 Y83.609443 Z-0.125000 I-0.865463 J12.722826
G03 X46.368967 Y83.774531 Z-0.125000 I-5.860374 J48.463072
G03 X47.529433 Y83.977519 Z-0.125000 I-3.133766 J21.334154
G03 X49.435958 Y84.383786 Z-0.125000 I-20.507223 J100.912478
G02 X49.971343 Y83.766482 Z-0.125000 I-4.129487 J-4.122303
G02 X51.162984 Y82.017515 Z-0.125000 I-18.286688 J-13.739886
G01 X51.168672 Y82.008783 Z-0.125000
G01 X51.174361 Y82.000052 Z-0.125000
G02 X52.491079 Y79.921275 Z-0.125000 I-49.203042 J-32.622112
G02 X54.274424 Y76.871190 Z-0.125000 I-102.858883 J-62.186625
G01 X54.280113 Y76.861929 Z-0.125000
G01 X54.285272 Y76.853198 Z-0.125000
G02 X56.081896 Y73.875790 Z-0.125000 I-304.607216 J-185.836492
G02 X58.205958 Y70.284104 Z-0.125000 I-448.206051 J-267.485381
G03 X60.331115 Y66.683148 Z-0.125000 I582.263579 J341.203693
G03 X62.538505 Y62.993599 Z-0.125000 I636.964344 J378.579072
G01 X62.540621 Y62.990424 Z-0.125000
G01 X65.247430 Y58.620147 Z-0.125000
G01 X65.248488 Y58.620147 Z-0.125000
G02 X68.187937 Y53.908039 Z-0.125000 I-1453.587268 J-910.031598
G02 X71.160262 Y49.109631 Z-0.125000 I-1565.486444 J-973.044504
G01 X71.161320 Y49.106986 Z-0.125000
G01 X71.162908 Y49.104340 Z-0.125000
G02 X74.095738 Y44.390151 Z-0.125000 I-829.005115 J-519.016944
G02 X76.828704 Y39.940057 Z-0.125000 I-754.415788 J-466.378673
G03 X79.569628 Y35.485112 Z-0.125000 I594.017636 J362.401258
G03 X81.980323 Y31.637733 Z-0.125000 I436.774899 J270.995928
G03 X84.436774 Y27.828899 Z-0.125000 I221.099756 J139.898487
G03 X86.258609 Y25.128594 Z-0.125000 I112.857302 J74.177531
G01 X86.260196 Y25.125419 Z-0.125000
G03 X86.948006 Y24.187286 Z-0.125000 I9.708671 J6.396892
G03 X87.521617 Y23.587530 Z-0.125000 I4.007172 J3.258304
G03 X88.161598 Y23.031867 Z-0.125000 I3.835346 J3.770950
G03 X88.767017 Y22.698716 Z-0.125000 I1.547135 J2.094864
G01 X88.947883 Y22.628417 Z-0.125000
G01 X89.136502 Y22.671306 Z-0.125000
G03 X89.883592 Y23.072186 Z-0.125000 I-0.355729 J1.559534
G03 X90.559151 Y23.865554 Z-0.125000 I-3.436645 J3.610636
G03 X91.120382 Y24.806383 Z-0.125000 I-7.197593 J4.931374
G03 X91.843310 Y26.347052 Z-0.125000 I-20.844401 J10.720765
G03 X93.064932 Y29.527718 Z-0.125000 I-43.890734 J18.682362
G03 X94.727368 Y34.733619 Z-0.125000 I-118.102670 J40.582933
G01 X94.730014 Y34.742350 Z-0.125000
G03 X96.301626 Y40.030089 Z-0.125000 I-215.100092 J66.809078
G03 X98.215067 Y47.013949 Z-0.125000 I-377.003423 J107.045613
G03 X100.099538 Y54.141740 Z-0.125000 I-755.551456 J203.568411
G03 X102.200348 Y62.380428 Z-0.125000 I-1007.123773 J261.197035
G01 X102.201407 Y62.380428 Z-0.125000
G01 X102.201936 Y62.383073 Z-0.125000
G03 X104.240827 Y70.726182 Z-0.125000 I-3508.648577 J861.865197
G03 X106.434229 Y79.792345 Z-0.125000 I-4038.039115 J981.732575
G01 X106.434759 Y79.795520 Z-0.125000
G02 X108.685272 Y88.851623 Z-0.125000 I1449.290107 J-355.352456
G02 X111.031370 Y98.053283 Z-0.125000 I1563.383006 J-393.707364
G02 X111.350930 Y98.232405 Z-0.125000 I1.114857 J-1.614337
G02 X111.947075 Y98.430525 Z-0.125000 I1.321048 J-2.979071
G01 X111.980667 Y98.438198 Z-0.125000
G01 X112.013221 Y98.449046 Z-0.125000
G03 X112.879529 Y98.778815 Z-0.125000 I-4.933653 J14.263581
G03 X113.668931 Y99.138417 Z-0.125000 I-5.049740 J12.131484
G03 X114.528572 Y99.622578 Z-0.125000 I-2.850614 J6.066581
G03 X115.198036 Y100.163676 Z-0.125000 I-2.560916 J3.853135
G03 X115.545890 Y100.673841 Z-0.125000 I-1.088395 J1.115794
G03 X115.721000 Y101.274713 Z-0.125000 I-2.502530 J1.055254
G03 X116.112197 Y100.721392 Z-0.125000 I3.379549 J1.974384
G03 X116.600532 Y100.347641 Z-0.125000 I1.098049 J0.928788
G01 X116.684249 Y100.308377 Z-0.125000
G01 X116.775715 Y100.294883 Z-0.125000
G03 X118.617234 Y100.086085 Z-0.125000 I3.892406 J26.104356
G03 X121.462763 Y99.927986 Z-0.125000 I4.970049 J63.766391
G01 X121.464351 Y99.927986 Z-0.125000
G01 X121.465409 Y99.927986 Z-0.125000
G03 X124.398509 Y99.865807 Z-0.125000 I4.962994 J164.903506
G03 X127.412843 Y99.855120 Z-0.125000 I2.117250 J172.064880
G03 X130.424242 Y99.890939 Z-0.125000 I-1.145641 J222.919059
G03 X133.080706 Y99.960027 Z-0.125000 I-3.369964 J180.683540
G01 X133.081235 Y99.960027 Z-0.125000
G03 X134.165264 Y100.008016 Z-0.125000 I-1.934527 J55.966177
G02 X135.008246 Y100.049932 Z-0.125000 I5.356121 J-99.221156
G01 X129.110940 Y96.012977 Z-0.125000
G01 X129.088715 Y95.709130 Z-0.125000
G02 X128.510168 Y88.951103 Z-0.125000 I-266.943228 J19.448925
G02 X127.696553 Y81.558066 Z-0.125000 I-320.755179 J31.558297
G02 X126.720571 Y74.280121 Z-0.125000 I-371.835325 J46.159193
G02 X125.678592 Y67.555328 Z-0.125000 I-317.166708 J45.700564
G02 X124.501643 Y60.849007 Z-0.125000 I-357.765583 J59.330855
G02 X123.389846 Y55.194856 Z-0.125000 I-256.623823 J47.524545
G02 X122.107961 Y49.578879 Z-0.125000 I-146.719154 J30.535361
G02 X121.180681 Y46.298252 Z-0.125000 I-51.971684 J12.918600
G01 X121.179623 Y46.295077 Z-0.125000
G01 X121.178564 Y46.291372 Z-0.125000
G02 X119.597436 Y41.446365 Z-0.125000 I-117.441083 J35.645419
G02 X118.469689 Y38.534751 Z-0.125000 I-44.233013 J15.458435
G01 X118.467044 Y38.531576 Z-0.125000
G01 X118.465985 Y38.528401 Z-0.125000
G02 X117.089257 Y36.012178 Z-0.125000 I-12.149784 J5.012898
G02 X115.812406 Y34.679565 Z-0.125000 I-4.929262 J3.444984
G02 X114.221997 Y33.565086 Z-0.125000 I-23.521491 J31.874125
G02 X113.466814 Y33.113233 Z-0.125000 I-5.128296 J7.713952
G03 X113.121156 Y32.914784 Z-0.125000 I0.446083 J-1.177244
G03 X112.856516 Y32.601635 Z-0.125000 I0.686150 J-0.848258
G03 X112.712922 Y32.189189 Z-0.125000 I1.076496 J-0.606005
G03 X112.692702 Y31.784656 Z-0.125000 I1.866117 J-0.296046
G03 X112.788173 Y31.263753 Z-0.125000 I2.140975 J0.123195
G03 X113.018264 Y30.792470 Z-0.125000 I1.683477 J0.530101
G02 X113.074810 Y30.643669 Z-0.125000 I-14.809700 J-5.713014
G03 X113.166057 Y30.479812 Z-0.125000 I0.587862 J0.220028
G03 X113.422083 Y30.254345 Z-0.125000 I0.712914 J0.551445
G03 X113.870406 Y30.149083 Z-0.125000 I0.393706 J0.669475
G03 X114.193512 Y30.204002 Z-0.125000 I-0.117336 J1.668258
G03 X114.558737 Y30.318072 Z-0.125000 I-1.391269 J5.096222
G01 X114.583529 Y30.326803 Z-0.125000
G01 X114.607288 Y30.337651 Z-0.125000
G02 X114.689706 Y30.367521 Z-0.125000 I0.241562 J-0.537898
G02 X115.514207 Y30.562970 Z-0.125000 I2.822125 J-10.068293
G02 X116.278647 Y30.699881 Z-0.125000 I4.952741 J-25.450925
G02 X117.582297 Y30.900922 Z-0.125000 I11.534989 J-70.471398
G01 X117.585392 Y30.900922 Z-0.125000
G02 X118.958223 Y31.063678 Z-0.125000 I4.551074 J-32.516602
G02 X121.142277 Y31.246653 Z-0.125000 I7.935261 J-81.591989
G02 X122.708207 Y31.333955 Z-0.125000 I3.790751 J-53.906585
G02 X124.457314 Y31.383072 Z-0.125000 I2.747961 J-66.689887
G02 X126.216279 Y31.406806 Z-0.125000 I9.375305 J-629.611201
G02 X127.799743 Y31.423368 Z-0.125000 I5.849373 J-483.561840
G03 X129.381642 Y31.350446 Z-0.125000 I6.924893 J133.027483
G03 X130.447640 Y31.317429 Z-0.125000 I2.335596 J58.182502
G01 X130.449756 Y31.317429 Z-0.125000
G01 X130.451873 Y31.317429 Z-0.125000
G03 X131.559598 Y31.307899 Z-0.125000 I1.286500 J85.158090
G03 X131.916380 Y31.320075 Z-0.125000 I0.010349 J4.930302
G01 X131.919025 Y31.320075 Z-0.125000
G01 X131.920613 Y31.320075 Z-0.125000
G03 X133.991175 Y31.798740 Z-0.125000 I-0.476483 J6.778766
G03 X135.515738 Y32.802163 Z-0.125000 I-1.739690 J4.303112
G03 X136.738545 Y33.864301 Z-0.125000 I-39.024448 J46.162622
G03 X137.519229 Y34.593760 Z-0.125000 I-15.536932 J17.410458
G03 X138.105389 Y35.158064 Z-0.125000 I-8.565353 J9.483693
G03 X138.501080 Y35.607140 Z-0.125000 I-4.265386 J4.157196
G03 X138.714173 Y35.891487 Z-0.125000 I-4.800530 J3.819581
G03 X138.863848 Y36.128553 Z-0.125000 I-2.247477 J1.584754
G03 X138.974182 Y36.358439 Z-0.125000 I-1.723063 J0.968410
G03 X139.038515 Y36.750218 Z-0.125000 I-0.843095 J0.339613
G03 X138.870311 Y37.239042 Z-0.125000 I-0.953509 J-0.054750
G03 X138.482478 Y37.566721 Z-0.125000 I-0.800484 J-0.554080
G03 X138.054869 Y37.681520 Z-0.125000 I-0.537911 J-1.149841
G03 X137.636018 Y37.685042 Z-0.125000 I-0.231786 J-2.657499
G03 X137.101293 Y37.597311 Z-0.125000 I0.205642 J-2.926832
G03 X136.474332 Y37.396700 Z-0.125000 I1.522296 J-5.837578
G02 X136.163671 Y37.339685 Z-0.125000 I-0.573520 J2.250110
G02 X133.780443 Y37.120237 Z-0.125000 I-6.265230 J54.990316
G02 X131.933143 Y37.386030 Z-0.125000 I-0.309629 J4.400436
G02 X130.301074 Y38.416800 Z-0.125000 I1.634892 J4.396059
G02 X129.354662 Y39.983507 Z-0.125000 I2.963752 J2.859540
G02 X128.656217 Y43.647976 Z-0.125000 I13.559456 J4.483219
G02 X128.621901 Y45.638185 Z-0.125000 I24.782778 J1.422708
G02 X128.755436 Y47.962452 Z-0.125000 I33.713395 J-0.770935
G01 X128.755436 Y47.965098 Z-0.125000
G01 X128.755436 Y47.967744 Z-0.125000
G02 X128.987966 Y50.410632 Z-0.125000 I138.166742 J-11.919137
G02 X129.264964 Y52.864091 Z-0.125000 I141.520035 J-14.735389
G02 X129.656987 Y55.325446 Z-0.125000 I571.893148 J-89.824272
G02 X130.044243 Y57.691699 Z-0.125000 I557.654811 J-90.049730
G01 X130.044243 Y57.694345 Z-0.125000
G01 X130.044772 Y57.696991 Z-0.125000
G03 X130.399268 Y59.996988 Z-0.125000 I-403.988881 J63.443686
G03 X130.703129 Y62.037290 Z-0.125000 I-455.747957 J68.916948
G01 X130.706224 Y62.039936 Z-0.125000
G02 X130.908857 Y62.138876 Z-0.125000 I2.145858 J-4.137800
G02 X131.130489 Y62.238876 Z-0.125000 I8.196285 J-17.870049
G01 X131.593509 Y65.936318 Z-0.125000
G01 X131.737685 Y67.472143 Z-0.125000
G02 X131.598200 Y67.428381 Z-0.125000 I-21.086625 J66.967705
G03 X131.459667 Y67.384804 Z-0.125000 I12.051004 J-38.552072
G01 X131.466890 Y67.444758 Z-0.125000
G01 X131.462763 Y67.442112 Z-0.125000
G02 X131.802845 Y69.973248 Z-0.125000 I232.209259 J-29.911129
G02 X132.257027 Y73.003542 Z-0.125000 I155.470768 J-21.752887
G03 X132.257306 Y73.006705 Z-0.125000 I-0.158194 J0.015503
G01 X132.257557 Y73.008304 Z-0.125000
G02 X132.948280 Y76.650988 Z-0.125000 I317.725627 J-58.360058
G02 X133.684858 Y80.308123 Z-0.125000 I325.936668 J-63.743666
G01 X133.685916 Y80.312357 Z-0.125000
G01 X133.686455 Y80.315695 Z-0.125000
G01 X133.686974 Y80.318706 Z-0.125000
G02 X134.547992 Y84.078396 Z-0.125000 I356.389549 J-79.639380
G02 X135.385060 Y87.554946 Z-0.125000 I296.725055 J-69.605085
G01 X135.385589 Y87.557592 Z-0.125000
G01 X135.386647 Y87.560238 Z-0.125000
G02 X136.303154 Y91.095306 Z-0.125000 I91.806270 J-21.915464
G02 X137.128141 Y93.782066 Z-0.125000 I54.363110 J-15.222507
G01 X137.129199 Y93.785770 Z-0.125000
G02 X138.190113 Y96.531863 Z-0.125000 I45.691027 J-16.074100
G02 X138.954409 Y98.125541 Z-0.125000 I16.931318 J-7.139813
G01 X138.958537 Y98.133213 Z-0.125000
G01 X138.962161 Y98.140357 Z-0.125000
G02 X139.421524 Y98.921681 Z-0.125000 I6.449488 J-3.266145
G02 X139.723869 Y99.291690 Z-0.125000 I2.181408 J-1.473956
G02 X140.059365 Y99.540390 Z-0.125000 I0.953867 J-0.936125
G02 X140.183789 Y99.577466 Z-0.125000 I0.157874 J-0.302492
G02 X140.186465 Y99.575003 Z-0.125000 I-0.711012 J-0.775003
G03 X140.198261 Y99.565560 Z-0.125000 I0.072468 J0.078444
G02 X140.260349 Y99.507860 Z-0.125000 I-0.245993 J-0.326955
G02 X140.438558 Y99.262216 Z-0.125000 I-1.262398 J-1.103305
G01 X140.454566 Y99.235757 Z-0.125000
G01 X140.472663 Y99.210887 Z-0.125000
G02 X140.682523 Y98.825877 Z-0.125000 I-1.305458 J-0.961274
G02 X141.528929 Y96.181623 Z-0.125000 I-24.212320 J-9.207774
G02 X141.953668 Y94.469063 Z-0.125000 I-65.317418 J-17.108599
G02 X142.694232 Y91.203123 Z-0.125000 I-230.937520 J-54.082850
G01 X142.695819 Y91.194921 Z-0.125000
G01 X142.697936 Y91.187248 Z-0.125000
G02 X143.481911 Y87.922001 Z-0.125000 I-261.793563 J-64.582540
G02 X144.335043 Y84.177332 Z-0.125000 I-345.835494 J-80.759749
G01 X144.335572 Y84.174686 Z-0.125000
G02 X145.145319 Y80.518567 Z-0.125000 I-379.408493 J-85.948019
G02 X145.896715 Y76.961704 Z-0.125000 I-358.588939 J-77.610598
G01 X145.898832 Y76.954031 Z-0.125000
G01 X145.900948 Y76.947416 Z-0.125000
G03 X146.632149 Y73.813438 Z-0.125000 I762.556690 J176.262719
G03 X147.160819 Y71.588578 Z-0.125000 I550.027318 J129.521899
G03 X145.403234 Y71.177205 Z-0.125000 I24.289774 J-107.737907
G03 X143.330048 Y70.644969 Z-0.125000 I19.111653 J-78.748387
G03 X140.970567 Y70.066547 Z-0.125000 I34.237134 J-144.760620
G03 X138.519495 Y69.423337 Z-0.125000 I38.669831 J-152.350189
G01 X138.517379 Y69.423337 Z-0.125000
G01 X138.515262 Y69.423337 Z-0.125000
G03 X136.164828 Y68.759129 Z-0.125000 I87.779867 J-315.117742
G03 X133.984797 Y68.124710 Z-0.125000 I77.223471 J-269.423190
G03 X132.900747 Y67.825117 Z-0.125000 I8.150760 J-31.603865
G03 X132.042281 Y67.565038 Z-0.125000 I17.373805 J-58.893940
G01 X131.393227 Y62.381909 Z-0.125000
G01 X131.390582 Y62.354525 Z-0.125000
G02 X132.656646 Y62.783217 Z-0.125000 I4.241898 J-10.443787
G02 X134.487547 Y63.196322 Z-0.125000 I5.477374 J-20.012091
G02 X137.260697 Y63.605498 Z-0.125000 I9.006822 J-51.440958
G02 X140.301136 Y63.894980 Z-0.125000 I7.372853 J-61.325562
G02 X142.920026 Y64.028202 Z-0.125000 I4.742149 J-67.413849
G02 X145.277572 Y64.051560 Z-0.125000 I1.721507 J-54.766157
G01 X145.278631 Y64.051560 Z-0.125000
G01 X145.279160 Y64.051560 Z-0.125000
G02 X147.410237 Y63.983540 Z-0.125000 I-0.401194 J-45.986420
G02 X148.848445 Y63.874845 Z-0.125000 I-1.952286 J-35.401366
G02 X149.706939 Y60.127631 Z-0.125000 I-332.770630 J-78.210282
G02 X150.648851 Y55.781277 Z-0.125000 I-351.224477 J-78.390195
G01 X150.650967 Y55.774663 Z-0.125000
G01 X150.653084 Y55.768577 Z-0.125000
G02 X151.683406 Y51.246659 Z-0.125000 I-436.820841 J-101.908222
G02 X152.556325 Y47.211486 Z-0.125000 I-346.731137 J-77.119503
G01 X152.558441 Y47.205401 Z-0.125000
G01 X152.560558 Y47.199580 Z-0.125000
G02 X153.480610 Y43.158516 Z-0.125000 I-454.743602 J-105.659323
G02 X154.104130 Y40.280099 Z-0.125000 I-235.704953 J-52.564928
G02 X154.688188 Y37.272226 Z-0.125000 I-97.122123 J-20.419467
G02 X154.731999 Y36.904602 Z-0.125000 I-3.158029 J-0.562772
G03 X154.727718 Y36.904617 Z-0.125000 I-0.002360 J-0.062249
G01 X154.708742 Y36.898517 Z-0.125000
G02 X154.575901 Y36.831066 Z-0.125000 I-0.325071 J0.475676
G02 X153.999225 Y36.688702 Z-0.125000 I-1.011288 J2.857285
G03 X152.751922 Y36.571008 Z-0.125000 I2.010628 J-27.976482
G03 X151.936304 Y36.446847 Z-0.125000 I1.382924 J-11.825477
G03 X151.280487 Y36.176038 Z-0.125000 I0.082144 J-1.128426
G03 X150.886758 Y35.615897 Z-0.125000 I0.911186 J-1.058930
G01 X150.871783 Y35.577136 Z-0.125000
G01 X150.862470 Y35.537343 Z-0.125000
G03 X150.800280 Y35.101705 Z-0.125000 I2.311923 J-0.552299
G03 X150.802526 Y34.568413 Z-0.125000 I4.998133 J-0.245601
G03 X150.895067 Y33.978315 Z-0.125000 I3.039600 J0.174374
G03 X151.100698 Y33.446528 Z-0.125000 I2.401443 J0.622938
G03 X151.258589 Y33.196254 Z-0.125000 I1.671113 J0.879319
G03 X151.487753 Y32.962844 Z-0.125000 I0.973966 J0.727048
G03 X151.794787 Y32.798719 Z-0.125000 I0.635955 J0.820446
G03 X152.167298 Y32.751495 Z-0.125000 I0.304978 J0.912902
G03 X152.594123 Y32.797697 Z-0.125000 I-0.386903 J5.568937
G03 X153.544473 Y32.949403 Z-0.125000 I-5.841866 J39.648490
G02 X154.499606 Y33.107674 Z-0.125000 I13.612411 J-79.186870
G02 X155.720565 Y33.296668 Z-0.125000 I21.080665 J-132.149128
G02 X156.944610 Y33.478755 Z-0.125000 I71.002598 J-473.097030
G02 X158.255808 Y33.670286 Z-0.125000 I72.428914 J-491.255291
G01 X158.258903 Y33.670286 Z-0.125000
G02 X159.645195 Y33.842520 Z-0.125000 I6.247267 J-44.618359
G02 X160.759522 Y33.942119 Z-0.125000 I3.183325 J-29.332184
G02 X164.186514 Y34.153496 Z-0.125000 I13.985972 J-198.864044
G02 X166.370542 Y34.239775 Z-0.125000 I4.285764 J-80.802346
G01 X166.371071 Y34.239775 Z-0.125000
G01 X166.371600 Y34.239775 Z-0.125000
G03 X168.641759 Y34.320950 Z-0.125000 I-3.892924 J140.655068
G03 X170.062327 Y34.401514 Z-0.125000 I-2.427260 J55.363431
G02 X171.467582 Y34.389515 Z-0.125000 I-0.002340 J-82.565083
G02 X172.234799 Y34.362753 Z-0.125000 I-0.367267 J-21.539603
G03 X173.044544 Y34.336693 Z-0.125000 I1.039848 J19.717540
G03 X173.549964 Y34.351376 Z-0.125000 I0.072417 J6.213653
G03 X173.984261 Y34.448546 Z-0.125000 I-0.105815 J1.492049
G03 X174.391772 Y34.723459 Z-0.125000 I-0.399447 J1.031602
G03 X174.461295 Y34.826675 Z-0.125000 I-0.284477 J0.266636
G02 X174.516827 Y34.933776 Z-0.125000 I1.194815 J-0.551572
G02 X175.017429 Y34.909383 Z-0.125000 I-1.069267 J-27.093096
G02 X176.007692 Y34.834557 Z-0.125000 I-1.644063 J-28.348000
G02 X177.674251 Y34.668316 Z-0.125000 I-24.150632 J-250.545045
G02 X179.780066 Y34.445435 Z-0.125000 I-40.242245 J-390.275030
G03 X181.872787 Y34.143852 Z-0.125000 I15.165805 J97.825752
G03 X184.225267 Y33.853219 Z-0.125000 I16.431617 J123.336680
G01 X188.934019 Y33.121488 Z-0.125000
G01 X191.281674 Y32.756655 Z-0.125000
G03 X192.851189 Y32.439131 Z-0.125000 I11.382534 J52.225896
G03 X194.424116 Y32.170127 Z-0.125000 I9.605252 J51.430939
G01 X197.204820 Y31.738116 Z-0.125000
G03 X198.474113 Y31.458125 Z-0.125000 I14.999948 J64.982797
G03 X199.040364 Y31.354682 Z-0.125000 I2.221393 J10.558443
G03 X199.727371 Y31.418381 Z-0.125000 I0.216931 J1.396972
G03 X200.311604 Y31.789260 Z-0.125000 I-0.511964 J1.452077
G03 X200.675590 Y32.137512 Z-0.125000 I-2.201661 J2.665478
G03 X200.935337 Y32.703420 Z-0.125000 I-0.771223 J0.696549
G03 X200.947538 Y33.221373 Z-0.125000 I-2.512601 J0.318310
G03 X200.861957 Y33.799985 Z-0.125000 I-4.294844 J-0.339605
G03 X200.727197 Y34.229077 Z-0.125000 I-1.712903 J-0.302244
G03 X200.459397 Y34.609768 Z-0.125000 I-1.185359 J-0.549314
G03 X200.067809 Y34.877673 Z-0.125000 I-0.937498 J-0.950172
G03 X199.628442 Y35.007674 Z-0.125000 I-0.703101 J-1.568814
G03 X198.886187 Y35.093474 Z-0.125000 I-1.466617 J-9.434176
G03 X198.278138 Y35.107924 Z-0.125000 I-0.442363 J-5.813793
G01 X198.266761 Y35.107924 Z-0.125000
G01 X198.255384 Y35.107924 Z-0.125000
G02 X197.933836 Y35.109553 Z-0.125000 I-0.149059 J2.313804
G02 X197.070959 Y35.208704 Z-0.125000 I0.809039 J10.845008
G02 X196.088263 Y35.384061 Z-0.125000 I3.412206 J21.963102
G02 X195.536690 Y35.516176 Z-0.125000 I1.555736 J7.712564
G02 X195.021187 Y35.716592 Z-0.125000 I0.745794 J2.681486
G01 X195.016824 Y35.713052 Z-0.125000
G02 X194.822108 Y36.031942 Z-0.125000 I1.293965 J1.008995
G02 X194.550703 Y36.790514 Z-0.125000 I4.044470 J1.874887
G01 X194.547607 Y36.802949 Z-0.125000
G01 X194.543983 Y36.815385 Z-0.125000
G02 X194.520717 Y36.935339 Z-0.125000 I0.570547 J0.172893
G02 X194.455101 Y38.519167 Z-0.125000 I16.623157 J1.481947
G02 X194.478660 Y39.980205 Z-0.125000 I73.381193 J-0.452527
G02 X194.546568 Y42.028490 Z-0.125000 I145.056426 J-3.783859
G01 X194.546568 Y42.031136 Z-0.125000
G02 X194.667924 Y44.164341 Z-0.125000 I83.838258 J-3.699457
G02 X194.870579 Y46.678404 Z-0.125000 I115.681182 J-8.059653
G02 X195.135590 Y49.287557 Z-0.125000 I151.576828 J-14.077590
G02 X195.466922 Y52.082698 Z-0.125000 I171.610537 J-18.925296
G01 X196.654447 Y61.447508 Z-0.125000
G01 X196.657093 Y61.456768 Z-0.125000
G01 X196.657093 Y61.459414 Z-0.125000
G02 X197.371025 Y66.368158 Z-0.125000 I4970.874525 J-720.461114
G02 X198.019283 Y70.795279 Z-0.125000 I4675.659234 J-682.390752
G02 X198.700336 Y75.215935 Z-0.125000 I316.312429 J-46.468784
G02 X199.271401 Y78.564283 Z-0.125000 I184.845276 J-29.802717
G02 X199.945769 Y81.912157 Z-0.125000 I80.882887 J-14.550533
G02 X200.286325 Y83.145908 Z-0.125000 I12.553349 J-2.801260
G01 X200.287913 Y83.151729 Z-0.125000
G01 X200.290029 Y83.157285 Z-0.125000
G02 X201.432026 Y85.770271 Z-0.125000 I12.260498 J-3.802362
G02 X203.235582 Y88.255668 Z-0.125000 I12.760901 J-7.363008
G02 X205.603741 Y90.502312 Z-0.125000 I16.356783 J-14.870029
G02 X208.153621 Y92.276113 Z-0.125000 I12.714014 J-15.557042
G01 X208.160871 Y92.280346 Z-0.125000
G01 X208.166560 Y92.284050 Z-0.125000
G02 X210.980284 Y93.719566 Z-0.125000 I10.132360 J-16.384904
G02 X213.891268 Y94.636352 Z-0.125000 I6.862207 J-16.709044
G01 X213.896427 Y94.636352 Z-0.125000
G01 X213.902618 Y94.639527 Z-0.125000
G02 X217.023763 Y95.099798 Z-0.125000 I4.054053 J-16.678415
G02 X219.754451 Y94.963535 Z-0.125000 I0.714103 J-13.118952
G02 X222.751251 Y94.100512 Z-0.125000 I-1.899947 J-12.232079
G02 X225.548403 Y92.465501 Z-0.125000 I-5.254206 J-12.198988
G01 X225.554092 Y92.460210 Z-0.125000
G01 X225.560283 Y92.455447 Z-0.125000
G02 X227.891474 Y90.282610 Z-0.125000 I-7.576313 J-10.465429
G02 X230.011167 Y87.122962 Z-0.125000 I-13.788794 J-11.541235
G02 X231.466258 Y83.584405 Z-0.125000 I-17.889191 J-9.424671
G02 X232.521089 Y78.845429 Z-0.125000 I-30.440825 J-9.262592
G02 X232.848325 Y74.007699 Z-0.125000 I-31.980742 J-4.593193
G02 X232.432205 Y67.792897 Z-0.125000 I-52.558801 J0.397815
G02 X231.524648 Y61.859420 Z-0.125000 I-116.146998 J14.729151
G02 X230.311924 Y55.965718 Z-0.125000 I-116.065972 J20.810827
G01 X230.311924 Y55.961485 Z-0.125000
G01 X230.311924 Y55.956722 Z-0.125000
G02 X228.921069 Y50.096282 Z-0.125000 I-153.855143 J33.419071
G02 X227.517782 Y45.108819 Z-0.125000 I-113.396957 J29.214560
G01 X227.515136 Y45.103527 Z-0.125000
G01 X227.514078 Y45.097442 Z-0.125000
G02 X225.964182 Y40.165014 Z-0.125000 I-99.887420 J28.677483
G02 X224.563874 Y36.461796 Z-0.125000 I-58.219345 J19.898274
G02 X222.924358 Y33.016284 Z-0.125000 I-40.146519 J16.990536
G02 X221.989873 Y31.564417 Z-0.125000 I-9.090932 J4.824648
G02 X221.453438 Y31.174974 Z-0.125000 I-4.077659 J5.052560
G02 X221.277774 Y31.084358 Z-0.125000 I-0.536537 J0.824528
G02 X221.061164 Y31.040332 Z-0.125000 I-294.394151 J1448.317790
G03 X220.843176 Y30.995987 Z-0.125000 I89.132605 J-438.747990
G03 X220.422119 Y30.846196 Z-0.125000 I0.119946 J-1.003842
G03 X220.139342 Y30.576358 Z-0.125000 I0.533430 J-0.842097
G03 X219.995153 Y30.333907 Z-0.125000 I0.656624 J-0.554606
G03 X219.941424 Y30.168133 Z-0.125000 I1.394381 J-0.543527
G03 X219.891625 Y29.938014 Z-0.125000 I2.726039 J-0.710376
G03 X219.845822 Y29.632247 Z-0.125000 I6.732817 J-1.164867
G03 X219.902519 Y28.930646 Z-0.125000 I1.700555 J-0.215667
G03 X220.264916 Y28.326371 Z-0.125000 I1.350822 J0.399310
G03 X220.834418 Y27.955780 Z-0.125000 I1.194040 J1.212046
G03 X221.563545 Y27.757941 Z-0.125000 I1.252873 J3.174898
G01 X225.580865 Y27.134212 Z-0.125000
G03 X228.292787 Y26.737511 Z-0.125000 I23.787330 J153.146546
G03 X231.010502 Y26.389041 Z-0.125000 I20.974864 J152.810745
G01 X236.161084 Y25.589074 Z-0.125000
G01 X239.217743 Y25.114703 Z-0.125000
G03 X239.660848 Y25.125567 Z-0.125000 I0.191437 J1.233759
G03 X240.082805 Y25.266098 Z-0.125000 I-0.379060 J1.841912
G02 X240.096438 Y25.113364 Z-0.125000 I-4.296176 J-0.460464
G03 X240.122595 Y24.962753 Z-0.125000 I0.758541 J0.054162
G02 X240.129802 Y24.800315 Z-0.125000 I-1607.682550 J-71.410572
G03 X240.163418 Y24.616017 Z-0.125000 I0.689558 J0.030559
G03 X240.320676 Y24.329140 Z-0.125000 I0.881009 J0.296404
G03 X240.690002 Y24.074442 Z-0.125000 I0.613406 J0.494353
G03 X241.010278 Y24.003718 Z-0.125000 I0.521698 J1.601969
G03 X241.389699 Y23.972128 Z-0.125000 I0.619028 J5.140670
G01 X241.416052 Y23.972128 Z-0.125000
G01 X241.442923 Y23.972128 Z-0.125000
G02 X241.519732 Y23.969976 Z-0.125000 I0.025718 J-0.453915
G02 X242.361730 Y23.839836 Z-0.125000 I-1.175681 J-10.395516
G02 X243.121910 Y23.678579 Z-0.125000 I-4.976840 J-25.333552
G02 X244.411732 Y23.372159 Z-0.125000 I-16.079478 J-70.551848
G02 X245.750862 Y23.004845 Z-0.125000 I-8.217404 J-32.583145
G02 X247.861645 Y22.347932 Z-0.125000 I-23.558200 J-79.416546
G02 X249.358677 Y21.836410 Z-0.125000 I-17.267592 J-52.982128
G02 X251.019070 Y21.218295 Z-0.125000 I-23.076331 J-64.527223
G02 X252.680270 Y20.572687 Z-0.125000 I-213.813248 J-552.618482
G02 X254.174429 Y19.986846 Z-0.125000 I-196.068154 J-502.260485
G01 X254.178150 Y19.985256 Z-0.125000
G01 X254.180620 Y19.984200 Z-0.125000
G03 X255.638951 Y19.317557 Z-0.125000 I61.469179 J132.539874
G03 X256.626463 Y18.883509 Z-0.125000 I24.189817 J53.694312
G01 X256.629558 Y18.883509 Z-0.125000
G01 X256.632654 Y18.883509 Z-0.125000
G03 X257.668753 Y18.455241 Z-0.125000 I35.500165 J84.417458
G03 X258.011380 Y18.330054 Z-0.125000 I1.932239 J4.756902
G03 X260.120436 Y17.994692 Z-0.125000 I2.112050 J6.482973
G03 X261.866952 Y18.362598 Z-0.125000 I0.001897 J4.320472
G03 X263.345543 Y18.897484 Z-0.125000 I-17.708603 J51.263134
G03 X264.306077 Y19.287606 Z-0.125000 I-7.580341 J20.041358
G03 X265.030831 Y19.594825 Z-0.125000 I-4.269222 J11.079938
G03 X265.546820 Y19.868974 Z-0.125000 I-2.264219 J4.884244
G03 X265.837529 Y20.056784 Z-0.125000 I-2.891403 J4.794469
G03 X266.057915 Y20.227617 Z-0.125000 I-1.443976 J2.090406
G03 X266.239555 Y20.408970 Z-0.125000 I-1.198058 J1.381590
G03 X266.428940 Y20.765567 Z-0.125000 I-0.674627 J0.586876
G03 X266.423545 Y21.278913 Z-0.125000 I-0.930560 J0.246922
G03 X266.176766 Y21.704519 Z-0.125000 I-0.974278 J-0.280567
G03 X265.826392 Y21.962771 Z-0.125000 I-0.950211 J-0.922361
G03 X265.436754 Y22.124121 Z-0.125000 I-1.233980 J-2.428749
G03 X264.907899 Y22.244252 Z-0.125000 I-0.915551 J-2.806394
G03 X264.258018 Y22.293640 Z-0.125000 I-0.769220 J-5.821472
G02 X263.954788 Y22.356400 Z-0.125000 I0.306093 J2.242830
G02 X261.639578 Y23.056882 Z-0.125000 I15.315215 J54.795623
G02 X259.982193 Y24.004419 Z-0.125000 I1.457838 J4.473254
G02 X258.742084 Y25.625216 Z-0.125000 I3.504223 J3.965978
G02 X258.331977 Y27.509518 Z-0.125000 I4.118897 J1.883234
G02 X258.812879 Y31.183523 Z-0.125000 I14.300584 J-0.003372
G02 X259.398034 Y33.070082 Z-0.125000 I23.467874 J-6.245018
G02 X260.240180 Y35.195660 Z-0.125000 I30.110186 J-10.699921
G01 X260.240180 Y35.198306 Z-0.125000
G01 X260.240180 Y35.200952 Z-0.125000
G02 X261.216277 Y37.409816 Z-0.125000 I120.940993 J-52.123773
G02 X262.236440 Y39.609461 Z-0.125000 I122.823441 J-55.627285
G01 X262.237195 Y39.611851 Z-0.125000
G01 X262.239535 Y39.613694 Z-0.125000
G02 X263.368132 Y41.773558 Z-0.125000 I476.507007 J-247.614993
G02 X264.462654 Y43.845461 Z-0.125000 I465.593433 J-244.633600
G01 X264.462654 Y43.848107 Z-0.125000
G01 X264.465300 Y43.850753 Z-0.125000
G03 X265.502732 Y45.860911 Z-0.125000 I-353.060584 J183.485481
G03 X266.414528 Y47.650509 Z-0.125000 I-375.368212 J192.376305
G01 X266.425905 Y47.651832 Z-0.125000
G01 X266.437282 Y47.653155 Z-0.125000
G01 X266.483267 Y47.657388 Z-0.125000
G01 X266.509725 Y47.660034 Z-0.125000
G02 X266.682413 Y47.659220 Z-0.125000 I0.081631 J-1.000748
G03 X266.865245 Y47.654213 Z-0.125000 I0.130834 J1.436749
G01 X269.222204 Y52.361410 Z-0.125000
G01 X268.819667 Y52.393451 Z-0.125000
G01 X268.775746 Y52.397155 Z-0.125000
G02 X269.892534 Y54.673876 Z-0.125000 I189.334633 J-91.461022
G02 X271.277908 Y57.387005 Z-0.125000 I135.837874 J-67.651055
G02 X273.056619 Y60.549896 Z-0.125000 I264.431647 J-146.626491
G02 X274.881819 Y63.707020 Z-0.125000 I269.078396 J-153.453784
G01 X274.884994 Y63.710725 Z-0.125000
G01 X274.886665 Y63.713510 Z-0.125000
G01 X274.888169 Y63.716016 Z-0.125000
G02 X276.862028 Y66.921324 Z-0.125000 I284.342386 J-172.890320
G02 X278.724623 Y69.868101 Z-0.125000 I244.286466 J-152.346223
G01 X278.724623 Y69.870746 Z-0.125000
G01 X278.727269 Y69.873392 Z-0.125000
G02 X280.687622 Y72.853211 Z-0.125000 I74.016797 J-46.559185
G02 X282.293450 Y75.061707 Z-0.125000 I42.615397 J-29.298203
G02 X284.138199 Y77.236218 Z-0.125000 I34.766611 J-27.624531
G02 X285.341314 Y78.435140 Z-0.125000 I12.232694 J-11.072355
G01 X285.348458 Y78.440961 Z-0.125000
G01 X285.355602 Y78.447575 Z-0.125000
G02 X286.482519 Y79.253217 Z-0.125000 I3.424954 J-3.599789
G02 X286.798929 Y79.333293 Z-0.125000 I0.326974 J-0.626823
G02 X286.817107 Y79.332970 Z-0.125000 I0.001787 J-0.411090
G02 X286.840256 Y79.330648 Z-0.125000 I-0.007719 J-0.193444
G02 X286.883243 Y79.323892 Z-0.125000 I-0.028158 J-0.319317
G02 X286.918811 Y79.314244 Z-0.125000 I-0.099563 J-0.437406
G01 X286.913076 Y79.306991 Z-0.125000
G02 X287.083144 Y78.880142 Z-0.125000 I-1.171837 J-0.714195
G01 X287.088171 Y78.851223 Z-0.125000
G01 X287.097431 Y78.823310 Z-0.125000
G02 X287.180395 Y78.347818 Z-0.125000 I-1.762370 J-0.552483
G02 X287.153232 Y75.564599 Z-0.125000 I-27.033519 J-1.127901
G02 X287.021551 Y73.792729 Z-0.125000 I-68.429080 J4.194633
G02 X286.705716 Y70.445527 Z-0.125000 I-241.307292 J21.080758
G01 X286.705716 Y70.438383 Z-0.125000
G01 X286.705716 Y70.430710 Z-0.125000
G02 X286.431066 Y67.064101 Z-0.125000 I-277.892674 J20.976120
G02 X286.073204 Y63.223918 Z-0.125000 I-351.841301 J30.850941
G01 X286.073204 Y63.221272 Z-0.125000
G02 X285.701431 Y59.478441 Z-0.125000 I-392.350735 J37.082003
G02 X285.305807 Y55.853244 Z-0.125000 I-368.223537 J38.350693
G01 X285.305807 Y55.845571 Z-0.125000
G01 X285.305807 Y55.839486 Z-0.125000
G03 X285.024830 Y52.646836 Z-0.125000 I758.842642 J-68.392583
G03 X284.833500 Y50.369020 Z-0.125000 I606.399236 J-52.082682
G03 X283.064226 Y50.647515 Z-0.125000 I-18.753951 J-113.384248
G03 X280.968604 Y50.931762 Z-0.125000 I-11.561351 J-77.369436
G03 X278.581182 Y51.281824 Z-0.125000 I-22.501294 J-145.142515
G03 X276.091387 Y51.605628 Z-0.125000 I-21.358324 J-154.494254
G01 X276.088212 Y51.605628 Z-0.125000
G01 X276.085037 Y51.605628 Z-0.125000
G03 X273.683082 Y51.871874 Z-0.125000 I-36.118825 J-314.880576
G03 X271.449675 Y52.101721 Z-0.125000 I-29.632763 J-276.973247
G01 X271.426921 Y52.104367 Z-0.125000
G03 X270.556085 Y52.207462 Z-0.125000 I-3.694755 J-27.479889
G02 X269.800159 Y52.285739 Z-0.125000 I33.373655 J325.981336
G01 X269.819738 Y52.315187 Z-0.125000
G01 X269.331926 Y52.354477 Z-0.125000
G01 X266.978566 Y47.654001 Z-0.125000
G02 X268.328888 Y47.604967 Z-0.125000 I0.266936 J-11.266334
G02 X270.293606 Y47.302080 Z-0.125000 I-1.686869 J-17.465724
G02 X273.020976 Y46.636034 Z-0.125000 I-11.171702 J-51.663800
G02 X275.972854 Y45.753343 Z-0.125000 I-16.546689 J-60.712251
G02 X278.471499 Y44.885648 Z-0.125000 I-21.364454 J-65.553292
G02 X280.697618 Y44.011328 Z-0.125000 I-19.875690 J-53.876943
G02 X282.702373 Y43.129651 Z-0.125000 I-18.933071 J-45.769997
G02 X284.033322 Y42.474974 Z-0.125000 I-15.150814 J-32.481623
G02 X283.677695 Y38.612852 Z-0.125000 I-339.575559 J29.320898
G02 X283.214252 Y34.154579 Z-0.125000 I-367.592678 J35.958486
G01 X283.214252 Y34.148229 Z-0.125000
G01 X283.214252 Y34.142144 Z-0.125000
G02 X282.781137 Y29.502014 Z-0.125000 I-446.760695 J39.360861
G02 X282.351262 Y25.381959 Z-0.125000 I-361.989833 J35.686594
G01 X282.351262 Y25.375344 Z-0.125000
G01 X282.351262 Y25.369788 Z-0.125000
G02 X281.963894 Y21.222589 Z-0.125000 I-474.209455 J42.201753
G02 X281.658293 Y18.282879 Z-0.125000 I-242.101093 J23.682163
G02 X281.281725 Y15.290164 Z-0.125000 I-96.683042 J10.645388
G02 X281.207655 Y14.911509 Z-0.125000 I-3.640027 J0.515470
G02 X281.076728 Y14.900764 Z-0.125000 I-0.108498 J0.519011
G02 X280.497117 Y14.983846 Z-0.125000 I0.123977 J2.928239
G03 X279.285209 Y15.347280 Z-0.125000 I-8.776240 J-27.062949
G03 X278.481735 Y15.539391 Z-0.125000 I-3.191327 J-11.570958
G03 X277.768079 Y15.529590 Z-0.125000 I-0.342244 J-1.066910
G03 X277.198085 Y15.135796 Z-0.125000 I0.435687 J-1.240045
G01 X277.170198 Y15.102194 Z-0.125000
G01 X277.146914 Y15.065496 Z-0.125000
G03 X276.950055 Y14.672875 Z-0.125000 I1.924862 J-1.210781
G03 X276.786711 Y14.169962 Z-0.125000 I4.571014 J-1.762634
G03 X276.690990 Y13.581370 Z-0.125000 I2.922315 J-0.777326
G03 X276.719031 Y13.008787 Z-0.125000 I2.573629 J-0.160943
G03 X276.926822 Y12.432619 Z-0.125000 I1.637119 J0.264863
G03 X277.470923 Y11.995407 Z-0.125000 I0.849251 J0.499708
G03 X277.885298 Y11.877453 Z-0.125000 I1.771939 J5.438019
G03 X278.825349 Y11.659519 Z-0.125000 I9.672877 J39.587272
G02 X279.771386 Y11.445915 Z-0.125000 I-17.130765 J-78.072852
G02 X280.976647 Y11.160330 Z-0.125000 I-30.940128 J-133.263344
G02 X282.183896 Y10.866833 Z-0.125000 I-115.616205 J-478.195636
G02 X283.476745 Y10.548985 Z-0.125000 I-119.681570 J-489.594129
G02 X284.831272 Y10.185234 Z-0.125000 I-11.211949 J-44.454643
G02 X285.911226 Y9.855486 Z-0.125000 I-8.279180 J-29.048433
G02 X289.194297 Y8.754758 Z-0.125000 I-63.632477 J-195.238939
G02 X291.275223 Y8.006527 Z-0.125000 I-27.205711 J-78.930356
G03 X293.438451 Y7.219810 Z-0.125000 I50.525220 J135.561161
G03 X294.797484 Y6.756981 Z-0.125000 I19.024673 J53.636618
G02 X296.107797 Y6.214750 Z-0.125000 I-28.000155 J-69.517330
G02 X296.822682 Y5.897086 Z-0.125000 I-9.368548 J-22.046613
G03 X297.577015 Y5.565692 Z-0.125000 I8.456049 J18.223781
G03 X298.053099 Y5.389616 Z-0.125000 I2.483360 J5.982976
G03 X298.535017 Y5.317122 Z-0.125000 I0.457436 J1.402829
G03 X299.062853 Y5.468700 Z-0.125000 I-0.017521 J1.055837
G03 X299.441634 Y5.850363 Z-0.125000 I-0.569127 J0.943622
G03 X299.626653 Y6.290865 Z-0.125000 I-1.499266 J0.888826
G03 X299.704425 Y6.736960 Z-0.125000 I-2.509700 J0.667365
G03 X299.752224 Y7.515064 Z-0.125000 I-16.214104 J1.386564
G03 X299.741130 Y7.968826 Z-0.125000 I-3.681983 J0.136992
G03 X299.657133 Y8.371863 Z-0.125000 I-1.721889 J-0.148585
G03 X299.442172 Y8.758543 Z-0.125000 I-1.160171 J-0.391865
G03 X299.008085 Y9.054514 Z-0.125000 I-0.725235 J-0.597357
G03 X298.520339 Y9.193589 Z-0.125000 I-2.110175 J-6.475726
G03 X297.646911 Y9.391963 Z-0.125000 I-6.205732 J-25.301366
G01 X297.643207 Y9.391963 Z-0.125000
G01 X297.638444 Y9.391963 Z-0.125000
G02 X296.911106 Y9.561987 Z-0.125000 I2.014767 J10.259624
G02 X295.826157 Y9.885993 Z-0.125000 I5.978153 J21.996670
G02 X295.170946 Y10.099821 Z-0.125000 I319.088190 J978.768819
G03 X294.841193 Y10.207408 Z-0.125000 I-131.741956 J-403.194936
G02 X294.714627 Y10.310606 Z-0.125000 I3.356071 J4.245226
G02 X294.536817 Y10.460614 Z-0.125000 I45.124564 J53.668297
G02 X294.379194 Y12.306800 Z-0.125000 I16.281974 J2.319939
G02 X294.368886 Y17.005445 Z-0.125000 I88.241033 J2.542914
G02 X294.368871 Y17.007802 Z-0.125000 I0.324099 J0.003241
G01 X294.368886 Y17.009150 Z-0.125000
G02 X294.609935 Y22.009171 Z-0.125000 I1129.873821 J-51.964811
G02 X294.948164 Y28.492688 Z-0.125000 I1868.294424 J-94.213878
G03 X294.948215 Y28.497229 Z-0.125000 I-0.064724 J0.002987
G02 X294.948164 Y28.501419 Z-0.125000 I0.174623 J0.004190
G02 X295.421568 Y35.055007 Z-0.125000 I1512.818510 J-105.985775
G02 X295.981176 Y42.385836 Z-0.125000 I1917.797292 J-142.710592
G01 X295.981176 Y42.392980 Z-0.125000
G02 X296.654874 Y49.694639 Z-0.125000 I1721.749220 J-155.177852
G02 X297.292740 Y56.289779 Z-0.125000 I1439.780235 J-135.923616
G01 X297.292740 Y56.297452 Z-0.125000
G02 X298.047616 Y62.863204 Z-0.125000 I1253.668592 J-140.810126
G02 X298.673519 Y68.039885 Z-0.125000 I800.226782 J-94.127890
G01 X298.673519 Y68.042531 Z-0.125000
G02 X299.493978 Y73.174419 Z-0.125000 I141.832443 J-20.043877
G02 X299.958202 Y75.266361 Z-0.125000 I25.302593 J-4.517433
G02 X300.063057 Y75.556183 Z-0.125000 I1.713599 J-0.456089
G02 X300.111660 Y75.649292 Z-0.125000 I1.015476 J-0.470836
G02 X302.724959 Y74.973593 Z-0.125000 I-65.211250 J-257.598746
G02 X304.855051 Y74.394058 Z-0.125000 I-37.360960 J-141.525329
G03 X307.103079 Y73.803062 Z-0.125000 I19.490579 J69.567148
G03 X308.700792 Y73.449946 Z-0.125000 I8.318844 J33.848506
G01 X308.719313 Y73.446771 Z-0.125000
G01 X308.737833 Y73.444125 Z-0.125000
G03 X310.383485 Y73.323870 Z-0.125000 I1.805510 J13.387532
G03 X311.513362 Y73.427986 Z-0.125000 I0.064843 J5.479141
G01 X311.539291 Y73.433277 Z-0.125000
G01 X311.565749 Y73.440421 Z-0.125000
G03 X312.644884 Y74.089539 Z-0.125000 I-0.671661 J2.338181
G03 X313.272098 Y75.201036 Z-0.125000 I-1.829758 J1.765243
G03 X313.320062 Y75.906213 Z-0.125000 I-1.788293 J0.475853
G03 X313.113454 Y76.596288 Z-0.125000 I-2.154387 J-0.269054
G03 X312.972313 Y76.860743 Z-0.125000 I-4.124536 J-2.031390
G03 X312.830271 Y77.075342 Z-0.125000 I-1.803858 J-1.039661
G03 X312.668749 Y77.257431 Z-0.125000 I-1.229670 J-0.928097
G03 X312.334178 Y77.458247 Z-0.125000 I-0.604935 J-0.628742
G01 X312.112484 Y77.530610 Z-0.125000
G01 X311.897510 Y77.441207 Z-0.125000
G01 X311.891579 Y77.464055 Z-0.125000
G02 X311.354903 Y77.455230 Z-0.125000 I-0.312342 J2.671780
G02 X310.775853 Y77.520683 Z-0.125000 I0.831169 J9.947410
G02 X309.733300 Y77.689333 Z-0.125000 I4.004879 J28.063758
G01 X309.729596 Y77.689333 Z-0.125000
G01 X309.726421 Y77.689333 Z-0.125000
G02 X307.733546 Y78.068080 Z-0.125000 I11.872698 J67.903735
G02 X304.699847 Y78.721313 Z-0.125000 I32.637770 J158.945109
G02 X301.686349 Y79.434538 Z-0.125000 I31.686307 J140.602897
G02 X298.170044 Y80.341884 Z-0.125000 I46.569426 J187.741164
G02 X294.680432 Y81.326395 Z-0.125000 I35.910117 J133.960618
G02 X291.384417 Y82.351577 Z-0.125000 I36.319452 J122.580010
G02 X290.054024 Y82.800723 Z-0.125000 I20.672778 J63.428739
G02 X287.113359 Y83.844513 Z-0.125000 I103.646179 J296.666069
G02 X284.308981 Y84.919738 Z-0.125000 I26.678919 J73.778196
G02 X280.764399 Y86.419541 Z-0.125000 I48.161581 J118.761820
G02 X277.259143 Y88.005636 Z-0.125000 I80.539591 J182.658122
G02 X273.433069 Y89.821920 Z-0.125000 I103.027653 J221.969897
G01 X273.429894 Y89.824566 Z-0.125000
G02 X269.725428 Y91.867268 Z-0.125000 I32.522842 J63.360955
G02 X266.589497 Y93.865675 Z-0.125000 I28.040533 J47.461339
G01 X266.337323 Y94.038791 Z-0.125000
G01 X266.045329 Y93.948859 Z-0.125000
G03 X265.127612 Y93.375820 Z-0.125000 I0.624532 J-2.021557
G03 X264.594779 Y92.416659 Z-0.125000 I1.635585 J-1.536181
G03 X264.438063 Y91.553733 Z-0.125000 I5.273987 J-1.403506
G03 X264.404615 Y90.559419 Z-0.125000 I7.552321 J-0.751768
G01 X264.404615 Y90.518594 Z-0.125000
G01 X264.411839 Y90.478800 Z-0.125000
G03 X264.628150 Y89.606661 Z-0.125000 I5.371958 J0.869477
G03 X265.009209 Y88.982239 Z-0.125000 I1.572693 J0.531267
G01 X265.070195 Y88.919718 Z-0.125000
G01 X265.145654 Y88.875798 Z-0.125000
G03 X266.811861 Y87.980951 Z-0.125000 I14.042592 J24.148674
G03 X269.432719 Y86.755006 Z-0.125000 I29.863565 J60.428697
G03 X272.169967 Y85.583843 Z-0.125000 I68.292738 J155.829786
G03 X274.996185 Y84.431623 Z-0.125000 I69.797259 J167.159699
G03 X277.836903 Y83.322296 Z-0.125000 I88.238419 J221.765442
G03 X280.352456 Y82.379570 Z-0.125000 I65.388435 J170.653683
G03 X281.422959 Y82.000083 Z-0.125000 I20.809232 J57.001493
G02 X282.248961 Y81.712424 Z-0.125000 I-37.393773 J-108.704635
G01 X275.445262 Y80.153845 Z-0.125000
G01 X275.320194 Y79.852591 Z-0.125000
G02 X272.681967 Y73.719149 Z-0.125000 I-236.360566 J98.033568
G02 X269.630627 Y67.087995 Z-0.125000 I-277.746655 J123.788075
G02 X266.457992 Y60.618312 Z-0.125000 I-318.609140 J152.228375
G02 X263.398465 Y54.700667 Z-0.125000 I-269.539557 J135.607019
G02 X260.214190 Y48.844394 Z-0.125000 I-300.164852 J159.416993
G02 X257.420542 Y43.958174 Z-0.125000 I-212.879980 J118.470271
G02 X254.474851 Y39.165592 Z-0.125000 I-120.119485 J70.528165
G02 X252.592935 Y36.443407 Z-0.125000 I-41.464759 J26.654054
G01 X252.589839 Y36.440232 Z-0.125000
G01 X252.586743 Y36.435999 Z-0.125000
G02 X249.599444 Y32.482684 Z-0.125000 I-91.327445 J65.905727
G02 X247.643899 Y30.182129 Z-0.125000 I-33.449558 J26.451780
G01 X247.641253 Y30.179484 Z-0.125000
G01 X247.638157 Y30.176309 Z-0.125000
G02 X245.577614 Y28.345876 Z-0.125000 I-8.828501 J7.863361
G02 X243.983605 Y27.585274 Z-0.125000 I-3.090992 J4.427250
G02 X242.409169 Y27.212175 Z-0.125000 I-7.032489 J26.167839
G02 X241.592023 Y27.070554 Z-0.125000 I-2.676588 J13.015478
G03 X241.711736 Y27.351100 Z-0.125000 I-5.131943 J2.355684
G03 X241.787875 Y27.647795 Z-0.125000 I-1.141524 J0.451062
G03 X241.789134 Y28.177584 Z-0.125000 I-2.126949 J0.269947
G03 X241.651451 Y28.683373 Z-0.125000 I-1.809457 J-0.220924
G03 X241.453900 Y29.051765 Z-0.125000 I-2.343651 J-1.019625
G03 X241.154839 Y29.374807 Z-0.125000 I-1.075098 J-0.695333
G03 X240.700304 Y29.568749 Z-0.125000 I-0.610199 J-0.800495
G03 X240.201412 Y29.518476 Z-0.125000 I-0.153295 J-0.979309
G01 X240.151803 Y29.499955 Z-0.125000
G01 X240.105810 Y29.473497 Z-0.125000
G02 X239.590707 Y29.271503 Z-0.125000 I-0.926666 J1.605311
G02 X238.891417 Y29.208385 Z-0.125000 I-0.583953 J2.564329
G01 X238.887289 Y29.208385 Z-0.125000
G01 X238.883162 Y29.208385 Z-0.125000
G02 X238.144554 Y29.259403 Z-0.125000 I0.314949 J9.931625
G02 X236.939096 Y29.417167 Z-0.125000 I2.696081 J25.284738
G02 X234.834051 Y29.949755 Z-0.125000 I1.780466 J11.463625
G02 X234.116532 Y30.347335 Z-0.125000 I0.839063 J2.360521
G02 X233.729702 Y30.987314 Z-0.125000 I1.304166 J1.225190
G02 X233.658679 Y31.670250 Z-0.125000 I1.425824 J0.493442
G02 X233.932751 Y32.949067 Z-0.125000 I7.645775 J-0.969838
G02 X234.830184 Y35.459688 Z-0.125000 I27.009001 J-8.238789
G02 X235.885604 Y37.928954 Z-0.125000 I92.642928 J-38.137497
G02 X237.312200 Y41.056756 Z-0.125000 I148.339495 J-65.768650
G01 X237.312200 Y41.059402 Z-0.125000
G01 X237.312200 Y41.062048 Z-0.125000
G02 X238.793484 Y44.277921 Z-0.125000 I1013.593900 J-464.928949
G02 X240.500632 Y47.955150 Z-0.125000 I1309.904813 J-605.886253
G01 X240.500632 Y47.957796 Z-0.125000
G01 X240.500632 Y47.960971 Z-0.125000
G03 X242.181524 Y51.771899 Z-0.125000 I-140.414201 J64.208907
G03 X243.814637 Y55.758417 Z-0.125000 I-151.208192 J64.271530
G03 X245.316240 Y59.804063 Z-0.125000 I-98.910905 J39.013801
G03 X246.632033 Y63.847832 Z-0.125000 I-97.822281 J34.066122
G01 X246.632033 Y63.850477 Z-0.125000
G03 X247.714975 Y68.076477 Z-0.125000 I-53.023540 J15.839412
G03 X248.393680 Y72.059271 Z-0.125000 I-46.330205 J9.944313
G03 X248.641560 Y78.203829 Z-0.125000 I-35.584718 J4.512818
G03 X247.880534 Y83.115428 Z-0.125000 I-22.985396 J-1.046705
G03 X246.183247 Y87.801312 Z-0.125000 I-22.319586 J-5.434108
G03 X243.720070 Y91.578460 Z-0.125000 I-16.677794 J-8.184303
G03 X240.542503 Y94.766287 Z-0.125000 I-15.696863 J-12.468760
G03 X236.493646 Y97.361054 Z-0.125000 I-14.384571 J-17.989292
G01 X236.490551 Y97.361054 Z-0.125000
G03 X231.997079 Y99.246712 Z-0.125000 I-13.109464 J-24.942761
G03 X226.796582 Y100.477657 Z-0.125000 I-10.441876 J-32.513839
G03 X222.766005 Y100.776160 Z-0.125000 I-3.872989 J-24.934598
G03 X218.664271 Y100.427519 Z-0.125000 I0.163812 J-26.229802
G03 X214.655436 Y99.588531 Z-0.125000 I7.755523 J-47.054255
G03 X211.099367 Y98.501037 Z-0.125000 I9.655833 J-37.932107
G03 X207.666992 Y97.108813 Z-0.125000 I15.238714 J-42.496559
G03 X204.854279 Y95.662458 Z-0.125000 I13.465817 J-29.644947
G01 X204.849120 Y95.658754 Z-0.125000
G01 X204.844463 Y95.656108 Z-0.125000
G03 X203.345272 Y94.697607 Z-0.125000 I16.964377 J-28.185686
G03 X202.256511 Y93.919782 Z-0.125000 I15.367199 J-22.661144
G03 X202.283442 Y94.079024 Z-0.125000 I-4.530222 J0.848048
G02 X202.313354 Y94.253103 Z-0.125000 I4.332875 J-0.654907
G01 X202.313883 Y94.255749 Z-0.125000
G03 X202.583899 Y95.693818 Z-0.125000 I-707.838527 J133.650097
G03 X202.868888 Y97.227652 Z-0.125000 I-872.446448 J162.895727
G03 X203.220855 Y98.743677 Z-0.125000 I-70.362371 J17.134510
G03 X203.497789 Y100.081232 Z-0.125000 I-50.455964 J11.144072
G02 X203.774751 Y101.420112 Z-0.125000 I51.505622 J-9.956409
G02 X203.904482 Y101.934848 Z-0.125000 I8.676417 J-1.913043
G01 X203.905540 Y101.938552 Z-0.125000
G01 X203.906599 Y101.942256 Z-0.125000
G03 X203.982426 Y102.715898 Z-0.125000 I-2.248469 J0.610918
G03 X203.683354 Y103.427943 Z-0.125000 I-1.196628 J-0.083776
G03 X203.026877 Y103.818156 Z-0.125000 I-0.939164 J-0.832689
G03 X202.243136 Y103.882179 Z-0.125000 I-0.610081 J-2.639206
G02 X200.047166 Y103.821540 Z-0.125000 I-1.927779 J30.019535
G02 X197.616551 Y103.924036 Z-0.125000 I0.326431 J36.612318
G02 X195.189403 Y104.165559 Z-0.125000 I3.856296 J51.069543
G02 X191.440191 Y104.688337 Z-0.125000 I14.938186 J120.837947
G01 X183.667547 Y105.895497 Z-0.125000
G03 X183.223321 Y105.892950 Z-0.125000 I-0.214211 J-1.379578
G03 X182.771997 Y105.706347 Z-0.125000 I0.179115 J-1.072304
G03 X182.447955 Y105.355682 Z-0.125000 I0.662945 J-0.937666
G03 X182.276938 Y104.958582 Z-0.125000 I1.434550 J-0.853186
G03 X182.126281 Y104.362361 Z-0.125000 I10.098562 J-2.868916
G03 X182.048011 Y103.912156 Z-0.125000 I4.842749 J-1.073846
G03 X182.015915 Y103.453360 Z-0.125000 I4.070710 J-0.515294
G03 X182.035099 Y102.985084 Z-0.125000 I4.284611 J-0.059001
G03 X182.073842 Y102.733112 Z-0.125000 I2.215199 J0.211645
G03 X182.170491 Y102.456421 Z-0.125000 I1.138950 J0.242613
G03 X182.370187 Y102.190886 Z-0.125000 I0.819328 J0.408318
G03 X182.780273 Y101.993400 Z-0.125000 I0.530338 J0.576745
G03 X182.956108 Y101.966118 Z-0.125000 I28.459427 J182.856450
G02 X183.566788 Y101.871454 Z-0.125000 I-138.982662 J-898.702541
G01 X183.609677 Y101.864839 Z-0.125000
G01 X183.653603 Y101.864839 Z-0.125000
G02 X184.313888 Y101.830078 Z-0.125000 I-0.154745 J-9.227736
G02 X185.063333 Y101.738739 Z-0.125000 I-1.014994 J-11.448432
G01 X186.548515 Y101.507758 Z-0.125000
G01 X186.586755 Y101.501408 Z-0.125000
G01 X186.625511 Y101.501408 Z-0.125000
G02 X187.410045 Y101.458866 Z-0.125000 I-0.551893 J-17.432778
G02 X187.783061 Y101.415630 Z-0.125000 I-0.371893 J-4.839246
G02 X187.954325 Y101.355045 Z-0.125000 I-0.074994 J-0.484354
G02 X188.142212 Y101.197032 Z-0.125000 I-0.358626 J-0.617137
G02 X188.298292 Y100.957046 Z-0.125000 I-0.899347 J-0.755657
G02 X188.508082 Y100.400187 Z-0.125000 I-2.842617 J-1.388874
G01 X188.513242 Y100.383254 Z-0.125000
G01 X188.518930 Y100.366850 Z-0.125000
G02 X188.771945 Y99.188322 Z-0.125000 I-5.147587 J-1.721545
G02 X188.908055 Y96.171754 Z-0.125000 I-27.267616 J-2.741690
G02 X188.814124 Y93.262556 Z-0.125000 I-55.885179 J0.348287
G02 X188.453819 Y88.410475 Z-0.125000 I-153.704793 J8.974363
G02 X187.964645 Y83.572463 Z-0.125000 I-223.284084 J20.132638
G02 X187.098863 Y76.323900 Z-0.125000 I-499.265991 J55.957277
G02 X185.945796 Y67.437834 Z-0.125000 I-1534.144632 J194.554747
G02 X185.088138 Y61.171363 Z-0.125000 I-768.002046 J101.920301
G02 X184.170432 Y54.912530 Z-0.125000 I-570.632667 J80.472738
G02 X183.492888 Y50.693452 Z-0.125000 I-259.035958 J39.434800
G01 X183.491829 Y50.687366 Z-0.125000
G01 X183.490771 Y50.681016 Z-0.125000
G02 X182.801277 Y46.465566 Z-0.125000 I-137.501426 J20.326122
G02 X182.279992 Y43.922270 Z-0.125000 I-51.796003 J9.291261
G02 X181.644522 Y41.491862 Z-0.125000 I-48.939880 J11.497853
G02 X181.193754 Y40.143680 Z-0.125000 I-16.289233 J4.696894
G02 X180.620341 Y38.970714 Z-0.125000 I-8.331860 J3.346448
G02 X180.324043 Y38.576343 Z-0.125000 I-1.827535 J1.064567
G02 X179.944867 Y38.340206 Z-0.125000 I-1.126476 J1.386337
G02 X179.520992 Y38.212542 Z-0.125000 I-0.667919 J1.450131
G02 X178.992107 Y38.166135 Z-0.125000 I-0.615852 J3.981730
G02 X177.974319 Y38.186083 Z-0.125000 I-0.266844 J12.359695
G01 X176.010100 Y38.492021 Z-0.125000
G01 X174.874253 Y38.668233 Z-0.125000
G03 X174.407590 Y38.646920 Z-0.125000 I-0.180694 J-1.163195
G03 X174.001438 Y38.472362 Z-0.125000 I0.335946 J-1.341447
G03 X173.798024 Y38.293864 Z-0.125000 I0.475043 J-0.746508
G02 X173.618518 Y38.084801 Z-0.125000 I-8.480259 J7.099731
G03 X173.419979 Y38.142509 Z-0.125000 I-0.418083 J-1.067997
G03 X173.214926 Y38.155074 Z-0.125000 I-0.150062 J-0.769441
G03 X172.714024 Y38.100983 Z-0.125000 I0.468602 J-6.685698
G03 X171.831548 Y37.956134 Z-0.125000 I3.691596 J-25.251278
G01 X171.827923 Y37.956134 Z-0.125000
G01 X171.823796 Y37.956134 Z-0.125000
G02 X171.085924 Y37.839744 Z-0.125000 I-1.991044 J10.225366
G02 X169.969133 Y37.732879 Z-0.125000 I-2.679167 J22.109721
G01 X168.950591 Y37.661045 Z-0.125000
G02 X168.811581 Y37.706537 Z-0.125000 I1.228269 J3.988339
G03 X168.618828 Y37.773202 Z-0.125000 I-40.659918 J-117.251719
G02 X167.904354 Y39.438606 Z-0.125000 I14.134128 J7.049632
G02 X166.443252 Y43.837418 Z-0.125000 I80.199097 J29.080865
G02 X165.121415 Y48.624859 Z-0.125000 I1066.591487 J297.067609
G02 X163.431038 Y54.843966 Z-0.125000 I1767.763590 J483.824135
G01 X163.429980 Y54.849257 Z-0.125000
G01 X163.429053 Y54.851997 Z-0.125000
G02 X163.427863 Y54.854549 Z-0.125000 I0.069400 J0.033925
G02 X161.842718 Y61.189833 Z-0.125000 I1473.052142 J371.936775
G02 X160.097321 Y68.289863 Z-0.125000 I1795.321570 J445.107589
G01 X160.095205 Y68.296477 Z-0.125000
G02 X158.465899 Y75.414717 Z-0.125000 I1658.131562 J383.278090
G02 X157.021494 Y81.856886 Z-0.125000 I1395.654488 J316.304103
G02 X155.698266 Y88.304287 Z-0.125000 I1241.602256 J258.178737
G02 X154.683138 Y93.402416 Z-0.125000 I776.363891 J157.238006
G02 X153.863781 Y98.535635 Z-0.125000 I141.172560 J25.165771
G02 X153.650645 Y100.686731 Z-0.125000 I25.859675 J3.648343
G02 X153.660313 Y101.041025 Z-0.125000 I2.090063 J0.120245
G02 X153.680099 Y101.151285 Z-0.125000 I0.850112 J-0.095640
G02 X156.365030 Y101.510960 Z-0.125000 I36.145563 J-259.621382
G02 X158.557316 Y101.776072 Z-0.125000 I18.410922 J-143.048429
G03 X160.849563 Y102.073326 Z-0.125000 I-7.989824 J70.599632
G03 X162.462497 Y102.348127 Z-0.125000 I-5.032428 J34.408599
G01 X162.481098 Y102.351831 Z-0.125000
G01 X162.499195 Y102.356593 Z-0.125000
G03 X164.077093 Y102.865304 Z-0.125000 I-3.457327 J13.425277
G03 X165.104200 Y103.389605 Z-0.125000 I-2.091926 J5.366295
G01 X165.125393 Y103.403628 Z-0.125000
G01 X165.145554 Y103.418709 Z-0.125000
G03 X165.941860 Y104.416734 Z-0.125000 I-1.595399 J2.089630
G03 X166.178047 Y105.675920 Z-0.125000 I-2.424270 J1.106468
G03 X166.002004 Y106.362701 Z-0.125000 I-1.839677 J-0.105613
G03 X165.585320 Y106.944595 Z-0.125000 I-1.835601 J-0.874303
G03 X165.368125 Y107.141493 Z-0.125000 I-2.837963 J-2.912274
G03 X165.160540 Y107.294427 Z-0.125000 I-1.271106 J-1.507988
G03 X165.062172 Y107.346118 Z-0.125000 I-0.349854 J-0.546331
G03 X164.859268 Y107.388989 Z-0.125000 I-0.212998 J-0.506500
G03 X164.638764 Y107.369780 Z-0.125000 I-0.019494 J-1.051419
G03 X164.063968 Y107.220026 Z-0.125000 I0.908342 J-4.664457
G02 X163.217497 Y106.969233 Z-0.125000 I-4.688328 J14.270030
G02 X162.042387 Y106.680012 Z-0.125000 I-8.934310 J33.768445
G01 X162.040271 Y106.680012 Z-0.125000
G01 X162.037625 Y106.680012 Z-0.125000
G03 X159.810038 Y106.255974 Z-0.125000 I23.602869 J-130.055435
G02 X156.996080 Y105.742065 Z-0.125000 I-17.418373 J87.414950
G02 X153.942335 Y105.269159 Z-0.125000 I-23.104134 J139.096617
G02 X150.360834 Y104.788640 Z-0.125000 I-27.590573 J192.056283
G02 X146.774688 Y104.389095 Z-0.125000 I-17.025289 J136.517877
G02 X143.364370 Y104.101862 Z-0.125000 I-12.099827 J123.272525
G02 X141.974982 Y104.019129 Z-0.125000 I-4.546915 J64.651132
G02 X138.890232 Y103.884296 Z-0.125000 I-14.874619 J304.951186
G02 X135.919890 Y103.830715 Z-0.125000 I-2.848853 J75.571456
G02 X132.129927 Y103.895144 Z-0.125000 I0.197819 J123.139684
G02 X128.342467 Y104.055442 Z-0.125000 I6.216891 J191.714977
G02 X124.186754 Y104.310089 Z-0.125000 I12.037039 J230.474825
G02 X120.069951 Y104.824811 Z-0.125000 I6.242101 J66.645720
G02 X116.515397 Y105.511058 Z-0.125000 I7.929142 J50.619461
G01 X116.218776 Y105.579267 Z-0.125000
G01 X115.980548 Y105.390144 Z-0.125000
G03 X115.312660 Y104.526336 Z-0.125000 I1.416857 J-1.785607
G03 X115.116518 Y103.445035 Z-0.125000 I2.141505 J-0.946897
G03 X115.150447 Y103.243182 Z-0.125000 I0.917608 J0.050459
G02 X115.191966 Y103.084858 Z-0.125000 I-3.634555 J-1.037755
G01 X115.055539 Y103.022840 Z-0.125000
G03 X114.640996 Y103.243146 Z-0.125000 I-1.157371 J-1.677622
G03 X114.128467 Y103.337032 Z-0.125000 I-0.497894 J-1.272120
G01 X114.127938 Y103.337032 Z-0.125000
G03 X113.758286 Y103.310030 Z-0.125000 I0.031574 J-2.975964
G03 X113.340907 Y103.234189 Z-0.125000 I0.642497 J-4.722270
G03 X112.990174 Y103.137845 Z-0.125000 I0.925750 J-4.056711
G03 X112.174056 Y102.865228 Z-0.125000 I12.466494 J-38.678076
G01 X112.172167 Y102.864693 Z-0.125000
G01 X112.168897 Y102.862053 Z-0.125000
G03 X111.380258 Y102.661132 Z-0.125000 I4.321642 J-18.611214
G03 X110.218629 Y102.318917 Z-0.125000 I10.293175 J-37.082182
G03 X109.114636 Y102.043343 Z-0.125000 I6.813903 J-29.646785
G03 X107.862705 Y101.683812 Z-0.125000 I10.377868 J-38.496406
G01 X105.533134 Y101.152582 Z-0.125000
G01 X99.851317 Y99.857580 Z-0.125000
G03 X95.426035 Y99.046285 Z-0.125000 I3874.051811 J-21141.952377
G03 X93.164910 Y98.630788 Z-0.125000 I677.421935 J-3692.989707
G02 X90.894551 Y98.316283 Z-0.125000 I-74.502851 J529.471656
G02 X89.940305 Y98.191528 Z-0.125000 I-11.803834 J86.574724
G01 X89.908783 Y98.187823 Z-0.125000
G01 X88.755367 Y97.924299 Z-0.125000
G03 X88.289683 Y97.703157 Z-0.125000 I0.263864 J-1.156547
G03 X87.961100 Y97.275753 Z-0.125000 I0.662288 J-0.849165
G03 X87.857872 Y96.787619 Z-0.125000 I1.190732 J-0.506791
G03 X87.898574 Y96.309390 Z-0.125000 I2.419884 J-0.034892
G03 X88.141694 Y95.489791 Z-0.125000 I4.039246 J0.752315
G03 X88.550728 Y94.884690 Z-0.125000 I1.683124 J0.696955
G01 X88.685086 Y94.752901 Z-0.125000
G01 X88.870088 Y94.716230 Z-0.125000
G02 X89.300340 Y94.619789 Z-0.125000 I-1.730789 J-8.729549
G02 X89.852974 Y94.469215 Z-0.125000 I-3.355147 J-13.403429
G01 X89.899999 Y94.455192 Z-0.125000
G01 X89.949092 Y94.449107 Z-0.125000
G03 X90.570153 Y94.394154 Z-0.125000 I0.952447 J7.227318
G03 X91.489563 Y94.376240 Z-0.125000 I0.804212 J17.672701
G01 X91.523670 Y94.376240 Z-0.125000
G01 X91.557778 Y94.379945 Z-0.125000
G03 X92.457171 Y94.495153 Z-0.125000 I-4.036172 J35.077342
G03 X93.865127 Y94.704985 Z-0.125000 I-12.917559 J91.504295
G01 X93.866185 Y94.704985 Z-0.125000
G01 X93.868302 Y94.704985 Z-0.125000
G03 X95.332644 Y94.971342 Z-0.125000 I-5.846373 J36.299801
G03 X97.498566 Y95.436213 Z-0.125000 I-19.573153 J96.473195
G02 X97.573310 Y95.418604 Z-0.125000 I-0.026554 J-0.280148
G02 X97.655662 Y95.363347 Z-0.125000 I-0.080802 J-0.209418
G02 X97.741175 Y95.244343 Z-0.125000 I-0.394450 J-0.373667
G02 X97.898025 Y94.848653 Z-0.125000 I-1.706007 J-0.905190
G01 X97.905248 Y94.823783 Z-0.125000
G01 X97.914032 Y94.798912 Z-0.125000
G02 X98.227598 Y93.820214 Z-0.125000 I-12.322321 J-4.487535
G02 X98.433380 Y92.931326 Z-0.125000 I-10.139210 J-2.815540
G02 X98.751940 Y90.157385 Z-0.125000 I-19.680614 J-3.665389
G02 X98.757391 Y85.476991 Z-0.125000 I-53.909684 J-2.402985
G02 X98.441001 Y80.882927 Z-0.125000 I-105.440587 J4.953679
G02 X97.846855 Y75.455909 Z-0.125000 I-147.193541 J13.368625
G01 X97.846326 Y75.452734 Z-0.125000
G01 X97.845796 Y75.449559 Z-0.125000
G02 X97.133403 Y70.157870 Z-0.125000 I-163.164536 J19.272226
G02 X96.197320 Y64.547918 Z-0.125000 I-184.174349 J27.848467
G01 X96.196262 Y64.542627 Z-0.125000
G01 X96.195732 Y64.538129 Z-0.125000
G02 X95.209765 Y58.961657 Z-0.125000 I-319.008347 J53.528008
G02 X94.266137 Y54.154780 Z-0.125000 I-238.678635 J44.358440
G02 X93.229276 Y49.362837 Z-0.125000 I-262.164577 J54.217920
G02 X92.396487 Y45.880872 Z-0.125000 I-139.529763 J31.531054
G02 X91.786627 Y43.608837 Z-0.125000 I-76.254609 J19.250423
G02 X91.411535 Y42.364299 Z-0.125000 I-40.235594 J11.447838
G02 X89.953372 Y44.331095 Z-0.125000 I44.088168 J34.210465
G02 X87.776619 Y47.539172 Z-0.125000 I79.653783 J56.389397
G02 X85.213480 Y51.730257 Z-0.125000 I715.981113 J440.751537
G02 X82.207457 Y56.705519 Z-0.125000 I1008.103606 J612.485826
G02 X79.279155 Y61.814059 Z-0.125000 I5396.782151 J3096.920428
G02 X76.206280 Y67.186525 Z-0.125000 I5738.724231 J3285.927206
G01 X76.204072 Y67.190180 Z-0.125000
G01 X76.202153 Y67.193140 Z-0.125000
G02 X73.237760 Y72.586815 Z-0.125000 I965.990821 J534.425239
G02 X70.747711 Y77.183742 Z-0.125000 I690.634832 J377.073801
G01 X70.745594 Y77.187446 Z-0.125000
G01 X70.743870 Y77.190704 Z-0.125000
G01 X70.742499 Y77.192473 Z-0.125000
G02 X68.370761 Y81.828451 Z-0.125000 I605.075382 J312.477500
G02 X66.767552 Y85.034370 Z-0.125000 I299.023679 J151.538959
G02 X65.987668 Y86.647495 Z-0.125000 I99.869264 J49.278003
G02 X65.554709 Y87.594925 Z-0.125000 I34.514727 J16.345297
G02 X65.434227 Y87.898885 Z-0.125000 I3.977900 J1.752597
G03 X65.357822 Y88.107554 Z-0.125000 I-9.326739 J-3.296680
G02 X65.751189 Y88.147604 Z-0.125000 I3.456370 J-31.996851
G03 X66.245104 Y88.204180 Z-0.125000 I-1.263101 J13.211166
G01 X66.274044 Y88.208413 Z-0.125000
G01 X66.301949 Y88.215028 Z-0.125000
G01 X68.547804 Y88.727658 Z-0.125000
G03 X70.106130 Y89.176804 Z-0.125000 I-3.203079 J14.041063
G03 X71.089764 Y89.636130 Z-0.125000 I-1.798945 J5.135272
G03 X71.962839 Y90.224537 Z-0.125000 I-3.212868 J5.709167
G03 X72.481410 Y90.816937 Z-0.125000 I-1.384453 J1.735083
G03 X72.804707 Y91.335028 Z-0.125000 I-3.165018 J2.334942
G03 X72.965615 Y91.867014 Z-0.125000 I-1.329508 J0.692460
G01 X72.967732 Y91.888710 Z-0.125000
G01 X72.968790 Y91.910935 Z-0.125000
G03 X72.971693 Y92.324092 Z-0.125000 I-6.682084 J0.253534
G03 X72.938302 Y92.643698 Z-0.125000 I-2.004395 J-0.047861
G03 X72.604926 Y93.333087 Z-0.125000 I-1.430806 J-0.266610
G03 X71.965235 Y93.753703 Z-0.125000 I-1.072379 J-0.934177
G03 X71.247012 Y93.847922 Z-0.125000 I-0.619856 J-1.940516
G03 X70.356551 Y93.725816 Z-0.125000 I0.246990 J-5.109067
G03 X69.530094 Y93.495452 Z-0.125000 I2.006108 J-8.794851
G03 X66.311842 Y92.401869 Z-0.125000 I65.431219 J-197.836462
G02 X63.021097 Y91.458308 Z-0.125000 I-18.021273 J56.640508
G02 X55.537834 Y89.648036 Z-0.125000 I-72.891069 J284.943252
G02 X53.561060 Y89.221912 Z-0.125000 I-18.795900 J82.395349
G02 X51.576326 Y88.843413 Z-0.125000 I-16.881918 J83.130678
G03 X49.586931 Y88.466176 Z-0.125000 I16.373967 J-91.783996
G03 X47.938825 Y88.113243 Z-0.125000 I13.069699 J-65.056655
G03 X46.385892 Y87.836538 Z-0.125000 I9.822349 J-59.621489
G03 X45.248037 Y87.598549 Z-0.125000 I6.513693 J-33.981900
G03 X44.248245 Y87.457316 Z-0.125000 I9.033050 J-67.554493
G03 X43.892050 Y87.390296 Z-0.125000 I0.697798 J-4.688685
G03 X43.258669 Y87.016744 Z-0.125000 I0.269334 J-1.180418
G03 X42.855937 Y86.402740 Z-0.125000 I1.845564 J-1.649605
G03 X42.727702 Y86.032706 Z-0.125000 I1.815278 J-0.836321
G03 X42.659569 Y85.649816 Z-0.125000 I3.186856 J-0.764590
G01 X36.226895 Y83.476320 Z-0.125000
G03 X36.061641 Y83.744403 Z-0.125000 I-1.728305 J-0.880403
G03 X35.827435 Y83.979133 Z-0.125000 I-0.890552 J-0.654353
G03 X35.360187 Y84.179074 Z-0.125000 I-0.657717 J-0.891107
G03 X34.871939 Y84.183762 Z-0.125000 I-0.258356 J-1.479918
G03 X34.231526 Y84.120027 Z-0.125000 I0.073085 J-3.983692
G03 X33.573829 Y83.940372 Z-0.125000 I0.705747 J-3.877369
G01 X33.528355 Y83.924232 Z-0.125000
G01 X33.486495 Y83.900949 Z-0.125000
G02 X32.403999 Y83.336027 Z-0.125000 I-12.175691 J22.011319
G02 X29.326549 Y81.859215 Z-0.125000 I-80.999062 J164.844691
G02 X26.289230 Y80.595226 Z-0.125000 I-38.419648 J88.039740
G02 X21.887735 Y78.912104 Z-0.125000 I-72.400744 J182.736880
G02 X15.087207 Y76.505266 Z-0.125000 I-95.352681 J258.608406
G02 X11.389164 Y75.348488 Z-0.125000 I-26.034744 J76.739694
G03 X7.786358 Y74.392944 Z-0.125000 I67.195480 J-260.625192
G03 X6.966184 Y74.130480 Z-0.125000 I2.602487 J-9.545245
G03 X6.339893 Y73.756429 Z-0.125000 I0.685609 J-1.859285
G03 X5.857209 Y73.179648 Z-0.125000 I1.660737 J-1.880161
G03 X5.570045 Y72.324573 Z-0.125000 I1.203327 J-0.879877
G03 X5.714066 Y71.286742 Z-0.125000 I3.403288 J-0.056632
G03 X5.894151 Y70.817255 Z-0.125000 I3.263401 J0.982490
G03 X6.141946 Y70.429943 Z-0.125000 I1.616204 J0.761094
G03 X6.512727 Y70.121068 Z-0.125000 I1.043972 J0.876225
G03 X7.003391 Y69.974145 Z-0.125000 I0.565337 J0.995231
G01 X7.067470 Y69.969648 Z-0.125000
G01 X7.131548 Y69.978379 Z-0.125000
G03 X7.601844 Y70.051828 Z-0.125000 I-1.831370 J13.268573
G03 X8.229155 Y70.169566 Z-0.125000 I-4.273353 J24.498527
G01 X8.240008 Y70.172212 Z-0.125000
G01 X8.250342 Y70.174858 Z-0.125000
G03 X9.120917 Y70.438391 Z-0.125000 I-1.715107 J7.235532
G03 X10.781968 Y71.104021 Z-0.125000 I-11.971142 J32.278846
G02 X12.409515 Y71.724850 Z-0.125000 I8.076504 J-18.729338
G02 X13.619000 Y72.053318 Z-0.125000 I3.507492 J-10.524271
G01 X13.631401 Y72.055964 Z-0.125000
G01 X13.644321 Y72.059139 Z-0.125000
G02 X15.178086 Y72.160292 Z-0.125000 I1.038618 J-4.069709
G02 X15.884491 Y71.866919 Z-0.125000 I-0.165762 J-1.396289
G01 X15.896376 Y71.858188 Z-0.125000
G01 X15.908261 Y71.849457 Z-0.125000
G02 X16.356135 Y71.351248 Z-0.125000 I-0.906231 J-1.265087
G02 X17.598595 Y68.557145 Z-0.125000 I-13.753437 J-7.789070
G01 X18.152049 Y66.717472 Z-0.125000
G01 X18.158767 Y66.696306 Z-0.125000
G01 X18.166519 Y66.675139 Z-0.125000
G02 X18.571704 Y65.530357 Z-0.125000 I-24.422208 J-9.288097
G02 X19.295131 Y63.229871 Z-0.125000 I-93.421939 J-30.642132
G01 X19.298232 Y63.219553 Z-0.125000
G01 X19.302368 Y63.207646 Z-0.125000
G02 X20.051832 Y60.931488 Z-0.125000 I-101.104066 J-34.551725
G02 X21.163233 Y57.334089 Z-0.125000 I-248.273293 J-78.673378
G01 X21.165297 Y57.328003 Z-0.125000
G01 X21.167890 Y57.321389 Z-0.125000
G02 X22.049423 Y54.553069 Z-0.125000 I-164.519845 J-53.913566
G02 X23.736723 Y49.043353 Z-0.125000 I-1011.752455 J-312.853070
G02 X25.349027 Y43.481337 Z-0.125000 I-225.148334 J-68.280160
G02 X26.787694 Y38.041965 Z-0.125000 I-240.659262 J-66.562267
G02 X28.184160 Y32.299282 Z-0.125000 I-326.954069 J-82.547530
G02 X29.374615 Y26.983241 Z-0.125000 I-279.839564 J-65.457591
G02 X30.407938 Y21.738448 Z-0.125000 I-176.405584 J-37.479424
G02 X31.066499 Y17.674258 Z-0.125000 I-106.258070 J-19.303487
G01 X31.067557 Y17.668967 Z-0.125000
G01 X31.068615 Y17.663146 Z-0.125000
G02 X31.556336 Y13.671069 Z-0.125000 I-52.217574 J-8.405369
G02 X31.538353 Y12.606620 Z-0.125000 I-5.290462 J-0.442998
G02 X31.368702 Y12.295008 Z-0.125000 I-0.699115 J0.178631
G02 X29.680589 Y10.890958 Z-0.125000 I-6.211643 J5.751518
G02 X27.751031 Y9.839436 Z-0.125000 I-9.070393 J14.348151
G02 X24.333635 Y8.419806 Z-0.125000 I-19.239984 J41.492275
G03 X23.625329 Y7.959945 Z-0.125000 I0.661789 J-1.794745
G03 X23.182285 Y7.242094 Z-0.125000 I1.387893 J-1.352225
G03 X23.004973 Y6.610867 Z-0.125000 I2.242484 J-0.970432
G03 X23.053611 Y5.977070 Z-0.125000 I1.469510 J-0.205994
G03 X23.350856 Y5.396415 Z-0.125000 I1.737532 J0.523057
G03 X23.829273 Y4.914610 Z-0.125000 I2.110815 J1.617545
G03 X24.119885 Y4.649198 Z-0.125000 I1.725885 J1.597938
G03 X24.471611 Y4.454685 Z-0.125000 I0.814251 J1.057104
G00 Z5.000000

(End cutting path id: path16377)


(Footer)
M5
G00 X0.0000 Y0.0000
M2
(Using default footer. To add your own footer create file "footer" in the output dir.)
(end)
%