%
(Header)
(Generated by gcodetools from Inkscape.)
(Using default header. To add your own header create file "header" in the output dir.)
M3
(Header end.)
G21 (All units in mm)

(Start cutting path id: path9166)
(Change tool to Default tool)

G00 Z5.000000
G00 X24.979334 Y3.110308

G01 Z-0.125000 F100.0(Penetrate)
G02 X90.702117 Y30.027476 Z-0.125000 I145.519916 J-261.616113 F400.000000
G02 X180.347717 Y46.055503 Z-0.125000 I130.845645 J-473.116288
G02 X182.791536 Y39.746898 Z-0.125000 I-4.923784 J-5.535014
G02 X179.113164 Y33.600448 Z-0.125000 I-8.458499 J0.888134
G03 X172.558542 Y26.576501 Z-0.125000 I12.055611 J-17.820383
G03 X170.812891 Y19.293308 Z-0.125000 I11.310829 J-6.561800
G01 X170.812362 Y19.293308 Z-0.125000
G03 X172.944721 Y12.728160 Z-0.125000 I13.467197 J0.745275
G03 X179.113152 Y6.422751 Z-0.125000 I18.510263 J11.938226
G03 X199.198758 Y0.266766 Z-0.125000 I20.085609 J29.689448
G03 X219.284366 Y6.422748 Z-0.125000 I0.000002 J35.845433
G03 X228.492285 Y21.676938 Z-0.125000 I-11.994027 J17.646173
G03 X225.101585 Y29.390869 Z-0.125000 I-8.331604 J0.939963
G03 X219.749405 Y33.265249 Z-0.125000 I-540.536802 J-741.078805
G03 X219.644551 Y33.331734 Z-0.125000 I-0.626049 J-0.871433
G02 X216.560718 Y36.484719 Z-0.125000 I6.169021 J9.118311
G02 X215.494932 Y39.767516 Z-0.125000 I5.669253 J3.654974
G02 X216.118580 Y42.923765 Z-0.125000 I6.484195 J0.358517
G02 X218.486483 Y46.033805 Z-0.125000 I8.649788 J-4.129272
G02 X307.971455 Y29.989614 Z-0.125000 I-41.890735 J-491.210777
G02 X373.564441 Y3.138198 Z-0.125000 I-79.674817 J-288.172079
G02 X359.895843 Y34.764290 Z-0.125000 I119.158099 J70.266170
G02 X351.872226 Y77.473748 Z-0.125000 I214.559615 J62.416672
G02 X358.421969 Y79.798761 Z-0.125000 I5.716327 J-5.715262
G02 X364.825439 Y76.131197 Z-0.125000 I-0.939571 J-9.064393
G03 X372.022767 Y69.872927 Z-0.125000 I17.372629 J12.711621
G03 X379.705164 Y68.149771 Z-0.125000 I6.933984 J12.927079
G03 X386.627134 Y70.248607 Z-0.125000 I-0.767178 J14.993917
G03 X393.090389 Y76.131195 Z-0.125000 I-11.225083 J18.825019
G03 X399.401774 Y95.444492 Z-0.125000 I-26.394363 J19.313299
G03 X393.090392 Y114.757790 Z-0.125000 I-32.705747 J0.000002
G03 X379.889490 Y122.075071 Z-0.125000 I-14.562638 J-10.705719
G03 X366.688374 Y116.927694 Z-0.125000 I-1.234288 J-16.336183
G03 X366.120153 Y116.279580 Z-0.125000 I9.848496 J-9.207619
G03 X364.543290 Y114.280827 Z-0.125000 I49.455442 J-40.637958
G02 X362.167678 Y112.204225 Z-0.125000 I-6.196949 J4.692109
G02 X358.411885 Y111.114081 Z-0.125000 I-4.190641 J7.422858
G02 X355.091201 Y111.726226 Z-0.125000 I-0.372701 J7.291099
G02 X351.894956 Y113.990395 Z-0.125000 I3.967612 J8.989028
G02 X359.917854 Y156.561931 Z-0.125000 I223.292626 J-20.039275
G02 X373.434729 Y188.048454 Z-0.125000 I134.673848 J-39.169645
G03 X307.784725 Y214.911859 Z-0.125000 I-145.805093 J-262.674153
G03 X218.484429 Y230.944577 Z-0.125000 I-131.132067 J-473.677452
G03 X216.116574 Y227.834351 Z-0.125000 I6.283407 J-7.240090
G03 X215.492879 Y224.677772 Z-0.125000 I5.861301 J-2.798017
G03 X216.558903 Y221.395223 Z-0.125000 I6.732418 J0.372013
G03 X219.643013 Y218.242504 Z-0.125000 I9.255930 J5.969647
G02 X219.816738 Y218.145446 Z-0.125000 I-18.814139 J-33.879720
G02 X219.912766 Y218.078689 Z-0.125000 I-0.300708 J-0.535010
G01 X219.876074 Y218.032697 Z-0.125000
G02 X225.943674 Y211.171571 Z-0.125000 I-12.203073 J-16.905210
G02 X227.552837 Y204.602022 Z-0.125000 I-11.423567 J-6.279969
G02 X225.667694 Y198.085992 Z-0.125000 I-13.219216 J0.293722
G02 X219.282828 Y191.333536 Z-0.125000 I-18.549803 J11.145117
G02 X199.197221 Y185.177553 Z-0.125000 I-20.085608 J29.689456
G02 X179.111614 Y191.333539 Z-0.125000 I-0.000001 J35.845419
G02 X172.943188 Y197.638945 Z-0.125000 I12.341987 J18.243779
G02 X170.810824 Y204.204081 Z-0.125000 I11.334776 J7.310414
G02 X172.556669 Y211.487276 Z-0.125000 I13.055444 J0.721341
G02 X179.111615 Y218.511223 Z-0.125000 I18.612233 J-10.798860
G03 X182.842666 Y224.696679 Z-0.125000 I-4.856992 J7.147732
G03 X180.507397 Y230.966283 Z-0.125000 I-7.367486 J0.825515
G03 X90.861494 Y214.954678 Z-0.125000 I41.326279 J-490.338786
G03 X24.977269 Y188.021088 Z-0.125000 I80.013436 J-289.775634
G03 X11.460171 Y156.534394 Z-0.125000 I121.163537 J-70.659729
G03 X3.436965 Y113.962532 Z-0.125000 I215.261934 J-62.610805
G03 X6.633420 Y111.698324 Z-0.125000 I7.163149 J6.724076
G03 X9.954400 Y111.086218 Z-0.125000 I2.948209 J6.680459
G03 X13.415620 Y112.135425 Z-0.125000 I-0.382955 J7.497021
G03 X16.647535 Y115.076665 Z-0.125000 I-5.611865 J9.412750
G02 X16.716318 Y115.177033 Z-0.125000 I0.871669 J-0.523604
G02 X20.745996 Y120.323382 Z-0.125000 I708.744568 J-550.808164
G02 X28.779511 Y123.745968 Z-0.125000 I7.148469 J-5.639477
G02 X44.632405 Y114.729927 Z-0.125000 I-2.174927 J-22.269253
G02 X47.340866 Y110.138378 Z-0.125000 I-21.818488 J-15.964892
G02 X49.242462 Y104.919145 Z-0.125000 I-29.749466 J-13.795067
G01 X53.569849 Y106.685953 Z-0.125000
G03 X51.957909 Y111.531815 Z-0.125000 I-514.207404 J-168.356296
G03 X50.856834 Y114.713892 Z-0.125000 I-219.098698 J-74.031805
G03 X49.544034 Y118.283132 Z-0.125000 I-148.731533 J-52.678819
G03 X48.741717 Y120.258266 Z-0.125000 I-46.663215 J-17.804489
G03 X47.811852 Y122.221932 Z-0.125000 I-26.878491 J-11.525924
G03 X47.355755 Y122.923733 Z-0.125000 I-3.838201 J-1.995318
G03 X46.777833 Y123.411028 Z-0.125000 I-1.509215 J-1.203550
G03 X46.406975 Y123.446179 Z-0.125000 I-0.225985 J-0.410296
G03 X46.268307 Y123.394552 Z-0.125000 I0.546623 J-1.680239
G03 X45.858689 Y123.215701 Z-0.125000 I6.474854 J-15.387655
G01 X44.919211 Y122.910292 Z-0.125000
G01 X44.073782 Y122.635390 Z-0.125000
G02 X43.711522 Y122.609128 Z-0.125000 I-0.291762 J1.512909
G02 X43.652105 Y122.654440 Z-0.125000 I0.003002 J0.065549
G02 X43.606271 Y122.795258 Z-0.125000 I537.022068 J174.841339
G02 X43.484155 Y123.170695 Z-0.125000 I2834.099959 J922.321184
G02 X43.427194 Y123.573727 Z-0.125000 I1.117472 J0.363475
G02 X43.503788 Y123.748440 Z-0.125000 I0.257332 J-0.008667
G02 X43.731032 Y123.854370 Z-0.125000 I0.812458 J-1.446190
G02 X44.521812 Y124.131874 Z-0.125000 I6.410999 J-17.003447
G02 X45.323318 Y124.381040 Z-0.125000 I9.958320 J-30.619824
G02 X46.368729 Y124.680170 Z-0.125000 I15.979250 J-53.868443
G03 X47.464159 Y124.985161 Z-0.125000 I-274.732643 J988.873842
G03 X48.606838 Y125.304402 Z-0.125000 I-475.091872 J1702.727165
G02 X49.734086 Y125.671004 Z-0.125000 I359.825617 J-1104.495894
G03 X50.673378 Y125.976206 Z-0.125000 I-620.169174 J1910.249346
G01 X52.176646 Y126.465076 Z-0.125000
G03 X52.700377 Y126.684992 Z-0.125000 I-1.057217 J3.251362
G01 X52.709433 Y126.742572 Z-0.125000
G03 X52.882797 Y126.830046 Z-0.125000 I-0.197380 J0.606714
G03 X53.510417 Y127.314627 Z-0.125000 I-6.157734 J8.624108
G02 X54.167308 Y127.872702 Z-0.125000 I12.673614 J-14.252070
G02 X55.112904 Y128.614817 Z-0.125000 I23.329359 J-28.752529
G02 X56.140994 Y129.321519 Z-0.125000 I10.916389 J-14.779675
G02 X57.435243 Y130.097410 Z-0.125000 I14.393371 J-22.541911
G02 X58.821049 Y130.818761 Z-0.125000 I7.063619 J-11.878273
G02 X60.334295 Y131.403791 Z-0.125000 I6.121125 J-13.583377
G02 X64.044806 Y132.305545 Z-0.125000 I7.773933 J-23.903123
G02 X66.998491 Y132.495700 Z-0.125000 I2.443090 J-14.913673
G02 X68.772929 Y132.311082 Z-0.125000 I-0.431398 J-12.766072
G02 X70.349708 Y131.908139 Z-0.125000 I-1.835499 J-10.469161
G02 X73.726277 Y129.800550 Z-0.125000 I-2.612199 J-7.943596
G02 X75.883741 Y126.229410 Z-0.125000 I-6.580947 J-6.413081
G02 X76.494447 Y123.673127 Z-0.125000 I-15.652076 J-5.090431
G02 X76.698679 Y121.306200 Z-0.125000 I-17.145384 J-2.671679
G03 X84.340920 Y121.214577 Z-0.125000 I240.571589 J19747.366868
G03 X84.507509 Y121.282387 Z-0.125000 I0.002734 J0.231817
G03 X84.755802 Y121.603986 Z-0.125000 I-5.311894 J4.357744
G02 X85.016004 Y121.926277 Z-0.125000 I3.268092 J-2.372311
G02 X86.580673 Y123.399698 Z-0.125000 I11.051486 J-10.168399
G02 X88.526386 Y124.786556 Z-0.125000 I11.707746 J-14.367250
G02 X90.648244 Y125.864099 Z-0.125000 I7.395362 J-11.934764
G02 X92.980898 Y126.592127 Z-0.125000 I5.567597 J-13.737976
G02 X93.708443 Y126.722416 Z-0.125000 I1.884278 J-8.425462
G02 X94.700175 Y126.824669 Z-0.125000 I2.111095 J-15.614678
G02 X95.697099 Y126.869143 Z-0.125000 I1.335429 J-18.739238
G02 X96.666464 Y126.859832 Z-0.125000 I0.316199 J-17.545991
G02 X97.672685 Y126.858601 Z-0.125000 I0.477135 J-21.241016
G02 X98.498392 Y126.813821 Z-0.125000 I-0.351755 J-14.120968
G02 X99.359614 Y126.786316 Z-0.125000 I-0.227846 J-20.631123
G02 X99.778936 Y126.746140 Z-0.125000 I-0.260379 J-4.925994
G01 X99.824824 Y126.712846 Z-0.125000
G02 X99.817177 Y126.349768 Z-0.125000 I-1.539302 J-0.149199
G02 X99.768600 Y126.145358 Z-0.125000 I-0.795428 J0.081052
G03 X99.679199 Y125.854706 Z-0.125000 I2.131410 J-0.814669
G01 X104.138362 Y125.854705 Z-0.125000
G03 X104.181461 Y125.892864 Z-0.125000 I-1.407317 J1.632940
G02 X104.227762 Y125.933789 Z-0.125000 I1.466130 J-1.612060
G02 X105.127022 Y126.653168 Z-0.125000 I30.773279 J-37.546450
G02 X106.197668 Y127.471681 Z-0.125000 I40.893425 J-52.380658
G02 X107.282227 Y128.311709 Z-0.125000 I28.153900 J-35.229290
G02 X108.265761 Y129.024018 Z-0.125000 I21.436575 J-28.563778
G02 X109.339013 Y129.653243 Z-0.125000 I5.603745 J-8.328231
G02 X109.799001 Y129.799168 Z-0.125000 I0.679068 J-1.342617
G02 X110.235427 Y129.717087 Z-0.125000 I0.099246 J-0.673590
G02 X111.052156 Y129.085005 Z-0.125000 I-1.825549 J-3.202534
G02 X111.804085 Y128.255466 Z-0.125000 I-5.469711 J-5.713539
G02 X112.772983 Y126.892375 Z-0.125000 I-13.827408 J-10.854545
G02 X113.692748 Y125.515754 Z-0.125000 I-32.645316 J-22.806972
G02 X114.783711 Y123.743725 Z-0.125000 I-53.557185 J-34.194743
G02 X115.830684 Y121.944273 Z-0.125000 I-104.664637 J-62.101179
G02 X116.937587 Y119.967219 Z-0.125000 I-122.941865 J-70.130487
G02 X118.007486 Y118.022447 Z-0.125000 I-134.806268 J-75.429080
G02 X119.063558 Y116.036699 Z-0.125000 I-141.643534 J-76.603405
G03 X120.157139 Y114.052315 Z-0.125000 I762.695106 J419.022721
G03 X121.104777 Y112.343908 Z-0.125000 I588.231155 J325.169367
G03 X121.568045 Y113.426231 Z-0.125000 I-20.760890 J9.526619
G03 X122.307287 Y115.366456 Z-0.125000 I-65.916583 J26.225733
G03 X123.020027 Y117.341205 Z-0.125000 I-41.313266 J16.027056
G03 X123.693769 Y119.514014 Z-0.125000 I-49.020733 J16.391147
G03 X124.256753 Y121.717170 Z-0.125000 I-38.377753 J10.980384
G03 X124.660118 Y123.800054 Z-0.125000 I-34.039169 J7.672416
G03 X124.910698 Y125.906248 Z-0.125000 I-16.187498 J2.993876
G03 X124.847702 Y127.272210 Z-0.125000 I-6.836165 J0.369164
G03 X124.435442 Y128.556187 Z-0.125000 I-4.073091 J-0.599618
G03 X123.868953 Y129.174406 Z-0.125000 I-1.415273 J-0.728196
G03 X123.053385 Y129.545155 Z-0.125000 I-1.452836 J-2.113516
G03 X122.260780 Y129.586786 Z-0.125000 I-0.499716 J-1.948042
G03 X121.628647 Y129.478286 Z-0.125000 I1.959789 J-13.313596
G03 X121.241721 Y129.386788 Z-0.125000 I0.997614 J-5.082558
G03 X120.905125 Y129.315815 Z-0.125000 I0.405830 J-2.758336
G03 X120.474326 Y129.174407 Z-0.125000 I1.268170 J-4.590403
G02 X120.377985 Y129.175751 Z-0.125000 I-0.043982 J0.300859
G02 X120.166850 Y129.228673 Z-0.125000 I0.258612 J1.479376
G02 X119.997477 Y129.379907 Z-0.125000 I0.235918 J0.434676
G02 X119.913636 Y129.590914 Z-0.125000 I0.404481 J0.282875
G02 X119.991769 Y129.771948 Z-0.125000 I0.185477 J0.027327
G02 X120.909441 Y130.286477 Z-0.125000 I3.058997 J-4.380170
G02 X121.952032 Y130.709594 Z-0.125000 I8.381753 J-19.157191
G02 X123.322215 Y131.190824 Z-0.125000 I12.218822 J-32.598857
G02 X124.709843 Y131.621949 Z-0.125000 I14.455017 J-44.076539
G02 X126.050216 Y131.991797 Z-0.125000 I11.983959 J-40.817490
G02 X127.395583 Y132.361530 Z-0.125000 I9.972755 J-33.655764
G02 X127.927105 Y132.467756 Z-0.125000 I1.304860 J-5.146228
G02 X128.208654 Y132.501920 Z-0.125000 I0.806195 J-5.466681
G02 X128.456272 Y132.517868 Z-0.125000 I0.382862 J-4.014260
G02 X129.179125 Y132.456828 Z-0.125000 I0.104688 J-3.070868
G02 X129.653097 Y132.272414 Z-0.125000 I-0.305069 J-1.485372
G02 X130.134983 Y131.831655 Z-0.125000 I-0.839127 J-1.401232
G02 X130.341429 Y131.325708 Z-0.125000 I-0.924955 J-0.672510
G02 X130.150650 Y130.223832 Z-0.125000 I-7.665909 J0.759823
G02 X129.624675 Y128.393567 Z-0.125000 I-25.850783 J6.438201
G01 X136.064597 Y128.393567 Z-0.125000
G02 X136.819304 Y129.295621 Z-0.125000 I15.883485 J-12.522236
G02 X137.624709 Y130.090102 Z-0.125000 I6.371779 J-5.653901
G02 X139.826215 Y131.693299 Z-0.125000 I10.324750 J-11.864779
G02 X142.107126 Y132.793828 Z-0.125000 I7.028224 J-11.652482
G02 X144.542780 Y133.544019 Z-0.125000 I7.725416 J-20.753176
G02 X146.380768 Y133.844912 Z-0.125000 I2.820891 J-11.467180
G02 X147.144054 Y133.892170 Z-0.125000 I1.476795 J-17.664582
G02 X147.825124 Y133.903305 Z-0.125000 I0.573304 J-14.231440
G02 X148.506005 Y133.880191 Z-0.125000 I-0.079220 J-12.373581
G02 X149.108251 Y133.824777 Z-0.125000 I-0.613402 J-9.966834
G02 X150.343323 Y133.670901 Z-0.125000 I-0.961411 J-12.750226
G02 X151.220270 Y133.456318 Z-0.125000 I-1.152414 J-6.608841
G02 X152.107145 Y133.179920 Z-0.125000 I-1.722953 J-7.089473
G02 X152.602613 Y132.927151 Z-0.125000 I-0.940951 J-2.456396
G02 X153.051903 Y132.578563 Z-0.125000 I-1.082945 J-1.859633
G02 X153.144183 Y132.377822 Z-0.125000 I-0.230934 J-0.227741
G01 X153.135552 Y132.360898 Z-0.125000
G01 X153.126086 Y132.342686 Z-0.125000
G01 X158.458062 Y132.342685 Z-0.125000
G02 X158.457769 Y132.514122 Z-0.125000 I4.513900 J0.093431
G03 X158.457004 Y132.682199 Z-0.125000 I-3.849062 J0.066512
G03 X158.323271 Y136.234671 Z-0.125000 I-143.907156 J-3.638638
G03 X158.156247 Y138.701994 Z-0.125000 I-70.107165 J-3.506547
G03 X157.975272 Y141.166330 Z-0.125000 I-153.170510 J-10.009658
G03 X157.870476 Y142.202558 Z-0.125000 I-26.708199 J-2.177652
G03 X157.652185 Y143.472476 Z-0.125000 I-21.216661 J-2.993283
G03 X157.531478 Y143.873773 Z-0.125000 I-2.238002 J-0.454371
G03 X157.353064 Y144.305280 Z-0.125000 I-4.876847 J-1.763782
G03 X157.166126 Y144.655123 Z-0.125000 I-3.350643 J-1.565549
G03 X156.856029 Y145.029660 Z-0.125000 I-1.321670 J-0.778630
G03 X156.509318 Y145.231314 Z-0.125000 I-0.688486 J-0.784856
G03 X156.148047 Y145.386533 Z-0.125000 I-1.059728 J-1.968470
G03 X155.811686 Y145.460758 Z-0.125000 I-0.536012 J-1.629770
G03 X155.515215 Y145.477621 Z-0.125000 I-0.249572 J-1.773190
G03 X155.268567 Y145.446815 Z-0.125000 I0.033246 J-1.268964
G02 X155.107812 Y145.480351 Z-0.125000 I-0.009078 J0.358535
G02 X155.068579 Y145.540348 Z-0.125000 I0.028766 J0.061636
G02 X155.173487 Y146.184754 Z-0.125000 I1.758703 J0.044430
G02 X155.484573 Y146.687566 Z-0.125000 I1.358463 J-0.492834
G02 X155.972528 Y147.019575 Z-0.125000 I1.010666 J-0.960800
G02 X156.658147 Y147.161956 Z-0.125000 I0.735213 J-1.818386
G03 X158.089435 Y147.209959 Z-0.125000 I-2.192710 J86.740653
G03 X159.619209 Y147.285979 Z-0.125000 I-4.062155 J97.174157
G03 X161.147366 Y147.389483 Z-0.125000 I-4.355610 J75.640363
G03 X162.429890 Y147.505086 Z-0.125000 I-4.112469 J52.796619
G03 X163.507851 Y147.662598 Z-0.125000 I-2.161920 J18.562802
G03 X164.397213 Y147.851320 Z-0.125000 I-2.261679 J12.848263
G03 X165.326429 Y148.085566 Z-0.125000 I-7.799460 J32.899266
G03 X165.624013 Y148.178948 Z-0.125000 I-0.937586 J3.508695
G02 X165.697928 Y148.188325 Z-0.125000 I0.234445 J-1.552013
G02 X165.757855 Y148.192389 Z-0.125000 I0.088420 J-0.860013
G01 X165.756797 Y148.191860 Z-0.125000
G02 X165.961606 Y148.141344 Z-0.125000 I0.013553 J-0.385495
G02 X166.021899 Y148.040446 Z-0.125000 I-0.059332 J-0.103918
G02 X166.056643 Y147.890024 Z-0.125000 I-0.607955 J-0.219650
G02 X166.085976 Y147.448750 Z-0.125000 I-5.373562 J-0.578800
G02 X166.025553 Y147.188716 Z-0.125000 I-0.532076 J-0.013401
G02 X165.850332 Y146.998133 Z-0.125000 I-0.443501 J0.231911
G02 X165.599961 Y146.858563 Z-0.125000 I-1.344835 J2.118113
G02 X165.313413 Y146.737682 Z-0.125000 I-1.300275 J2.682236
G01 X164.725852 Y146.525293 Z-0.125000
G03 X164.504202 Y146.435828 Z-0.125000 I0.164956 J-0.727982
G03 X164.385304 Y146.319103 Z-0.125000 I0.187871 J-0.310287
G03 X164.258113 Y145.996194 Z-0.125000 I0.787474 J-0.496683
G03 X164.036488 Y144.482521 Z-0.125000 I17.742485 J-3.370838
G03 X163.898892 Y142.945104 Z-0.125000 I55.776622 J-5.766773
G03 X163.740382 Y140.571649 Z-0.125000 I134.607764 J-10.181742
G03 X163.658571 Y138.247300 Z-0.125000 I351.635499 J-13.540170
G03 X163.575017 Y135.380236 Z-0.125000 I522.522956 J-16.662597
G03 X163.561282 Y132.514031 Z-0.125000 I321.476071 J-2.973643
G03 X163.572900 Y129.599695 Z-0.125000 I337.265735 J-0.112710
G01 X163.624059 Y129.551647 Z-0.125000
G02 X164.608536 Y130.443002 Z-0.125000 I20.472809 J-21.622284
G02 X165.799637 Y131.434740 Z-0.125000 I26.451442 J-30.557680
G02 X167.041181 Y132.409158 Z-0.125000 I14.694326 J-17.444448
G02 X168.321964 Y133.277008 Z-0.125000 I12.928776 J-17.701424
G02 X169.722585 Y134.071533 Z-0.125000 I7.923757 J-12.336533
G02 X171.151769 Y134.682608 Z-0.125000 I6.067516 J-12.213896
G02 X172.646686 Y135.128874 Z-0.125000 I3.317098 J-8.384722
G02 X174.150037 Y135.301680 Z-0.125000 I1.719504 J-8.333374
G02 X175.902275 Y135.190456 Z-0.125000 I0.250520 J-9.911406
G02 X177.472833 Y134.792674 Z-0.125000 I-1.279977 J-8.353110
G02 X178.983810 Y134.142344 Z-0.125000 I-2.464484 J-7.806445
G02 X180.278865 Y133.233589 Z-0.125000 I-3.672588 J-6.610923
G02 X181.358778 Y132.076142 Z-0.125000 I-5.039483 J-5.784413
G02 X182.221383 Y130.664246 Z-0.125000 I-6.678548 J-5.049748
G02 X182.764231 Y129.154356 Z-0.125000 I-6.164233 J-3.068745
G02 X182.997563 Y127.324382 Z-0.125000 I-8.863087 J-2.059953
G02 X182.962021 Y125.545269 Z-0.125000 I-19.662515 J-0.497111
G02 X182.781554 Y123.879637 Z-0.125000 I-19.581828 J1.279053
G01 X187.609170 Y123.879637 Z-0.125000
G02 X187.857627 Y124.837937 Z-0.125000 I17.974451 J-4.148848
G02 X188.167275 Y125.710025 Z-0.125000 I7.334274 J-2.113124
G02 X189.138968 Y127.637023 Z-0.125000 I15.246944 J-6.479816
G02 X190.197128 Y129.157363 Z-0.125000 I10.536623 J-6.205104
G02 X191.510713 Y130.562175 Z-0.125000 I11.742860 J-9.663741
G02 X192.789737 Y131.600103 Z-0.125000 I7.643915 J-8.112461
G02 X194.183750 Y132.547820 Z-0.125000 I14.555646 J-19.911067
G02 X195.257287 Y133.157097 Z-0.125000 I7.057887 J-11.185462
G02 X195.767488 Y133.422923 Z-0.125000 I4.635570 J-8.274556
G02 X196.510442 Y133.762226 Z-0.125000 I8.230880 J-17.039653
G02 X197.317341 Y134.065023 Z-0.125000 I6.814504 J-16.932879
G02 X198.208012 Y134.353940 Z-0.125000 I7.096447 J-20.359535
G02 X199.161343 Y134.593053 Z-0.125000 I4.416490 J-15.588338
G02 X200.197556 Y134.789048 Z-0.125000 I3.958661 J-18.092013
G02 X201.296104 Y134.940638 Z-0.125000 I1.887898 J-9.624999
G02 X202.426362 Y134.969388 Z-0.125000 I0.825599 J-10.225556
G02 X204.526334 Y134.767920 Z-0.125000 I-0.477483 J-16.022120
G02 X206.507768 Y134.304330 Z-0.125000 I-2.396073 J-14.707312
G02 X208.421435 Y133.524158 Z-0.125000 I-3.127717 J-10.408986
G02 X210.010917 Y132.470317 Z-0.125000 I-4.295975 J-8.205118
G02 X211.329491 Y131.147404 Z-0.125000 I-4.876491 J-6.179077
G02 X212.390618 Y129.434856 Z-0.125000 I-7.214406 J-5.655202
G02 X212.933298 Y127.770467 Z-0.125000 I-6.122697 J-2.916995
G02 X213.152845 Y125.666076 Z-0.125000 I-12.723195 J-2.391034
G01 X218.633650 Y125.666076 Z-0.125000
G02 X218.713816 Y126.544699 Z-0.125000 I92.893279 J-8.032649
G03 X218.792813 Y127.437039 Z-0.125000 I-60.074849 J5.767971
G03 X219.066021 Y130.488309 Z-0.125000 I-204.344704 J19.834753
G03 X219.257385 Y133.098702 Z-0.125000 I-150.563897 J12.349782
G03 X219.449211 Y136.302956 Z-0.125000 I-339.177689 J21.913101
G03 X219.542640 Y138.276693 Z-0.125000 I-126.938239 J6.997883
G03 X219.638971 Y140.249068 Z-0.125000 I-62.656078 J4.048655
G03 X219.647543 Y141.437741 Z-0.125000 I-22.970119 J0.760009
G03 X219.529453 Y143.057321 Z-0.125000 I-17.409069 J-0.455267
G03 X219.390196 Y143.582314 Z-0.125000 I-1.934238 J-0.232101
G03 X219.134959 Y144.111187 Z-0.125000 I-3.140983 J-1.189827
G03 X218.899269 Y144.406037 Z-0.125000 I-1.185745 J-0.706209
G03 X218.546889 Y144.674337 Z-0.125000 I-1.266890 J-1.298354
G03 X218.231608 Y144.795678 Z-0.125000 I-0.531265 J-0.910114
G03 X217.936564 Y144.889293 Z-0.125000 I-0.738571 J-1.816001
G03 X217.646114 Y144.932103 Z-0.125000 I-0.406079 J-1.748384
G03 X217.401149 Y144.986572 Z-0.125000 I-0.755624 J-2.820223
G03 X217.205832 Y145.010137 Z-0.125000 I-0.308832 J-1.738533
G02 X217.094533 Y145.051662 Z-0.125000 I0.012964 J0.204661
G02 X217.064237 Y145.118140 Z-0.125000 I0.046835 J0.061487
G02 X217.577873 Y146.279722 Z-0.125000 I1.839057 J-0.118853
G02 X218.549418 Y146.655515 Z-0.125000 I0.891625 J-0.861363
G02 X219.583519 Y146.578169 Z-0.125000 I-3.292777 J-50.975046
G02 X220.961160 Y146.450357 Z-0.125000 I-7.606547 J-89.476932
G01 X223.326907 Y146.297396 Z-0.125000
G03 X223.918759 Y146.270814 Z-0.125000 I0.958693 J14.743375
G03 X224.562491 Y146.266908 Z-0.125000 I0.425940 J17.149461
G02 X225.259204 Y146.310084 Z-0.125000 I1.735986 J-22.369598
G02 X225.902463 Y146.328918 Z-0.125000 I0.873344 J-18.834375
G03 X226.549245 Y146.390246 Z-0.125000 I-4.476857 J50.655324
G03 X227.098256 Y146.449840 Z-0.125000 I-3.864111 J38.156630
G03 X227.643064 Y146.531054 Z-0.125000 I-0.978251 J8.430384
G03 X227.899759 Y146.596086 Z-0.125000 I-0.351309 J1.925821
G02 X228.064445 Y146.567108 Z-0.125000 I0.043240 J-0.236722
G02 X228.185527 Y146.429171 Z-0.125000 I-0.146633 J-0.250827
G02 X228.278537 Y146.211183 Z-0.125000 I-0.567464 J-0.370959
G02 X228.301801 Y145.926359 Z-0.125000 I-0.956203 J-0.221464
G02 X228.281064 Y145.640752 Z-0.125000 I-0.827334 J-0.083487
G02 X228.167959 Y145.390990 Z-0.125000 I-0.744011 J0.186437
G02 X228.019821 Y145.194771 Z-0.125000 I-0.553982 J0.264206
G02 X227.853247 Y145.114003 Z-0.125000 I-0.228639 J0.259389
G02 X227.554228 Y145.095212 Z-0.125000 I-0.397878 J3.942814
G02 X227.308063 Y145.100060 Z-0.125000 I-0.068820 J2.757866
G03 X227.113780 Y145.087305 Z-0.125000 I-0.048547 J-0.746567
G03 X226.556169 Y144.950716 Z-0.125000 I1.266235 J-6.375756
G03 X226.355199 Y144.810762 Z-0.125000 I0.131989 J-0.403803
G03 X226.070928 Y144.338348 Z-0.125000 I1.687154 J-1.336966
G03 X225.885220 Y143.843935 Z-0.125000 I2.784570 J-1.328009
G03 X225.620824 Y142.734311 Z-0.125000 I13.837530 J-3.883446
G03 X225.421531 Y141.656368 Z-0.125000 I31.190964 J-6.324073
G03 X225.137650 Y139.845596 Z-0.125000 I89.606134 J-14.975521
G03 X224.890448 Y138.078775 Z-0.125000 I102.042996 J-15.177876
G03 X224.552155 Y135.379710 Z-0.125000 I237.523515 J-31.141215
G03 X224.277651 Y133.219038 Z-0.125000 I173.505791 J-23.140922
G03 X224.018855 Y130.959817 Z-0.125000 I185.256981 J-22.365814
G02 X223.813254 Y128.746286 Z-0.125000 I-188.264705 J16.370402
G02 X223.590973 Y126.631919 Z-0.125000 I-169.410950 J16.741129
G02 X223.402852 Y124.516154 Z-0.125000 I-1137.410510 J100.065283
G02 X223.237505 Y122.695737 Z-0.125000 I-938.581763 J84.332973
G01 X223.037001 Y119.590480 Z-0.125000
G01 X222.849414 Y116.683184 Z-0.125000
G03 X222.874185 Y115.256989 Z-0.125000 I15.034111 J-0.452182
G03 X222.998242 Y114.396494 Z-0.125000 I5.540097 J0.359518
G03 X223.336550 Y113.685111 Z-0.125000 I1.875408 J0.455742
G03 X224.184219 Y112.834817 Z-0.125000 I3.567520 J2.708829
G03 X225.236354 Y112.242855 Z-0.125000 I2.625889 J3.436182
G03 X226.308120 Y112.004898 Z-0.125000 I1.302483 J3.333806
G03 X227.191525 Y112.007274 Z-0.125000 I0.424045 J6.564262
G03 X228.147803 Y112.133591 Z-0.125000 I-0.548512 J7.835417
G03 X229.090688 Y112.353972 Z-0.125000 I-2.521674 J12.916035
G03 X229.911004 Y112.614180 Z-0.125000 I-2.780094 J10.187478
G03 X230.395767 Y112.799716 Z-0.125000 I-5.006615 J13.807234
G03 X230.814307 Y112.975390 Z-0.125000 I-5.979437 J14.832357
G02 X230.428156 Y113.943085 Z-0.125000 I10.029252 J4.562985
G02 X230.121326 Y114.996463 Z-0.125000 I10.599135 J3.658711
G02 X229.853025 Y117.036211 Z-0.125000 I12.385958 J2.666727
G02 X229.911004 Y119.237551 Z-0.125000 I14.514501 J0.719148
G02 X230.390253 Y121.778534 Z-0.125000 I15.283788 J-1.566955
G02 X231.170358 Y123.775264 Z-0.125000 I10.164503 J-2.820429
G02 X232.278828 Y125.627137 Z-0.125000 I14.751955 J-7.572349
G02 X233.444123 Y127.067052 Z-0.125000 I10.052081 J-6.943464
G02 X234.855957 Y128.373254 Z-0.125000 I11.016513 J-10.491320
G02 X236.206747 Y129.316012 Z-0.125000 I7.037227 J-8.643895
G02 X237.665850 Y130.160500 Z-0.125000 I13.068453 J-20.896847
G02 X238.780753 Y130.690602 Z-0.125000 I6.237898 J-11.681982
G02 X239.308774 Y130.918699 Z-0.125000 I4.009054 J-8.555340
G02 X240.074214 Y131.203233 Z-0.125000 I7.019874 J-17.712737
G02 X240.901057 Y131.446861 Z-0.125000 I5.551637 J-17.316594
G02 X241.810544 Y131.670910 Z-0.125000 I5.713222 J-21.233823
G02 X242.778464 Y131.840359 Z-0.125000 I3.270693 J-15.833526
G02 X243.825926 Y131.960814 Z-0.125000 I2.642219 J-18.361934
G02 X244.932568 Y132.032489 Z-0.125000 I1.187658 J-9.758127
G02 X246.061966 Y131.979335 Z-0.125000 I0.084339 J-10.233016
G02 X248.141804 Y131.626444 Z-0.125000 I-1.633814 J-15.934671
G02 X250.084460 Y131.020722 Z-0.125000 I-3.457368 J-14.506464
G02 X251.936523 Y130.104445 Z-0.125000 I-3.874732 J-10.161878
G02 X253.445499 Y128.938688 Z-0.125000 I-4.872990 J-7.867181
G02 X254.665173 Y127.523817 Z-0.125000 I-5.313163 J-5.813295
G02 X255.599890 Y125.738868 Z-0.125000 I-7.601037 J-5.117621
G02 X256.030776 Y123.992692 Z-0.125000 I-6.447311 J-2.517185
G02 X256.087197 Y121.804750 Z-0.125000 I-12.683747 J-1.421780
G01 X259.606883 Y121.029600 Z-0.125000
G02 X259.932933 Y121.852438 Z-0.125000 I11.686103 J-4.154607
G02 X260.295212 Y122.558178 Z-0.125000 I5.930511 J-2.598473
G02 X261.334380 Y123.972411 Z-0.125000 I10.295562 J-6.476198
G02 X262.394309 Y125.020577 Z-0.125000 I6.675351 J-5.690272
G02 X263.650711 Y125.888735 Z-0.125000 I7.206376 J-9.085870
G02 X264.831372 Y126.477849 Z-0.125000 I4.461821 J-7.464418
G02 X266.081082 Y127.001965 Z-0.125000 I13.409976 J-30.223009
G02 X267.076204 Y127.365659 Z-0.125000 I7.431651 J-18.790863
G02 X267.714976 Y127.534787 Z-0.125000 I2.215724 J-7.077615
G02 X268.527789 Y127.681386 Z-0.125000 I2.451506 J-11.265673
G02 X269.407093 Y127.809572 Z-0.125000 I2.311704 J-12.777465
G02 X270.361775 Y127.885010 Z-0.125000 I1.667453 J-15.023438
G02 X271.207957 Y127.947163 Z-0.125000 I1.732164 J-17.791255
G02 X272.077440 Y127.968724 Z-0.125000 I0.869482 J-17.520906
G01 X272.326519 Y127.968724 Z-0.125000
G02 X273.322305 Y127.922303 Z-0.125000 I-0.163846 J-14.218387
G02 X274.202892 Y127.815239 Z-0.125000 I-0.919584 J-11.238324
G02 X277.204912 Y127.117363 Z-0.125000 I-3.613335 J-22.349073
G02 X279.065646 Y126.329020 Z-0.125000 I-2.838308 J-9.289414
G02 X280.782337 Y125.251327 Z-0.125000 I-8.809950 J-15.939776
G02 X281.354928 Y124.707917 Z-0.125000 I-1.600910 J-2.260252
G03 X281.931556 Y124.543534 Z-0.125000 I2.007962 J5.950052
G03 X283.427675 Y124.222697 Z-0.125000 I9.324000 J39.830693
G03 X284.933576 Y123.942494 Z-0.125000 I17.077120 J87.591308
G03 X286.637813 Y123.653737 Z-0.125000 I19.993480 J112.827213
G01 X289.855704 Y123.133354 Z-0.125000
G01 X291.681435 Y122.838264 Z-0.125000
G01 X292.451400 Y123.038262 Z-0.125000
G02 X293.240510 Y123.215187 Z-0.125000 I3.032528 J-11.677312
G03 X293.986196 Y123.363303 Z-0.125000 I-7.818624 J41.313657
G01 X294.949968 Y127.266941 Z-0.125000
G01 X294.932029 Y127.262045 Z-0.125000
G01 X294.914831 Y127.260856 Z-0.125000
G02 X294.789979 Y127.325926 Z-0.125000 I0.055120 J0.258072
G02 X294.282820 Y127.849951 Z-0.125000 I4.851700 J5.202973
G02 X293.861792 Y128.451093 Z-0.125000 I24.007788 J17.262588
G02 X293.397604 Y129.148579 Z-0.125000 I30.452869 J20.770094
G02 X292.949226 Y129.856589 Z-0.125000 I31.102681 J20.193122
G02 X292.571283 Y130.485970 Z-0.125000 I25.075658 J15.486074
G02 X292.309336 Y131.163892 Z-0.125000 I5.055770 J2.343100
G02 X292.300508 Y131.351554 Z-0.125000 I0.353402 J0.110663
G02 X292.420026 Y131.539271 Z-0.125000 I0.311166 J-0.066211
G02 X293.082882 Y131.942211 Z-0.125000 I2.332732 J-3.090773
G02 X293.830664 Y132.326359 Z-0.125000 I10.979644 J-20.453054
G02 X294.661599 Y132.717361 Z-0.125000 I12.166189 J-24.776462
G02 X295.567750 Y133.107077 Z-0.125000 I7.475128 J-16.132536
G02 X296.316277 Y133.375221 Z-0.125000 I4.266285 J-10.730536
G02 X297.136786 Y133.641808 Z-0.125000 I8.377695 J-24.389142
G02 X297.288833 Y133.673380 Z-0.125000 I0.245868 J-0.802157
G02 X297.488271 Y133.534242 Z-0.125000 I-0.239913 J-0.556392
G02 X297.948757 Y132.977816 Z-0.125000 I-3.838259 J-3.645219
G02 X298.403531 Y132.356373 Z-0.125000 I-8.714048 J-6.854084
G02 X298.871704 Y131.620265 Z-0.125000 I-11.814658 J-8.031187
G02 X299.299730 Y130.859330 Z-0.125000 I-16.007814 J-9.505246
G02 X299.629259 Y130.196594 Z-0.125000 I-11.875820 J-6.318257
G02 X299.890815 Y129.518666 Z-0.125000 I-5.017841 J-2.325384
G02 X299.899531 Y129.331009 Z-0.125000 I-0.354024 J-0.110475
G02 X299.782632 Y129.139117 Z-0.125000 I-0.331726 J0.070531
G02 X299.165735 Y128.730008 Z-0.125000 I-2.338612 J2.856735
G02 X298.475098 Y128.388025 Z-0.125000 I-7.074462 J13.418538
G02 X297.597337 Y128.002933 Z-0.125000 I-9.633755 J20.765842
G02 X296.763216 Y127.694088 Z-0.125000 I-6.906360 J17.371733
G02 X295.963349 Y127.441725 Z-0.125000 I-5.406365 J15.741746
G02 X295.284556 Y127.281165 Z-0.125000 I-1.375034 J4.298051
G02 X294.998016 Y127.275328 Z-0.125000 I-0.164831 J1.055549
G01 X294.034773 Y123.373754 Z-0.125000
G03 X294.685996 Y123.519228 Z-0.125000 I-4.130845 J20.022291
G02 X295.306520 Y123.642994 Z-0.125000 I1.886971 J-7.843256
G02 X296.674995 Y123.829001 Z-0.125000 I2.361264 J-12.245070
G02 X297.207182 Y123.794389 Z-0.125000 I0.147279 J-1.844137
G02 X297.655769 Y123.589682 Z-0.125000 I-0.236739 J-1.112647
G02 X297.859856 Y123.301919 Z-0.125000 I-0.351281 J-0.465388
G02 X297.936029 Y122.966366 Z-0.125000 I-1.033872 J-0.411119
G02 X297.908963 Y122.584660 Z-0.125000 I-1.380115 J-0.093950
G01 X297.868138 Y122.391382 Z-0.125000
G02 X297.743145 Y121.914582 Z-0.125000 I-5.152467 J1.095937
G02 X297.394269 Y120.876218 Z-0.125000 I-24.950153 J7.805117
G03 X297.026717 Y119.843014 Z-0.125000 I154.328277 J-55.482695
G03 X296.501299 Y118.339418 Z-0.125000 I332.509978 J-117.036116
G03 X296.037172 Y116.821587 Z-0.125000 I120.123250 J-37.561534
G03 X295.451220 Y114.826464 Z-0.125000 I208.028557 J-62.179970
G03 X294.913400 Y112.818492 Z-0.125000 I52.079266 J-15.025057
G03 X294.371190 Y110.460837 Z-0.125000 I71.272916 J-17.632402
G01 X293.878192 Y108.142107 Z-0.125000
G03 X293.674764 Y107.125474 Z-0.125000 I41.962042 J-8.925268
G03 X293.505076 Y106.151539 Z-0.125000 I37.632600 J-7.058442
G03 X293.432767 Y105.224892 Z-0.125000 I5.933882 J-0.929184
G03 X293.505076 Y104.485484 Z-0.125000 I3.800225 J-0.001605
G03 X293.739336 Y103.790515 Z-0.125000 I2.776546 J0.548953
G03 X294.138647 Y103.189448 Z-0.125000 I2.474637 J1.210822
G03 X294.697495 Y102.791151 Z-0.125000 I1.384067 J1.350769
G03 X295.698764 Y102.453562 Z-0.125000 I1.953689 J4.140875
G03 X296.233186 Y102.362065 Z-0.125000 I1.411596 J6.638516
G03 X296.927092 Y102.293356 Z-0.125000 I1.458008 J11.186392
G03 X297.633000 Y102.312361 Z-0.125000 I0.000001 J13.119443
G03 X298.254667 Y102.364159 Z-0.125000 I-0.572940 J10.632795
G03 X298.921391 Y102.440429 Z-0.125000 I-1.195956 J13.406802
G03 X299.399810 Y102.524364 Z-0.125000 I-0.964777 J6.904563
G03 X299.419950 Y102.528410 Z-0.125000 I-0.042650 J0.264431
G02 X299.439604 Y102.532566 Z-0.125000 I0.083389 J-0.345808
G01 X299.443308 Y102.536270 Z-0.125000
G02 X300.403205 Y103.456608 Z-0.125000 I1478.399297 J-1540.984048
G02 X301.155877 Y104.177005 Z-0.125000 I644.300191 J-672.413311
G02 X301.981181 Y104.917521 Z-0.125000 I22.360303 J-24.090365
G02 X302.283956 Y105.155250 Z-0.125000 I2.585082 J-2.980723
G02 X302.570135 Y105.205751 Z-0.125000 I0.211981 J-0.365136
G02 X302.869452 Y105.050845 Z-0.125000 I-0.099916 J-0.559692
G02 X303.018417 Y104.811116 Z-0.125000 I-0.253323 J-0.323558
G02 X302.959384 Y104.618330 Z-0.125000 I-0.204884 J-0.042694
G03 X302.850288 Y104.535778 Z-0.125000 I0.283288 J-0.487743
G03 X302.752665 Y104.417802 Z-0.125000 I0.484403 J-0.500212
G03 X302.682692 Y104.280229 Z-0.125000 I0.586575 J-0.384929
G03 X302.578014 Y103.953247 Z-0.125000 I3.183675 J-1.199450
G03 X302.590127 Y103.542639 Z-0.125000 I0.696771 J-0.184926
G03 X303.002776 Y102.664937 Z-0.125000 I3.813373 J1.256989
G03 X303.642444 Y101.877412 Z-0.125000 I7.739818 J5.633130
G03 X304.583053 Y100.917257 Z-0.125000 I12.486699 J11.291704
G03 X305.611196 Y100.086306 Z-0.125000 I10.119626 J11.469549
G03 X306.847517 Y99.243449 Z-0.125000 I11.665532 J15.783110
G03 X308.161078 Y98.546242 Z-0.125000 I5.491717 J8.760582
G03 X309.454591 Y98.092087 Z-0.125000 I3.539758 J8.012692
G03 X310.991169 Y97.962525 Z-0.125000 I1.134231 J4.275203
G03 X312.177419 Y98.340663 Z-0.125000 I-0.262432 J2.873019
G03 X313.139574 Y99.177282 Z-0.125000 I-1.431933 J2.618372
G03 X313.765449 Y100.474370 Z-0.125000 I-3.055103 J2.273701
G03 X313.860283 Y102.075352 Z-0.125000 I-3.898668 J1.034237
G03 X313.373734 Y103.234928 Z-0.125000 I-2.455613 J-0.348493
G03 X312.440455 Y104.213439 Z-0.125000 I-4.973371 J-3.809151
G03 X311.077229 Y105.172817 Z-0.125000 I-6.138890 J-7.274816
G03 X309.634781 Y105.949166 Z-0.125000 I-10.484791 J-17.752423
G03 X307.865529 Y106.740157 Z-0.125000 I-12.652734 J-25.926865
G02 X306.162903 Y107.573457 Z-0.125000 I9.765375 J22.109031
G02 X304.691057 Y108.451166 Z-0.125000 I9.382303 J17.406291
G02 X303.426301 Y109.499938 Z-0.125000 I4.496321 J6.709285
G02 X302.518589 Y110.662396 Z-0.125000 I4.638977 J4.558001
G02 X302.080176 Y111.994178 Z-0.125000 I2.607660 J1.596474
G02 X302.241067 Y113.853431 Z-0.125000 I5.400341 J0.469268
G02 X302.844590 Y115.204060 Z-0.125000 I4.462865 J-1.184058
G02 X304.041479 Y116.594860 Z-0.125000 I5.938918 J-3.900482
G02 X305.586587 Y117.692330 Z-0.125000 I6.746516 J-7.861897
G02 X307.484160 Y118.593709 Z-0.125000 I6.396807 J-11.018429
G02 X309.551999 Y119.179374 Z-0.125000 I5.113010 J-14.109411
G02 X311.917997 Y119.512501 Z-0.125000 I3.763644 J-18.162215
G02 X314.297707 Y119.490344 Z-0.125000 I1.059401 J-14.022570
G02 X316.703253 Y119.060857 Z-0.125000 I-1.389475 J-14.733831
G02 X317.408985 Y118.840951 Z-0.125000 I-2.216566 J-8.355887
G02 X318.336236 Y118.474328 Z-0.125000 I-5.318591 J-14.807513
G02 X319.241153 Y118.053891 Z-0.125000 I-7.405520 J-17.123130
G02 X320.096854 Y117.598398 Z-0.125000 I-7.861005 J-15.799404
G02 X320.989225 Y117.133161 Z-0.125000 I-9.280508 J-18.889380
G02 X321.701394 Y116.712678 Z-0.125000 I-6.927370 J-12.546189
G02 X322.452782 Y116.291154 Z-0.125000 I-9.734811 J-18.233272
G02 X322.806241 Y116.062067 Z-0.125000 I-2.487192 J-4.224719
G01 X322.831578 Y116.011345 Z-0.125000
G02 X322.656884 Y115.692576 Z-0.125000 I-1.441991 J0.582996
G02 X322.602158 Y115.632214 Z-0.125000 I-0.216105 J0.140938
G03 X322.537001 Y115.564438 Z-0.125000 I0.227986 J-0.284384
G01 X327.517071 Y113.481346 Z-0.125000
G03 X328.195777 Y113.699355 Z-0.125000 I-200.027372 J623.889924
G02 X328.926269 Y113.932487 Z-0.125000 I48.506708 J-150.729235
G02 X330.338170 Y114.381776 Z-0.125000 I42.046641 J-129.689487
G02 X331.557128 Y114.754124 Z-0.125000 I30.700877 J-98.324108
G02 X332.825945 Y115.100072 Z-0.125000 I75.846957 J-275.680895
G02 X333.686205 Y115.329805 Z-0.125000 I39.731725 J-147.054119
G02 X334.613388 Y115.564865 Z-0.125000 I5.360627 J-19.198605
G02 X334.875270 Y115.601109 Z-0.125000 I0.339269 J-1.487162
G02 X335.153173 Y115.529366 Z-0.125000 I-0.007673 J-0.603838
G02 X335.403934 Y115.315861 Z-0.125000 I-0.368807 J-0.687175
G02 X335.532367 Y115.053793 Z-0.125000 I-0.591975 J-0.452618
G02 X335.494871 Y114.971691 Z-0.125000 I-0.068792 J-0.018196
G03 X335.326937 Y114.914667 Z-0.125000 I0.325613 J-1.234712
G03 X334.946072 Y114.741742 Z-0.125000 I2.754063 J-6.571661
G03 X334.669065 Y114.554626 Z-0.125000 I0.262257 J-0.686847
G03 X334.615343 Y114.385163 Z-0.125000 I0.152945 J-0.141733
G03 X335.057457 Y113.858894 Z-0.125000 I2.040059 J1.264994
G03 X336.134634 Y113.029701 Z-0.125000 I6.256764 J7.013702
G03 X337.304874 Y112.305664 Z-0.125000 I12.814676 J19.404235
G03 X338.792878 Y111.492312 Z-0.125000 I17.520681 J30.285799
G03 X340.323516 Y110.774889 Z-0.125000 I41.475083 J86.496474
G03 X341.951343 Y110.045385 Z-0.125000 I45.403895 J99.133949
G03 X343.609338 Y109.396381 Z-0.125000 I27.036659 J66.627700
G03 X344.956826 Y108.911591 Z-0.125000 I16.445593 J43.595885
G03 X346.974605 Y108.252910 Z-0.125000 I23.771211 J69.399857
G03 X348.212446 Y107.900803 Z-0.125000 I7.973782 J25.680156
G03 X349.480092 Y107.654499 Z-0.125000 I5.936550 J27.168269
G03 X350.333770 Y107.539593 Z-0.125000 I2.072743 J12.170599
G03 X351.145383 Y107.483938 Z-0.125000 I2.100938 J24.692042
G03 X351.410705 Y107.483766 Z-0.125000 I0.134332 J2.578404
G02 X351.447109 Y107.456096 Z-0.125000 I-0.023189 J-0.068293
G02 X351.549717 Y107.279640 Z-0.125000 I-1.178738 J-0.803486
G02 X351.601643 Y107.088872 Z-0.125000 I-0.471109 J-0.230686
G02 X351.578133 Y106.904487 Z-0.125000 I-0.459658 J-0.035081
G02 X351.515973 Y106.846768 Z-0.125000 I-0.085053 J0.029266
G02 X350.717205 Y106.677633 Z-0.125000 I-2.134896 J8.111686
G03 X349.935810 Y106.523561 Z-0.125000 I13.560488 J-70.832283
G03 X349.089910 Y106.347407 Z-0.125000 I16.808215 J-82.832533
G03 X348.590875 Y106.251200 Z-0.125000 I3.369961 J-18.822838
G03 X347.854332 Y106.092137 Z-0.125000 I8.511732 J-41.198296
G02 X347.161642 Y105.928745 Z-0.125000 I-3.446268 J13.060297
G02 X346.336602 Y105.776383 Z-0.125000 I-3.770696 J18.108262
G02 X345.568735 Y105.694519 Z-0.125000 I-1.874151 J13.937017
G02 X344.726876 Y105.649250 Z-0.125000 I-1.325010 J16.790582
G02 X343.889966 Y105.682363 Z-0.125000 I-0.176194 J6.139647
G02 X343.166257 Y105.818240 Z-0.125000 I0.509500 J4.708955
G02 X342.437426 Y105.981999 Z-0.125000 I3.107446 J15.533862
G02 X341.482633 Y106.238372 Z-0.125000 I6.752477 J27.053900
G02 X340.532603 Y106.512502 Z-0.125000 I96.281300 J335.457762
G02 X339.488441 Y106.816620 Z-0.125000 I140.268865 J483.546017
G03 X338.456771 Y107.157398 Z-0.125000 I-16.088987 J-46.975623
G03 X337.369709 Y107.490487 Z-0.125000 I-16.015721 J-50.328110
G01 X335.454045 Y108.146258 Z-0.125000
G03 X335.234772 Y107.959759 Z-0.125000 I21.171301 J-25.114046
G03 X334.715090 Y107.512210 Z-0.125000 I125.734130 J-146.524514
G03 X334.282944 Y107.071994 Z-0.125000 I3.917012 J-4.277433
G03 X333.689829 Y106.349471 Z-0.125000 I9.849297 J-8.689932
G03 X333.144570 Y105.588605 Z-0.125000 I12.418081 J-9.474974
G03 X332.519867 Y104.609544 Z-0.125000 I20.171461 J-13.559488
G03 X331.978573 Y103.586730 Z-0.125000 I8.645629 J-5.230085
G03 X331.486325 Y102.353335 Z-0.125000 I12.145616 J-5.562243
G03 X330.987067 Y100.411611 Z-0.125000 I12.121388 J-4.151708
G03 X330.830554 Y98.610405 Z-0.125000 I10.286225 J-1.801207
G03 X331.043735 Y96.846082 Z-0.125000 I10.456513 J0.368406
G03 X331.521461 Y95.293295 Z-0.125000 I8.545768 J1.779285
G03 X332.334665 Y93.855182 Z-0.125000 I7.510926 J3.298194
G03 X333.420588 Y92.607164 Z-0.125000 I6.728054 J4.757756
G03 X334.739782 Y91.614381 Z-0.125000 I5.193672 J5.528412
G03 X336.326852 Y90.880651 Z-0.125000 I4.341090 J7.306557
G03 X337.321416 Y90.607751 Z-0.125000 I2.695529 J7.874902
G03 X338.276092 Y90.473960 Z-0.125000 I1.480730 J7.092852
G03 X339.289687 Y90.435070 Z-0.125000 I0.926140 J10.910096
G03 X340.212949 Y90.489570 Z-0.125000 I-0.072492 J9.075632
G03 X341.177768 Y90.602916 Z-0.125000 I-1.491068 J16.855290
G03 X342.026774 Y90.755688 Z-0.125000 I-1.933331 J13.179649
G03 X342.881807 Y91.001237 Z-0.125000 I-5.239943 J19.857595
G03 X343.545563 Y91.227493 Z-0.125000 I-3.825290 J12.308788
G01 X344.282454 Y91.548936 Z-0.125000
G02 X344.363823 Y91.540832 Z-0.125000 I0.034144 J-0.069722
G02 X344.406491 Y91.454373 Z-0.125000 I-0.066262 J-0.086458
G02 X344.432703 Y91.326563 Z-0.125000 I-0.232155 J-0.114206
G02 X344.387970 Y91.095201 Z-0.125000 I-0.852963 J0.044914
G02 X344.347093 Y90.900027 Z-0.125000 I-0.812740 J0.068351
G02 X344.244328 Y90.675069 Z-0.125000 I-1.178023 J0.402195
G02 X344.094358 Y90.482075 Z-0.125000 I-0.795554 J0.463433
G02 X343.929103 Y90.365030 Z-0.125000 I-0.443383 J0.450829
G02 X342.670515 Y89.851715 Z-0.125000 I-6.662494 J14.536013
G02 X340.953041 Y89.296351 Z-0.125000 I-9.535453 J26.555267
G02 X339.204929 Y88.838656 Z-0.125000 I-10.160028 J35.237804
G02 X337.431806 Y88.466433 Z-0.125000 I-8.476956 J35.971492
G02 X336.930183 Y88.383816 Z-0.125000 I-3.233539 J18.068856
G02 X336.055680 Y88.259211 Z-0.125000 I-8.372262 J55.627216
G02 X335.178096 Y88.161399 Z-0.125000 I-2.599178 J19.334353
G02 X334.117289 Y88.087629 Z-0.125000 I-2.478177 J27.971955
G02 X333.118694 Y88.095480 Z-0.125000 I-0.372218 J16.167164
G02 X332.056422 Y88.167216 Z-0.125000 I0.718931 J18.547042
G02 X331.038548 Y88.275493 Z-0.125000 I0.292102 J7.584416
G02 X330.184705 Y88.494849 Z-0.125000 I0.976229 J5.571419
G02 X328.595670 Y89.226789 Z-0.125000 I2.793225 J8.154938
G02 X327.231901 Y90.237370 Z-0.125000 I4.139226 J7.011327
G02 X326.088022 Y91.498808 Z-0.125000 I6.277182 J6.841542
G02 X325.223263 Y92.909055 Z-0.125000 I6.993795 J5.258830
G02 X324.662503 Y94.501751 Z-0.125000 I7.947584 J3.693265
G02 X324.392286 Y96.273710 Z-0.125000 I9.604960 J2.371305
G02 X324.499400 Y98.045226 Z-0.125000 I9.291856 J0.327167
G02 X324.968999 Y99.939646 Z-0.125000 I11.093613 J-1.744529
G02 X325.795669 Y101.876067 Z-0.125000 I13.565428 J-4.646503
G02 X326.825740 Y103.532187 Z-0.125000 I10.914815 J-5.640377
G02 X328.048156 Y105.069094 Z-0.125000 I21.919813 J-16.179867
G02 X329.175479 Y106.277240 Z-0.125000 I14.654575 J-12.544176
G02 X330.430176 Y107.390285 Z-0.125000 I22.703794 J-24.329485
G02 X331.377396 Y108.133452 Z-0.125000 I11.033222 J-13.087407
G03 X332.352022 Y108.908380 Z-0.125000 I-19.943125 J26.082772
G03 X332.761300 Y109.277564 Z-0.125000 I-4.062998 J4.915716
G03 X331.885764 Y109.617702 Z-0.125000 I-14.582151 J-36.238427
G03 X331.142261 Y109.884254 Z-0.125000 I-9.698683 J-25.882682
G03 X330.453201 Y110.160033 Z-0.125000 I-9.007176 J-21.506545
G03 X329.803336 Y110.395323 Z-0.125000 I-7.083361 J-18.548921
G03 X328.303566 Y110.893535 Z-0.125000 I-27.619154 J-80.635756
G03 X327.263944 Y111.212860 Z-0.125000 I-12.395649 J-38.504284
G03 X326.224242 Y111.510554 Z-0.125000 I-3.427003 J-10.004436
G03 X325.377754 Y111.650032 Z-0.125000 I-1.504560 J-6.492759
G03 X324.979295 Y111.635010 Z-0.125000 I-0.138260 J-1.624795
G03 X324.548867 Y111.516205 Z-0.125000 I0.327305 J-2.024938
G02 X324.121393 Y111.362130 Z-0.125000 I-2.568339 J6.455670
G02 X323.844017 Y111.287790 Z-0.125000 I-0.861512 J2.659849
G01 X323.690532 Y111.601454 Z-0.125000
G02 X323.613522 Y111.855193 Z-0.125000 I0.743415 J0.364182
G02 X323.631609 Y112.039155 Z-0.125000 I0.398694 J0.053671
G02 X323.675999 Y112.122149 Z-0.125000 I0.279781 J-0.096271
G02 X323.726701 Y112.163694 Z-0.125000 I0.112697 J-0.085826
G02 X323.757303 Y112.195703 Z-0.125000 I0.049690 J-0.016873
G02 X324.510106 Y112.469632 Z-0.125000 I6.254065 J-16.015876
G02 X325.298907 Y112.759971 Z-0.125000 I7.813048 J-20.010044
G02 X326.405079 Y113.125402 Z-0.125000 I13.555414 J-39.175743
G02 X326.912906 Y113.288396 Z-0.125000 I29.372377 J-90.640470
G03 X327.451031 Y113.460259 Z-0.125000 I-63.078982 J198.436826
G01 X322.504563 Y115.529381 Z-0.125000
G02 X322.217113 Y115.183470 Z-0.125000 I-4.045166 J3.069125
G02 X321.586273 Y114.545977 Z-0.125000 I-7.812062 J7.099654
G02 X320.767156 Y113.861891 Z-0.125000 I-12.768824 J14.456815
G02 X319.841663 Y113.169323 Z-0.125000 I-13.926462 J17.645554
G02 X318.932700 Y112.505866 Z-0.125000 I-17.105726 J22.481133
G02 X318.147720 Y111.983857 Z-0.125000 I-11.379278 J16.260577
G02 X317.383053 Y111.549844 Z-0.125000 I-2.881514 J4.186179
G02 X317.158627 Y111.530678 Z-0.125000 I-0.138926 J0.303217
G02 X317.110905 Y111.543434 Z-0.125000 I5.288722 J19.882395
G03 X316.872348 Y111.607143 Z-0.125000 I-22.666276 J-84.395223
G02 X316.654971 Y111.698504 Z-0.125000 I0.218996 J0.825352
G02 X316.563315 Y111.791108 Z-0.125000 I0.132408 J0.222713
G03 X316.660160 Y112.022376 Z-0.125000 I-1.868798 J0.918484
G03 X316.775696 Y112.398830 Z-0.125000 I-4.822481 J1.686006
G03 X316.769260 Y113.956368 Z-0.125000 I-2.890423 J0.766839
G03 X315.944745 Y115.429660 Z-0.125000 I-3.388640 J-0.929059
G03 X314.549464 Y116.499219 Z-0.125000 I-3.665587 J-3.337024
G03 X311.854047 Y117.537015 Z-0.125000 I-6.124204 J-11.886859
G03 X310.495643 Y117.658444 Z-0.125000 I-1.032560 J-3.892240
G03 X309.347198 Y117.333418 Z-0.125000 I0.249473 J-3.072958
G03 X308.467807 Y116.596411 Z-0.125000 I1.378003 J-2.537366
G03 X307.968479 Y115.604312 Z-0.125000 I2.112961 J-1.685168
G03 X307.827597 Y113.802829 Z-0.125000 I4.844022 J-1.285069
G03 X308.284233 Y112.556443 Z-0.125000 I2.689940 J0.278666
G03 X309.206735 Y111.489181 Z-0.125000 I5.135274 J3.506425
G03 X310.542479 Y110.475943 Z-0.125000 I5.962779 J6.473620
G03 X312.030385 Y109.682506 Z-0.125000 I11.861177 J20.451029
G03 X313.754708 Y108.908074 Z-0.125000 I12.918984 J26.458088
G02 X315.465315 Y108.112079 Z-0.125000 I-7.908667 J-19.231920
G02 X316.941589 Y107.245141 Z-0.125000 I-7.910132 J-15.160249
G02 X318.257329 Y106.217657 Z-0.125000 I-4.017186 J-6.500368
G02 X319.174515 Y105.069047 Z-0.125000 I-4.129953 J-4.238340
G02 X319.605730 Y103.736378 Z-0.125000 I-2.550290 J-1.561302
G02 X319.426689 Y101.782947 Z-0.125000 I-5.850850 J-0.448665
G02 X319.096766 Y100.921213 Z-0.125000 I-4.177186 J1.105253
G02 X318.576106 Y100.117923 Z-0.125000 I-4.166705 J2.130308
G02 X317.920911 Y99.407648 Z-0.125000 I-5.576929 J4.487125
G02 X317.143122 Y98.760901 Z-0.125000 I-5.395825 J5.698044
G02 X316.297216 Y98.199173 Z-0.125000 I-6.957310 J9.559217
G02 X315.378879 Y97.695847 Z-0.125000 I-6.466955 J10.709763
G02 X314.439763 Y97.305921 Z-0.125000 I-7.086288 J15.741104
G02 X313.559868 Y97.002876 Z-0.125000 I-5.114685 J13.421642
G02 X312.712751 Y96.730405 Z-0.125000 I-8.211955 J24.077976
G02 X311.671112 Y96.431323 Z-0.125000 I-11.125585 J36.784641
G02 X310.632463 Y96.220787 Z-0.125000 I-4.724677 J20.641261
G02 X309.473297 Y96.043232 Z-0.125000 I-4.443561 J25.137148
G02 X308.306732 Y95.943137 Z-0.125000 I-1.730430 J13.319457
G02 X307.147343 Y95.945045 Z-0.125000 I-0.557844 J13.276252
G02 X305.983189 Y96.022990 Z-0.125000 I0.037712 J9.295888
G02 X304.875656 Y96.241141 Z-0.125000 I1.126404 J8.639168
G02 X304.364118 Y96.416550 Z-0.125000 I0.976633 J3.681709
G02 X303.267994 Y96.923290 Z-0.125000 I7.454288 J17.563159
G02 X302.182697 Y97.437505 Z-0.125000 I13.738610 J30.399009
G02 X301.055732 Y98.020888 Z-0.125000 I16.389447 J33.040904
G02 X299.987545 Y98.614184 Z-0.125000 I108.446848 J196.509303
G02 X299.142132 Y99.090600 Z-0.125000 I68.562907 J122.655039
G02 X298.343768 Y99.639901 Z-0.125000 I6.932213 J10.930240
G02 X298.288956 Y99.725706 Z-0.125000 I0.085801 J0.115218
G03 X297.878346 Y99.530689 Z-0.125000 I0.466462 J-1.511924
G03 X297.357226 Y99.104543 Z-0.125000 I1.908397 J-2.865421
G03 X296.903436 Y98.651357 Z-0.125000 I5.440406 J-5.901441
G03 X296.712303 Y98.406916 Z-0.125000 I1.382794 J-1.278175
G02 X296.625803 Y98.356689 Z-0.125000 I-0.118509 J0.104497
G02 X296.388294 Y98.339738 Z-0.125000 I-0.182223 J0.880814
G02 X296.172219 Y98.310642 Z-0.125000 I-0.313693 J1.512666
G02 X296.076165 Y98.320159 Z-0.125000 I-0.018908 J0.298635
G02 X295.806003 Y98.526639 Z-0.125000 I0.113841 J0.428936
G02 X295.760941 Y98.863799 Z-0.125000 I0.385031 J0.223051
G02 X295.828294 Y98.989656 Z-0.125000 I0.300758 J-0.080002
G02 X296.345406 Y99.526289 Z-0.125000 I6.338822 J-5.590758
G02 X296.760373 Y99.925712 Z-0.125000 I42.165659 J-43.391363
G02 X297.645066 Y100.765492 Z-0.125000 I191.826562 J-201.199916
G01 X298.062103 Y101.176311 Z-0.125000
G02 X297.929827 Y101.140386 Z-0.125000 I-5.059694 J18.368107
G03 X297.784607 Y101.100852 Z-0.125000 I4.641008 J-17.334279
G02 X296.435333 Y100.764055 Z-0.125000 I-7.316493 J26.440146
G02 X294.656622 Y100.403225 Z-0.125000 I-10.323166 J46.323572
G02 X292.960721 Y100.096998 Z-0.125000 I-7.170854 J34.863447
G02 X291.366897 Y99.891124 Z-0.125000 I-4.759035 J30.570806
G02 X289.830796 Y99.852443 Z-0.125000 I-1.108754 J13.510598
G02 X288.859043 Y99.970182 Z-0.125000 I0.173504 J5.501047
G02 X287.872961 Y100.381169 Z-0.125000 I0.603158 J2.835603
G02 X287.263789 Y101.016107 Z-0.125000 I1.076770 J1.642768
G02 X286.964011 Y101.856550 Z-0.125000 I1.964495 J1.174403
G02 X286.995079 Y102.840304 Z-0.125000 I2.749558 J0.405535
G02 X287.067117 Y103.178533 Z-0.125000 I526.407534 J-111.902143
G03 X287.118586 Y103.420112 Z-0.125000 I-468.189256 J99.832240
G03 X287.212940 Y103.653508 Z-0.125000 I-5.059772 J2.181251
G03 X287.348536 Y104.027807 Z-0.125000 I-13.523363 J5.110770
G03 X287.495778 Y104.501708 Z-0.125000 I-29.588542 J9.453036
G03 X287.863759 Y105.735720 Z-0.125000 I-178.476443 J53.893453
G03 X288.268357 Y107.014703 Z-0.125000 I-45.958160 J15.242048
G03 X288.721592 Y108.583088 Z-0.125000 I-69.714875 J20.996020
G03 X289.193840 Y110.149797 Z-0.125000 I-104.700785 J32.414165
G03 X289.641417 Y111.719858 Z-0.125000 I-103.107722 J30.241697
G03 X290.067488 Y113.346883 Z-0.125000 I-66.423015 J18.263571
G03 X290.333885 Y114.501609 Z-0.125000 I-33.474845 J8.330791
G01 X290.693560 Y116.191927 Z-0.125000
G03 X290.919187 Y117.453628 Z-0.125000 I-19.225719 J4.089119
G03 X291.021193 Y118.445040 Z-0.125000 I-11.795933 J1.714639
G03 X291.000733 Y119.429999 Z-0.125000 I-6.043924 J0.367145
G03 X290.856861 Y120.045453 Z-0.125000 I-2.473676 J-0.253720
G03 X290.645078 Y120.402831 Z-0.125000 I-1.535973 J-0.668780
G03 X290.341637 Y120.710536 Z-0.125000 I-1.436843 J-1.113456
G03 X290.017907 Y120.959258 Z-0.125000 I-0.866240 J-0.792436
G03 X289.523598 Y121.136860 Z-0.125000 I-0.898848 J-1.725023
G03 X289.234427 Y121.162111 Z-0.125000 I-0.246971 J-1.159891
G03 X288.912781 Y121.115164 Z-0.125000 I0.053000 J-1.488442
G02 X288.603220 Y121.096207 Z-0.125000 I-0.336372 J2.955915
G02 X288.457512 Y121.110931 Z-0.125000 I-0.006027 J0.668719
G02 X288.400499 Y121.145417 Z-0.125000 I0.021460 J0.099848
G02 X288.280268 Y121.309897 Z-0.125000 I1.237767 J1.030963
G02 X286.392285 Y121.381372 Z-0.125000 I-0.160595 J20.729067
G02 X284.115142 Y121.660259 Z-0.125000 I2.487234 J29.744498
G03 X283.528829 Y121.744094 Z-0.125000 I-2.583032 J-15.972749
G03 X282.791192 Y121.824592 Z-0.125000 I-3.048297 J-24.512828
G03 X282.108469 Y121.934941 Z-0.125000 I-864.549752 J-5346.941319
G03 X281.718386 Y121.997709 Z-0.125000 I-49.425179 J-305.915139
G02 X281.402264 Y120.173605 Z-0.125000 I-7.973374 J0.442359
G02 X280.616131 Y118.273908 Z-0.125000 I-9.441511 J2.794585
G02 X279.602280 Y116.465703 Z-0.125000 I-25.271416 J12.981206
G02 X278.505654 Y114.812627 Z-0.125000 I-22.164108 J13.513067
G02 X277.382161 Y113.254286 Z-0.125000 I-64.277278 J45.156818
G02 X276.456693 Y112.042227 Z-0.125000 I-40.231994 J29.759800
G03 X275.611879 Y110.800372 Z-0.125000 I8.431445 J-6.644058
G03 X275.417991 Y110.258881 Z-0.125000 I1.361796 J-0.793068
G03 X275.456584 Y109.514873 Z-0.125000 I1.746663 J-0.282402
G03 X275.856220 Y108.637276 Z-0.125000 I2.861796 J0.773401
G03 X276.463905 Y107.831317 Z-0.125000 I7.563685 J5.070867
G03 X277.325902 Y106.898354 Z-0.125000 I10.934775 J9.238321
G03 X278.239090 Y106.009348 Z-0.125000 I52.300774 J52.809912
G03 X279.275644 Y105.032326 Z-0.125000 I65.087485 J68.015016
G02 X280.290492 Y104.075422 Z-0.125000 I-12.381527 J-14.147874
G02 X281.209379 Y103.068613 Z-0.125000 I-12.816685 J-12.620169
G02 X282.017686 Y102.020862 Z-0.125000 I-6.771672 J-6.059803
G02 X282.616513 Y100.940066 Z-0.125000 I-6.590888 J-4.358042
G02 X282.951599 Y99.781165 Z-0.125000 I-3.756313 J-1.713998
G02 X282.936394 Y98.586728 Z-0.125000 I-4.024936 J-0.546080
G02 X282.379179 Y96.963311 Z-0.125000 I-4.997375 J0.807942
G02 X280.948420 Y94.955928 Z-0.125000 I-9.164027 J5.018072
G02 X279.146678 Y93.253948 Z-0.125000 I-10.035698 J8.819270
G02 X276.709898 Y91.638819 Z-0.125000 I-11.456842 J14.639415
G02 X274.032879 Y90.379399 Z-0.125000 I-9.203662 J16.088421
G02 X270.850300 Y89.434310 Z-0.125000 I-8.218867 J21.845778
G02 X267.572351 Y89.036265 Z-0.125000 I-3.692099 J16.708687
G02 X264.119971 Y89.271539 Z-0.125000 I-0.454586 J18.776967
G02 X262.530574 Y89.608283 Z-0.125000 I2.670538 J16.523906
G02 X260.664881 Y90.180516 Z-0.125000 I6.168014 J23.437597
G02 X258.911146 Y90.911853 Z-0.125000 I6.067109 J17.017207
G02 X257.368441 Y91.763889 Z-0.125000 I6.706856 J13.966137
G02 X256.014283 Y92.801976 Z-0.125000 I5.690637 J8.825571
G02 X255.011478 Y93.896062 Z-0.125000 I5.330053 J5.891968
G02 X254.425525 Y95.106647 Z-0.125000 I2.713005 J2.060263
G02 X254.366038 Y96.401852 Z-0.125000 I3.066512 J0.789809
G02 X254.667976 Y97.078313 Z-0.125000 I1.425020 J-0.230442
G02 X255.867240 Y98.260657 Z-0.125000 I5.799783 J-4.683394
G02 X257.319087 Y99.289885 Z-0.125000 I19.082231 J-25.379124
G02 X259.064461 Y100.395396 Z-0.125000 I23.861689 J-35.742153
G02 X260.843116 Y101.449878 Z-0.125000 I98.654609 J-164.378995
G02 X262.545906 Y102.434038 Z-0.125000 I87.288164 J-149.060565
G03 X264.220850 Y103.456474 Z-0.125000 I-16.391449 J28.735437
G03 X265.006234 Y104.037546 Z-0.125000 I-4.504235 J6.909286
G02 X265.132449 Y103.981238 Z-0.125000 I-0.043489 J-0.267092
G02 X265.316273 Y103.787435 Z-0.125000 I-0.627049 J-0.778842
G02 X265.467852 Y103.534886 Z-0.125000 I-0.563132 J-0.509754
G02 X265.488887 Y103.308909 Z-0.125000 I-0.427181 J-0.153731
G01 X265.469325 Y103.276848 Z-0.125000
G01 X265.432557 Y103.268084 Z-0.125000
G02 X265.424691 Y103.219287 Z-0.125000 I-3.795455 J0.586767
G02 X265.416417 Y103.170426 Z-0.125000 I-16.382124 J2.748951
G01 X264.039766 Y102.392683 Z-0.125000
G03 X263.272704 Y101.902886 Z-0.125000 I11.893447 J-19.471608
G03 X262.469836 Y101.345726 Z-0.125000 I14.703484 J-22.044829
G03 X261.713349 Y100.733282 Z-0.125000 I5.140691 J-7.123169
G03 X261.063202 Y100.071916 Z-0.125000 I5.373756 J-5.932845
G03 X260.547842 Y99.273911 Z-0.125000 I3.091071 J-2.561657
G03 X260.315444 Y98.542279 Z-0.125000 I2.349829 J-1.149137
G03 X260.340864 Y97.552408 Z-0.125000 I2.643403 J-0.427377
G03 X260.772263 Y96.416827 Z-0.125000 I3.936958 J0.845887
G03 X261.528360 Y95.335327 Z-0.125000 I6.376368 J3.652790
G03 X262.577322 Y94.273807 Z-0.125000 I7.194539 J6.060390
G03 X263.822827 Y93.367225 Z-0.125000 I7.476877 J8.963226
G03 X265.346143 Y92.525598 Z-0.125000 I7.959218 J12.606523
G03 X266.962380 Y91.888917 Z-0.125000 I5.279386 J11.032135
G03 X268.631741 Y91.494119 Z-0.125000 I3.573352 J11.382769
G03 X272.041159 Y91.434272 Z-0.125000 I1.912915 J11.831285
G03 X274.198313 Y92.194868 Z-0.125000 I-0.673075 J5.348219
G03 X275.812594 Y93.739657 Z-0.125000 I-2.357410 J4.079302
G03 X276.744929 Y96.185845 Z-0.125000 I-5.450322 J3.478092
G03 X276.759189 Y97.334486 Z-0.125000 I-3.848218 J0.622184
G03 X276.424545 Y98.539183 Z-0.125000 I-4.585924 J-0.625064
G03 X275.884846 Y99.669786 Z-0.125000 I-8.113741 J-3.179016
G03 X275.138828 Y100.798488 Z-0.125000 I-8.818465 J-5.017694
G03 X274.317701 Y101.836270 Z-0.125000 I-12.122267 J-8.747791
G03 X273.326035 Y102.892401 Z-0.125000 I-13.598683 J-11.774999
G02 X272.331521 Y103.854364 Z-0.125000 I703.163081 J727.952609
G02 X271.466198 Y104.693845 Z-0.125000 I526.839103 J543.922264
G02 X270.664068 Y105.539030 Z-0.125000 I25.625726 J25.123521
G02 X270.062133 Y106.221920 Z-0.125000 I16.304783 J14.978627
G02 X269.650365 Y106.942513 Z-0.125000 I2.251595 J1.764574
G02 X269.601705 Y107.397041 Z-0.125000 I0.806774 J0.316238
G02 X269.723453 Y107.815773 Z-0.125000 I1.758531 J-0.284235
G02 X270.003237 Y108.332397 Z-0.125000 I2.980599 J-1.280109
G02 X270.403394 Y108.859704 Z-0.125000 I10.649370 J-7.665975
G02 X270.818181 Y109.351440 Z-0.125000 I9.539927 J-7.626275
G03 X271.251803 Y109.883178 Z-0.125000 I-63.075353 J51.879390
G03 X271.569016 Y110.280578 Z-0.125000 I-31.618277 J25.563698
G03 X271.897913 Y110.740520 Z-0.125000 I-2.706435 J2.282891
G03 X271.979861 Y110.964790 Z-0.125000 I-0.540474 J0.324596
G01 X271.968740 Y110.963260 Z-0.125000
G02 X271.905963 Y111.127059 Z-0.125000 I1.311072 J0.596408
G02 X271.818533 Y111.067188 Z-0.125000 I-1.254008 J1.737433
G02 X271.719934 Y111.005616 Z-0.125000 I-1.807869 J2.785318
G01 X272.761732 Y112.560044 Z-0.125000
G03 X273.112675 Y112.781492 Z-0.125000 I-1.555465 J2.853850
G03 X273.471768 Y113.075240 Z-0.125000 I-2.313371 J3.194341
G03 X274.090312 Y113.774509 Z-0.125000 I-2.845278 J3.140022
G03 X274.705283 Y114.826571 Z-0.125000 I-5.876326 J4.140703
G03 X275.180639 Y116.018978 Z-0.125000 I-6.322851 J3.211576
G03 X275.584282 Y117.786599 Z-0.125000 I-13.543294 J4.022562
G03 X275.746037 Y119.447016 Z-0.125000 I-13.042772 J2.108690
G03 X275.690751 Y120.921278 Z-0.125000 I-10.331346 J0.350733
G03 X275.451342 Y122.355555 Z-0.125000 I-8.172429 J-0.627017
G03 X275.012227 Y123.532505 Z-0.125000 I-5.919112 J-1.538006
G03 X274.330308 Y124.576039 Z-0.125000 I-4.709745 J-2.333105
G03 X273.460392 Y125.384061 Z-0.125000 I-3.660879 J-3.069017
G03 X272.414895 Y125.987520 Z-0.125000 I-2.725170 J-3.513974
G03 X271.019715 Y126.379371 Z-0.125000 I-2.415960 J-5.922315
G03 X270.625306 Y126.428197 Z-0.125000 I-0.860870 J-5.336531
G03 X270.246629 Y126.446549 Z-0.125000 I-0.430834 J-4.974037
G03 X270.120130 Y126.445949 Z-0.125000 I-0.000001 J-13.330545
G03 X269.994957 Y126.441786 Z-0.125000 I0.025022 J-2.636755
G03 X268.580032 Y126.141618 Z-0.125000 I0.195586 J-4.406854
G03 X267.200294 Y125.345723 Z-0.125000 I1.952422 J-4.978537
G03 X265.895006 Y123.778215 Z-0.125000 I2.867677 J-3.715179
G03 X265.012823 Y121.096380 Z-0.125000 I8.001558 J-4.118107
G03 X264.908851 Y119.493201 Z-0.125000 I8.314514 J-1.344187
G03 X265.108946 Y117.979243 Z-0.125000 I7.595526 J0.233674
G03 X265.575967 Y116.516048 Z-0.125000 I9.717853 J2.295603
G03 X266.218450 Y115.248133 Z-0.125000 I7.935308 J3.224274
G03 X267.116920 Y114.153700 Z-0.125000 I6.747859 J4.623612
G03 X268.193010 Y113.228117 Z-0.125000 I5.880866 J5.748814
G03 X269.420982 Y112.576525 Z-0.125000 I3.709627 J5.508160
G03 X270.682767 Y112.225081 Z-0.125000 I2.202550 J5.466980
G03 X271.362210 Y112.187837 Z-0.125000 I0.515500 J3.188089
G03 X272.095087 Y112.296889 Z-0.125000 I-0.194329 J3.823129
G03 X272.387294 Y112.387930 Z-0.125000 I-0.644361 J2.582598
G03 X272.678017 Y112.515488 Z-0.125000 I-1.036560 J2.757567
G01 X271.631563 Y110.954869 Z-0.125000
G02 X271.287718 Y110.784563 Z-0.125000 I-1.920436 J3.445082
G02 X270.820244 Y110.601914 Z-0.125000 I-2.589946 J5.939182
G02 X270.122592 Y110.397271 Z-0.125000 I-2.465712 J7.114383
G02 X269.206391 Y110.212262 Z-0.125000 I-2.905530 J12.027674
G02 X268.326696 Y110.087091 Z-0.125000 I-2.100078 J11.605367
G02 X267.323800 Y110.016418 Z-0.125000 I-1.561917 J15.013432
G02 X266.368680 Y110.021787 Z-0.125000 I-0.426744 J9.042568
G02 X265.390595 Y110.129077 Z-0.125000 I0.564865 J9.661289
G02 X263.596196 Y110.585140 Z-0.125000 I1.669775 J10.327911
G02 X262.218689 Y111.242180 Z-0.125000 I2.353422 J6.706543
G02 X261.009537 Y112.208655 Z-0.125000 I4.598393 J6.992645
G02 X260.097888 Y113.285982 Z-0.125000 I4.828818 J5.010600
G02 X259.461821 Y114.510143 Z-0.125000 I6.039002 J3.915161
G02 X259.062290 Y115.854823 Z-0.125000 I6.901334 J2.782217
G02 X258.924191 Y117.300219 Z-0.125000 I8.172074 J1.510091
G02 X259.039563 Y118.810194 Z-0.125000 I9.019842 J0.070220
G02 X259.286727 Y119.992317 Z-0.125000 I13.004751 J-2.102200
G02 X259.588883 Y120.988880 Z-0.125000 I11.890740 J-3.061161
G01 X256.088319 Y121.760406 Z-0.125000
G03 X256.089603 Y121.519344 Z-0.125000 I1.726153 J-0.111339
G02 X256.086203 Y121.271561 Z-0.125000 I-1.393341 J-0.104790
G02 X255.676348 Y119.270735 Z-0.125000 I-10.188017 J1.044550
G02 X254.902294 Y117.470741 Z-0.125000 I-8.993014 J2.800845
G02 X253.886418 Y115.792853 Z-0.125000 I-15.185947 J8.047851
G02 X252.801128 Y114.409430 Z-0.125000 I-11.386107 J7.814943
G02 X251.579208 Y113.136226 Z-0.125000 I-18.312686 J16.352102
G02 X250.485507 Y112.164096 Z-0.125000 I-11.743477 J12.110773
G01 X248.915058 Y110.885629 Z-0.125000
G02 X248.327032 Y110.502169 Z-0.125000 I-34.042905 J51.561471
G02 X247.319805 Y109.857775 Z-0.125000 I-106.951067 J166.061457
G02 X247.290176 Y109.839150 Z-0.125000 I-1.445073 J2.265997
G03 X247.260377 Y109.820574 Z-0.125000 I3.363764 J-5.429343
G01 X246.763251 Y111.436994 Z-0.125000
G03 X247.279823 Y111.839546 Z-0.125000 I-2.665951 J3.953782
G03 X247.773526 Y112.342902 Z-0.125000 I-3.656947 J4.080619
G03 X249.041064 Y114.507180 Z-0.125000 I-4.788431 J4.257719
G03 X249.961508 Y118.672214 Z-0.125000 I-17.517349 J6.055437
G03 X250.015369 Y120.872316 Z-0.125000 I-14.103963 J1.445994
G03 X249.740848 Y122.815645 Z-0.125000 I-11.262110 J-0.599870
G03 X249.181757 Y124.725442 Z-0.125000 I-11.045199 J-2.196731
G03 X248.363673 Y126.332753 Z-0.125000 I-8.621649 J-3.376376
G03 X247.292879 Y127.738550 Z-0.125000 I-7.261897 J-4.420667
G03 X246.035648 Y128.805974 Z-0.125000 I-5.382433 J-5.065423
G03 X244.569045 Y129.584113 Z-0.125000 I-3.711238 J-5.223612
G03 X242.927824 Y129.968183 Z-0.125000 I-2.312532 J-6.183294
G03 X242.697040 Y129.986605 Z-0.125000 I-0.509331 J-4.925995
G03 X242.467904 Y129.993054 Z-0.125000 I-0.229136 J-4.067336
G03 X242.391625 Y129.992741 Z-0.125000 I-0.000001 J-9.298155
G03 X242.315459 Y129.990408 Z-0.125000 I0.013945 J-1.699777
G03 X241.420304 Y129.874735 Z-0.125000 I0.134570 J-4.562877
G03 X240.503681 Y129.570779 Z-0.125000 I1.177176 J-5.084023
G03 X239.448984 Y128.922961 Z-0.125000 I2.174710 J-4.723062
G03 X238.396316 Y127.900622 Z-0.125000 I4.534423 J-5.722067
G03 X237.556220 Y126.735561 Z-0.125000 I5.795352 J-5.064297
G03 X236.772641 Y125.137471 Z-0.125000 I10.184977 J-5.985069
G03 X236.238132 Y123.435564 Z-0.125000 I10.885312 J-4.353582
G03 X235.883288 Y121.306700 Z-0.125000 I16.697963 J-3.877256
G03 X235.838259 Y119.012587 Z-0.125000 I13.842503 J-1.419200
G03 X236.147871 Y117.109003 Z-0.125000 I9.804297 J0.617669
G03 X236.848219 Y115.290325 Z-0.125000 I11.074466 J3.220434
G03 X237.746741 Y113.817214 Z-0.125000 I8.136055 J3.951997
G03 X238.902455 Y112.584153 Z-0.125000 I7.393935 J5.771988
G03 X240.203441 Y111.629241 Z-0.125000 I5.694162 J6.394112
G03 X241.709528 Y110.990817 Z-0.125000 I3.989416 J7.315622
G03 X243.282325 Y110.668062 Z-0.125000 I2.391252 J7.659126
G03 X245.211202 Y110.774512 Z-0.125000 I0.628888 J6.133428
G03 X246.723976 Y111.410139 Z-0.125000 I-0.938742 J4.352173
G01 X247.220586 Y109.795254 Z-0.125000
G02 X246.229386 Y109.219106 Z-0.125000 I-9.411195 J15.050248
G02 X245.007285 Y108.604099 Z-0.125000 I-11.592728 J21.514568
G02 X243.679331 Y108.060040 Z-0.125000 I-6.162968 J13.150056
G02 X242.173863 Y107.603656 Z-0.125000 I-5.812991 J16.464016
G02 X240.642058 Y107.391977 Z-0.125000 I-2.049565 J9.183332
G02 X239.028317 Y107.430010 Z-0.125000 I-0.565486 J10.261005
G02 X236.642649 Y107.905070 Z-0.125000 I1.316098 J12.836964
G02 X234.741239 Y108.713664 Z-0.125000 I2.672049 J8.923206
G02 X233.047922 Y109.942283 Z-0.125000 I5.732171 J9.681438
G02 X231.735219 Y111.354842 Z-0.125000 I6.296438 J7.167562
G02 X231.473343 Y111.749308 Z-0.125000 I7.506586 J5.267588
G02 X231.229822 Y112.156848 Z-0.125000 I9.293125 J5.829536
G02 X230.019412 Y111.595438 Z-0.125000 I-12.911161 J26.251169
G02 X228.112182 Y110.799826 Z-0.125000 I-25.400585 J58.206113
G02 X226.110725 Y110.041259 Z-0.125000 I-15.288443 J37.318494
G02 X224.162552 Y109.421637 Z-0.125000 I-12.114271 J34.716364
G02 X223.202175 Y109.143723 Z-0.125000 I-20.902712 J70.434489
G02 X222.448958 Y108.938455 Z-0.125000 I-12.013508 J42.598020
G02 X221.688494 Y108.793744 Z-0.125000 I-1.424920 J5.417545
G02 X221.102271 Y108.777747 Z-0.125000 I-0.380176 J3.182506
G02 X220.427515 Y108.888993 Z-0.125000 I0.223225 J3.455916
G02 X219.399530 Y109.234550 Z-0.125000 I2.269732 J8.453975
G02 X218.459902 Y109.645833 Z-0.125000 I3.156969 J8.491497
G02 X217.722114 Y110.085160 Z-0.125000 I2.863482 J5.647990
G03 X217.151114 Y110.510633 Z-0.125000 I-17.791690 J-23.281185
G03 X216.823977 Y110.737305 Z-0.125000 I-5.248147 J-7.224800
G02 X216.563996 Y111.035838 Z-0.125000 I0.742042 J0.908687
G02 X216.510816 Y111.252000 Z-0.125000 I0.315850 J0.192328
G02 X216.549588 Y111.439639 Z-0.125000 I0.690861 J-0.044926
G02 X216.631739 Y111.591010 Z-0.125000 I0.526579 J-0.187803
G03 X216.778109 Y111.787659 Z-0.125000 I-1.367461 J1.170630
G03 X216.906659 Y112.018366 Z-0.125000 I-1.754011 J1.128510
G03 X216.959821 Y112.164997 Z-0.125000 I-1.868793 J0.760489
G03 X217.030683 Y112.406457 Z-0.125000 I-5.059105 J1.615840
G03 X217.083729 Y112.651800 Z-0.125000 I-2.480148 J0.664638
G03 X217.111815 Y112.896359 Z-0.125000 I-2.444824 J0.404667
G03 X217.317007 Y114.122467 Z-0.125000 I-33.715669 J6.272632
G03 X217.636847 Y116.425850 Z-0.125000 I-118.370870 J17.610443
G03 X217.956015 Y118.782570 Z-0.125000 I-90.158790 J13.410077
G03 X218.266783 Y121.581603 Z-0.125000 I-127.187998 J15.538087
G03 X218.451625 Y123.564732 Z-0.125000 I-163.837825 J16.271051
G03 X218.630070 Y125.619094 Z-0.125000 I-4171.569708 J363.383088
G01 X213.157534 Y125.619094 Z-0.125000
G03 X213.181480 Y125.321700 Z-0.125000 I2.401630 J0.043716
G02 X213.198875 Y125.013436 Z-0.125000 I-1.776589 J-0.254875
G02 X212.934830 Y122.988320 Z-0.125000 I-10.237895 J0.305096
G02 X212.292986 Y121.136680 Z-0.125000 I-9.177267 J2.144105
G02 X211.401096 Y119.389886 Z-0.125000 I-15.718813 J6.924721
G02 X210.418679 Y117.931701 Z-0.125000 I-11.926942 J6.975464
G02 X209.292038 Y116.573645 Z-0.125000 I-19.414288 J14.959702
G02 X208.271523 Y115.525129 Z-0.125000 I-12.601747 J11.244325
G01 X206.797192 Y114.136066 Z-0.125000
G02 X206.238630 Y113.711078 Z-0.125000 I-38.552685 J50.090266
G02 X205.281004 Y112.995579 Z-0.125000 I-112.857406 J150.050062
G02 X205.117834 Y112.876094 Z-0.125000 I-9.440566 J12.720970
G02 X204.947693 Y112.754755 Z-0.125000 I-9.917061 J13.725790
G01 X204.497073 Y114.443539 Z-0.125000
G03 X205.044095 Y114.915278 Z-0.125000 I-2.785405 J3.782941
G03 X205.553340 Y115.507058 Z-0.125000 I-3.869309 J3.844665
G03 X206.661013 Y117.757307 Z-0.125000 I-5.083157 J3.899904
G03 X207.277785 Y121.977976 Z-0.125000 I-17.911453 J4.772822
G03 X207.172573 Y124.176183 Z-0.125000 I-14.188160 J0.422541
G03 X206.758437 Y126.094525 Z-0.125000 I-11.179461 J-1.409576
G03 X206.062764 Y127.959040 Z-0.125000 I-10.865104 J-2.991859
G03 X205.130630 Y129.503101 Z-0.125000 I-8.350692 J-3.987842
G03 X203.960763 Y130.827620 Z-0.125000 I-6.914426 J-4.928193
G03 X202.629488 Y131.801141 Z-0.125000 I-5.006723 J-5.449608
G03 X201.110450 Y132.471257 Z-0.125000 I-3.324942 J-5.480312
G03 X199.445702 Y132.735967 Z-0.125000 I-1.861505 J-6.339789
G03 X198.248648 Y132.612841 Z-0.125000 I-0.135112 J-4.566963
G03 X197.057214 Y132.164943 Z-0.125000 I1.186292 J-4.964196
G03 X196.052024 Y131.442415 Z-0.125000 I2.510832 J-4.553576
G03 X195.075939 Y130.346461 Z-0.125000 I4.938635 J-5.381122
G03 X194.322110 Y129.124049 Z-0.125000 I6.141064 J-4.630669
G03 X193.655869 Y127.473244 Z-0.125000 I10.579052 J-5.229396
G03 X193.245931 Y125.737149 Z-0.125000 I11.162756 J-3.552269
G03 X193.046088 Y123.588206 Z-0.125000 I16.949582 J-2.660003
G03 X193.167309 Y121.296765 Z-0.125000 I13.890112 J-0.414117
G03 X193.614011 Y119.420513 Z-0.125000 I9.743794 J1.328521
G03 X194.443911 Y117.657392 Z-0.125000 I10.814613 J4.013549
G03 X195.446458 Y116.253264 Z-0.125000 I7.825647 J4.527539
G03 X196.688377 Y115.106752 Z-0.125000 I6.964625 J6.298296
G03 X198.055087 Y114.248197 Z-0.125000 I5.214289 J6.783395
G03 X199.603431 Y113.720433 Z-0.125000 I3.448084 J7.580786
G03 X201.195465 Y113.512337 Z-0.125000 I1.831315 J7.816497
G03 X203.038626 Y113.734535 Z-0.125000 I0.185192 J6.219548
G03 X204.456250 Y114.413561 Z-0.125000 I-1.189443 J4.302558
G01 X204.906352 Y112.725810 Z-0.125000
G02 X204.068415 Y112.172388 Z-0.125000 I-10.751062 J15.367135
G02 X203.064602 Y111.579105 Z-0.125000 I-13.330782 J21.409339
G02 X201.779634 Y110.940559 Z-0.125000 I-7.094562 J12.664468
G02 X200.311280 Y110.376600 Z-0.125000 I-6.989818 J16.005532
G02 X198.798728 Y110.054527 Z-0.125000 I-2.711878 J9.023058
G02 X197.186403 Y109.975597 Z-0.125000 I-1.306429 J10.179677
G02 X194.772607 Y110.276720 Z-0.125000 I0.384569 J12.907737
G02 X192.817678 Y110.945561 Z-0.125000 I2.017167 J9.087320
G02 X191.040042 Y112.048778 Z-0.125000 I5.010485 J10.057270
G02 X189.628722 Y113.362981 Z-0.125000 I5.770927 J7.612296
G02 X188.557864 Y114.973350 Z-0.125000 I7.700279 J6.281738
G02 X187.757001 Y116.877496 Z-0.125000 I10.004841 J5.328420
G02 X187.341737 Y118.892750 Z-0.125000 I12.171615 J3.558497
G02 X187.240238 Y121.092761 Z-0.125000 I14.415147 J1.767401
G02 X187.357273 Y122.525017 Z-0.125000 I13.890529 J-0.414140
G02 X187.581302 Y123.785612 Z-0.125000 I14.891592 J-1.996281
G01 X182.771775 Y123.785612 Z-0.125000
G02 X182.393827 Y121.982798 Z-0.125000 I-17.906133 J2.812872
G02 X181.842632 Y120.279378 Z-0.125000 I-15.615721 J4.112078
G02 X180.463701 Y117.179343 Z-0.125000 I-27.417850 J10.339071
G02 X178.922910 Y114.622875 Z-0.125000 I-20.124972 J10.386823
G02 X177.155348 Y112.293906 Z-0.125000 I-27.066618 J18.706879
G02 X175.566523 Y110.585887 Z-0.125000 I-16.135133 J13.416161
G02 X173.834155 Y109.018778 Z-0.125000 I-26.477762 J27.528890
G02 X173.051429 Y108.447021 Z-0.125000 I-4.253556 J5.001394
G02 X172.818903 Y108.400669 Z-0.125000 I-0.176194 J0.277472
G02 X172.555335 Y108.533301 Z-0.125000 I0.087257 J0.501594
G02 X172.443897 Y108.783967 Z-0.125000 I0.247212 J0.260007
G02 X172.541392 Y109.076438 Z-0.125000 I0.452111 J0.011775
G03 X172.882645 Y109.424251 Z-0.125000 I-1.200903 J1.519572
G03 X173.689126 Y110.587448 Z-0.125000 I-12.952389 J9.841469
G03 X174.429803 Y111.783892 Z-0.125000 I-10.127571 J7.097118
G03 X175.294198 Y113.543348 Z-0.125000 I-21.146439 J11.480990
G03 X176.004483 Y115.371095 Z-0.125000 I-19.829679 J8.757946
G03 X176.672924 Y117.629390 Z-0.125000 I-29.658604 J10.006836
G03 X177.087239 Y119.935971 Z-0.125000 I-15.690712 J4.008912
G03 X177.191241 Y122.533498 Z-0.125000 I-19.810929 J2.094052
G03 X176.986249 Y124.678101 Z-0.125000 I-15.392631 J-0.389208
G03 X176.550970 Y126.370461 Z-0.125000 I-9.983131 J-1.665524
G03 X175.883264 Y127.964970 Z-0.125000 I-9.664451 J-3.109967
G03 X175.097312 Y129.150149 Z-0.125000 I-6.083707 J-3.181223
G03 X174.085513 Y130.141724 Z-0.125000 I-5.158221 J-4.251417
G03 X172.979610 Y130.825491 Z-0.125000 I-3.502932 J-4.429323
G03 X171.795370 Y131.235096 Z-0.125000 I-2.254179 J-4.600508
G03 X170.496039 Y131.355690 Z-0.125000 I-1.158948 J-5.426907
G03 X169.619217 Y131.264626 Z-0.125000 I0.140547 J-5.620093
G03 X168.627418 Y131.012049 Z-0.125000 I1.375113 J-7.473240
G03 X167.674890 Y130.674620 Z-0.125000 I1.924153 J-6.944846
G03 X166.819260 Y130.225019 Z-0.125000 I2.638323 J-6.059934
G03 X165.979670 Y129.615408 Z-0.125000 I5.200644 J-8.045581
G03 X165.124788 Y128.848365 Z-0.125000 I7.377642 J-9.082417
G03 X164.385518 Y127.982356 Z-0.125000 I4.784634 J-4.832951
G03 X163.932095 Y127.187998 Z-0.125000 I3.574022 J-2.566652
G01 X163.744508 Y126.788027 Z-0.125000
G03 X163.701045 Y126.637970 Z-0.125000 I5.001735 J-1.530029
G03 X163.608600 Y126.290372 Z-0.125000 I24.598778 J-6.728300
G02 X163.563730 Y125.993334 Z-0.125000 I-14.615997 J2.055912
G02 X163.480443 Y125.496622 Z-0.125000 I-41.205373 J6.653857
G03 X163.450004 Y125.001387 Z-0.125000 I19.087688 J-1.421783
G03 X163.415329 Y124.161296 Z-0.125000 I58.521167 J-2.836191
G03 X163.314605 Y122.725057 Z-0.125000 I92.064249 J-7.178177
G03 X163.239630 Y121.340809 Z-0.125000 I85.302469 J-5.314400
G03 X163.238291 Y120.006536 Z-0.125000 I62.085695 J-0.729447
G03 X163.271152 Y118.130142 Z-0.125000 I120.761025 J1.176406
G03 X163.427044 Y115.723576 Z-0.125000 I30.595503 J0.773581
G03 X163.662344 Y114.385148 Z-0.125000 I9.672071 J1.010480
G03 X164.272354 Y113.433077 Z-0.125000 I1.752388 J0.451331
G03 X165.427610 Y112.948036 Z-0.125000 I1.403215 J1.723837
G02 X165.575769 Y112.951806 Z-0.125000 I1.473023 J-54.970590
G03 X165.773326 Y112.956767 Z-0.125000 I-2.352420 J97.611204
G02 X165.970220 Y113.008363 Z-0.125000 I1.917825 J-6.917180
G02 X166.215159 Y113.066305 Z-0.125000 I3.073457 J-12.445728
G03 X166.409941 Y113.125255 Z-0.125000 I-1.160776 J4.186667
G03 X166.705054 Y113.227039 Z-0.125000 I-3.287236 J10.009736
G02 X166.825657 Y113.190338 Z-0.125000 I0.005332 J-0.198986
G02 X166.906589 Y113.083900 Z-0.125000 I-0.129717 J-0.182622
G02 X166.986227 Y112.930830 Z-0.125000 I-0.529541 J-0.372756
G02 X167.012529 Y112.790371 Z-0.125000 I-0.419283 J-0.151205
G02 X166.960631 Y112.673339 Z-0.125000 I-0.149760 J-0.003612
G02 X166.480777 Y112.332006 Z-0.125000 I-2.057655 J2.384741
G02 X165.936059 Y112.040022 Z-0.125000 I-4.754232 J8.215265
G02 X165.114452 Y111.655546 Z-0.125000 I-9.225487 J18.644321
G02 X164.281155 Y111.342084 Z-0.125000 I-33.236605 J87.090810
G02 X163.254615 Y110.966174 Z-0.125000 I-47.560282 J128.288498
G03 X162.277239 Y110.637741 Z-0.125000 I21.641711 J-66.021671
G03 X161.393746 Y110.325908 Z-0.125000 I19.794499 J-57.489711
G03 X160.462899 Y110.051346 Z-0.125000 I32.068940 J-110.438441
G03 X159.775239 Y109.840662 Z-0.125000 I16.504845 J-55.098468
G02 X159.133740 Y109.653415 Z-0.125000 I-2.673542 J7.966910
G02 X158.891573 Y109.620529 Z-0.125000 I-0.270984 J1.087403
G02 X157.776034 Y109.967780 Z-0.125000 I-0.045798 J1.818325
G02 X157.381584 Y110.718656 Z-0.125000 I0.563682 J0.775158
G02 X157.406801 Y110.961378 Z-0.125000 I0.950382 J0.023935
G02 X157.604829 Y111.663299 Z-0.125000 I8.301989 J-1.963294
G03 X157.777032 Y112.372118 Z-0.125000 I-4.371666 J1.437396
G03 X157.946409 Y113.796000 Z-0.125000 I-17.444799 J2.797148
G03 X158.082903 Y115.875132 Z-0.125000 I-252.623626 J17.628589
G03 X158.226495 Y118.348159 Z-0.125000 I-359.073562 J22.089715
G03 X158.335623 Y120.872042 Z-0.125000 I-129.936955 J6.882547
G03 X158.395479 Y123.391781 Z-0.125000 I-129.139724 J4.328286
G03 X158.456067 Y125.913912 Z-0.125000 I-133.428486 J4.467084
G03 X158.467825 Y128.334121 Z-0.125000 I-124.600345 J1.815444
G03 X158.480210 Y130.518433 Z-0.125000 I-110.846031 J1.720668
G03 X158.458009 Y132.295121 Z-0.125000 I-106.877446 J-0.446994
G01 X153.101228 Y132.295122 Z-0.125000
G02 X152.985561 Y132.010116 Z-0.125000 I-1.755264 J0.546385
G02 X152.631489 Y131.392865 Z-0.125000 I-6.162784 J3.124965
G02 X152.220159 Y130.777825 Z-0.125000 I-10.693525 J6.706614
G02 X151.655838 Y130.022905 Z-0.125000 I-16.595898 J11.817462
G02 X151.056993 Y129.340954 Z-0.125000 I-18.661224 J15.783153
G02 X150.384596 Y128.628180 Z-0.125000 I-21.191703 J19.317697
G02 X149.720352 Y128.009583 Z-0.125000 I-7.656218 J7.555255
G02 X149.228078 Y127.639088 Z-0.125000 I-3.208666 J3.751038
G02 X148.935632 Y127.586993 Z-0.125000 I-0.227008 J0.427459
G02 X148.776942 Y127.700577 Z-0.125000 I0.028265 J0.207136
G02 X148.719235 Y127.944931 Z-0.125000 I2.475942 J0.713706
G02 X148.686507 Y128.188919 Z-0.125000 I2.429902 J0.450133
G03 X148.576994 Y128.549757 Z-0.125000 I-0.895446 J-0.074726
G03 X148.161476 Y129.136154 Z-0.125000 I-2.852506 J-1.580860
G03 X147.667561 Y129.634571 Z-0.125000 I-2.513373 J-1.996730
G03 X146.885583 Y130.169167 Z-0.125000 I-3.693822 J-4.563910
G03 X146.064310 Y130.626078 Z-0.125000 I-3.133316 J-4.665415
G03 X145.031432 Y131.005807 Z-0.125000 I-3.160471 J-7.002013
G03 X143.954681 Y131.206945 Z-0.125000 I-1.587124 J-5.513690
G03 X142.734930 Y131.210436 Z-0.125000 I-0.630072 J-7.055150
G03 X140.981495 Y130.512019 Z-0.125000 I0.269608 J-3.227153
G03 X139.482931 Y128.609051 Z-0.125000 I3.333199 J-4.166389
G03 X138.751535 Y126.158984 Z-0.125000 I7.356522 J-3.530278
G03 X138.659724 Y122.444574 Z-0.125000 I17.073864 J-2.280362
G03 X139.036786 Y120.180220 Z-0.125000 I14.022403 J1.171452
G03 X139.698420 Y118.318712 Z-0.125000 I10.115584 J2.547036
G03 X140.730102 Y116.668681 Z-0.125000 I9.629822 J4.873496
G03 X141.926192 Y115.382444 Z-0.125000 I7.004927 J5.314734
G03 X143.393629 Y114.420417 Z-0.125000 I5.427981 J6.679424
G03 X145.137883 Y113.717949 Z-0.125000 I4.545810 J8.770661
G03 X146.978525 Y113.397152 Z-0.125000 I2.685906 J9.970018
G03 X149.030155 Y113.398596 Z-0.125000 I1.017097 J12.382817
G03 X151.776222 Y113.840972 Z-0.125000 I-1.517277 J18.162939
G03 X153.451594 Y114.462089 Z-0.125000 I-1.761368 J7.321116
G03 X154.991083 Y115.435494 Z-0.125000 I-6.708362 J12.313715
G03 X156.067973 Y116.365344 Z-0.125000 I-5.020615 J6.903050
G01 X156.101642 Y116.383026 Z-0.125000
G01 X156.112931 Y116.419081 Z-0.125000
G02 X156.163446 Y116.462234 Z-0.125000 I0.156191 J-0.131697
G02 X156.207498 Y116.476443 Z-0.125000 I0.052147 J-0.086282
G02 X156.423422 Y116.438029 Z-0.125000 I0.035677 J-0.425526
G02 X156.568202 Y116.308485 Z-0.125000 I-0.141425 J-0.303734
G02 X156.650503 Y116.157590 Z-0.125000 I-0.392999 J-0.312240
G02 X156.699459 Y115.922484 Z-0.125000 I-0.934630 J-0.317270
G02 X156.684841 Y115.735643 Z-0.125000 I-0.581261 J-0.048517
G02 X156.625561 Y115.619139 Z-0.125000 I-0.277028 J0.067626
G02 X155.929176 Y114.975130 Z-0.125000 I-27.795703 J29.357746
G02 X154.690278 Y113.871433 Z-0.125000 I-81.014063 J89.690969
G02 X153.458542 Y112.822935 Z-0.125000 I-16.098419 J17.664062
G02 X151.901817 Y111.656076 Z-0.125000 I-21.502803 J27.065383
G02 X150.270878 Y110.643365 Z-0.125000 I-14.395136 J21.363267
G02 X148.542848 Y109.739910 Z-0.125000 I-13.179687 J23.104343
G02 X146.735307 Y109.061749 Z-0.125000 I-4.830855 J10.127998
G02 X145.007660 Y108.750817 Z-0.125000 I-2.499983 J8.935628
G02 X140.227534 Y109.206419 Z-0.125000 I-1.127316 J13.476407
G02 X136.837095 Y111.042164 Z-0.125000 I2.357093 J8.402091
G02 X134.567502 Y114.151693 Z-0.125000 I6.067431 J6.811550
G02 X133.357201 Y118.879391 Z-0.125000 I13.394590 J5.947812
G02 X133.462440 Y122.693420 Z-0.125000 I17.172612 J1.434631
G02 X134.286863 Y125.548244 Z-0.125000 I10.353120 J-1.443350
G02 X135.117019 Y127.062787 Z-0.125000 I12.304442 J-5.759556
G02 X136.021124 Y128.346003 Z-0.125000 I13.596463 J-8.619448
G01 X129.610142 Y128.346003 Z-0.125000
G03 X129.568381 Y128.205289 Z-0.125000 I2.414865 J-0.793234
G02 X129.524361 Y128.059724 Z-0.125000 I-2.159288 J0.573542
G02 X128.832328 Y126.079723 Z-0.125000 I-53.123166 J17.456224
G02 X127.880530 Y123.624326 Z-0.125000 I-83.388407 J30.912090
G02 X126.870340 Y121.237789 Z-0.125000 I-193.471019 J80.486680
G02 X125.723039 Y118.614306 Z-0.125000 I-232.467456 J100.099984
G02 X124.591026 Y116.058144 Z-0.125000 I-287.320871 J125.713200
G02 X123.543326 Y113.750521 Z-0.125000 I-239.171442 J107.196235
G02 X122.475671 Y111.452142 Z-0.125000 I-300.058658 J137.987699
G02 X121.605458 Y109.621061 Z-0.125000 I-185.603889 J87.085034
G03 X120.779524 Y107.799487 Z-0.125000 I370.881534 J-169.262509
G03 X120.401397 Y106.947815 Z-0.125000 I78.635383 J-35.422431
G03 X119.678511 Y105.276486 Z-0.125000 I44.606592 J-20.285324
G03 X119.005097 Y103.547521 Z-0.125000 I47.077887 J-19.331958
G03 X118.396552 Y101.748366 Z-0.125000 I61.396327 J-21.769154
G03 X117.874418 Y100.036101 Z-0.125000 I54.613957 J-17.589597
G03 X117.400542 Y98.263260 Z-0.125000 I108.611192 J-29.981258
G03 X117.015553 Y96.714864 Z-0.125000 I82.586266 J-21.356065
G03 X116.751725 Y95.114665 Z-0.125000 I25.331281 J-4.998262
G03 X116.636765 Y93.863342 Z-0.125000 I15.429932 J-2.048512
G03 X116.752222 Y93.214482 Z-0.125000 I1.461174 J-0.074703
G03 X117.017619 Y92.970902 Z-0.125000 I0.401823 J0.171440
G03 X117.492701 Y92.897764 Z-0.125000 I0.410694 J1.088185
G03 X118.106960 Y93.031359 Z-0.125000 I-0.110053 J1.984966
G03 X118.755084 Y93.277544 Z-0.125000 I-1.315465 J4.439434
G03 X119.507908 Y93.687129 Z-0.125000 I-3.014068 J6.436550
G03 X120.205351 Y94.185024 Z-0.125000 I-3.699733 J5.919960
G03 X120.711972 Y94.663310 Z-0.125000 I-2.919185 J3.599585
G02 X120.922557 Y94.821177 Z-0.125000 I0.544381 J-0.506782
G02 X120.991023 Y94.803857 Z-0.125000 I0.024222 J-0.048231
G02 X121.082504 Y94.658724 Z-0.125000 I-0.372514 J-0.336202
G02 X121.146053 Y94.427645 Z-0.125000 I-0.908595 J-0.374152
G02 X121.157599 Y94.184274 Z-0.125000 I-1.222880 J-0.179975
G02 X121.120203 Y93.924328 Z-0.125000 I-1.434138 J0.073653
G02 X121.032755 Y93.635085 Z-0.125000 I-1.263543 J0.224173
G02 X120.933653 Y93.497476 Z-0.125000 I-0.368413 J0.160828
G03 X120.887860 Y93.481481 Z-0.125000 I0.020353 J-0.131823
G03 X119.874801 Y92.892347 Z-0.125000 I36.995692 J-64.782373
G02 X118.852230 Y92.317182 Z-0.125000 I-13.528788 J22.855906
G02 X117.421720 Y91.582871 Z-0.125000 I-23.618013 J44.249617
G02 X115.969898 Y90.856663 Z-0.125000 I-16.294219 J30.760797
G02 X114.340770 Y90.130757 Z-0.125000 I-17.835672 J37.837009
G02 X112.718108 Y89.538395 Z-0.125000 I-6.173212 J14.391644
G02 X111.473759 Y89.259484 Z-0.125000 I-2.494506 J8.213885
G02 X110.487876 Y89.396888 Z-0.125000 I-0.258130 J1.753489
G02 X110.136888 Y89.861517 Z-0.125000 I0.249029 J0.553007
G03 X110.122431 Y89.959359 Z-0.125000 I-44.192001 J-6.479669
G02 X110.115192 Y90.008282 Z-0.125000 I26.924466 J4.008713
G03 X110.145805 Y90.067168 Z-0.125000 I-0.167756 J0.124612
G03 X110.149815 Y90.113189 Z-0.125000 I-0.094948 J0.031459
G03 X110.504393 Y90.674732 Z-0.125000 I-11.795745 J7.840961
G03 X111.231922 Y91.919792 Z-0.125000 I-56.500047 J33.849924
G03 X111.932801 Y93.180016 Z-0.125000 I-60.615973 J34.536848
G03 X112.763096 Y94.740807 Z-0.125000 I-93.320272 J50.644863
G03 X113.604157 Y96.329092 Z-0.125000 I-49.714606 J27.342725
G03 X114.467384 Y98.086862 Z-0.125000 I-59.494950 J30.308354
G03 X115.345078 Y99.868884 Z-0.125000 I-182.086144 J90.789451
G03 X116.115348 Y101.474774 Z-0.125000 I-144.770828 J70.427464
G03 X116.850573 Y103.050131 Z-0.125000 I-37.245915 J18.342063
G03 X117.388140 Y104.357808 Z-0.125000 I-25.173262 J11.112691
G03 X117.899298 Y105.653065 Z-0.125000 I-17.470539 J7.643031
G03 X118.057349 Y106.253284 Z-0.125000 I-3.578025 J1.263089
G03 X116.972703 Y108.189887 Z-0.125000 I-2438.629923 J-1364.545151
G03 X115.756198 Y110.357450 Z-0.125000 I-2247.602141 J-1260.002127
G03 X114.514793 Y112.510583 Z-0.125000 I-97.643157 J-54.862416
G03 X113.230251 Y114.628489 Z-0.125000 I-96.064329 J-56.815985
G03 X111.944410 Y116.722768 Z-0.125000 I-82.644618 J-49.300094
G03 X110.691388 Y118.647882 Z-0.125000 I-71.440802 J-45.129185
G03 X109.410351 Y120.526121 Z-0.125000 I-34.682088 J-22.278636
G03 X108.309621 Y121.941232 Z-0.125000 I-20.798191 J-15.042020
G03 X107.091890 Y123.308144 Z-0.125000 I-15.538625 J-12.616909
G03 X106.135073 Y124.167464 Z-0.125000 I-7.024664 J-6.859323
G03 X105.116251 Y124.790950 Z-0.125000 I-2.635970 J-3.163216
G03 X104.483495 Y124.872844 Z-0.125000 I-0.461557 J-1.080779
G03 X104.300964 Y124.814869 Z-0.125000 I0.087931 J-0.593183
G03 X104.065432 Y124.661495 Z-0.125000 I0.581073 J-1.149867
G03 X103.838330 Y124.523453 Z-0.125000 I3.414205 J-5.872778
G03 X103.654603 Y124.401039 Z-0.125000 I2.688632 J-4.234357
G02 X103.531208 Y124.384929 Z-0.125000 I-0.073356 J0.081248
G02 X103.276333 Y124.595349 Z-0.125000 I0.353464 J0.687712
G02 X103.149452 Y124.890912 Z-0.125000 I0.492453 J0.386419
G02 X103.211738 Y125.035113 Z-0.125000 I0.147851 J0.021690
G02 X103.367829 Y125.181261 Z-0.125000 I2.035083 J-2.017125
G03 X103.925388 Y125.666065 Z-0.125000 I-459.425564 J528.934058
G01 X99.626425 Y125.666066 Z-0.125000
G03 X99.541037 Y125.328799 Z-0.125000 I11.751960 J-3.154757
G02 X99.395431 Y124.838210 Z-0.125000 I-4.540447 J1.080704
G02 X98.984100 Y123.853395 Z-0.125000 I-18.011121 J6.944454
G02 X98.482308 Y122.811977 Z-0.125000 I-20.496334 J9.234255
G02 X97.981657 Y121.803898 Z-0.125000 I-25.565708 J12.068547
G02 X97.525775 Y120.978493 Z-0.125000 I-17.597701 J9.180851
G02 X97.047782 Y120.241138 Z-0.125000 I-4.489607 J2.386798
G02 X96.857598 Y120.120687 Z-0.125000 I-0.262912 J0.204750
G03 X96.809375 Y120.109863 Z-0.125000 I2.643064 J-11.887915
G02 X96.568210 Y120.055573 Z-0.125000 I-19.391065 J85.575922
G02 X96.333156 Y120.036670 Z-0.125000 I-0.184627 J0.824924
G02 X96.209059 Y120.076740 Z-0.125000 I0.015561 J0.260393
G03 X96.188463 Y120.326596 Z-0.125000 I-2.100119 J-0.047339
G03 X96.117593 Y120.713910 Z-0.125000 I-4.995446 J-0.713924
G03 X95.393529 Y122.093114 Z-0.125000 I-2.918963 J-0.652753
G03 X93.982320 Y123.020231 Z-0.125000 I-2.578191 J-2.386794
G03 X92.250907 Y123.325970 Z-0.125000 I-1.713656 J-4.649100
G03 X89.380533 Y123.003827 Z-0.125000 I0.047939 J-13.376085
G03 X88.119422 Y122.485046 Z-0.125000 I0.878202 J-3.927046
G03 X87.250427 Y121.666967 Z-0.125000 I1.639755 J-2.612390
G03 X86.810109 Y120.607542 Z-0.125000 I2.392700 J-1.615668
G03 X86.824614 Y119.497065 Z-0.125000 I2.651962 J-0.520694
G03 X87.530381 Y117.833820 Z-0.125000 I4.889612 J1.093455
G03 X88.510299 Y116.938569 Z-0.125000 I2.258350 J1.488007
G03 X89.820981 Y116.416780 Z-0.125000 I2.944369 J5.488923
G03 X91.473428 Y116.133441 Z-0.125000 I2.304076 J8.477225
G03 X93.159655 Y116.115801 Z-0.125000 I1.089932 J23.585308
G03 X95.046339 Y116.223875 Z-0.125000 I-0.746760 J29.558718
G02 X96.931274 Y116.306277 Z-0.125000 I1.847900 J-20.670649
G02 X98.640954 Y116.217790 Z-0.125000 I-0.030609 J-17.152268
G02 X100.282559 Y115.912814 Z-0.125000 I-0.566979 J-7.622557
G02 X101.626303 Y115.316539 Z-0.125000 I-1.710173 J-5.666222
G02 X102.623579 Y114.333046 Z-0.125000 I-1.542996 J-2.561993
G02 X103.365732 Y112.517245 Z-0.125000 I-4.982209 J-3.095894
G02 X103.470134 Y111.600360 Z-0.125000 I-4.231666 J-0.946228
G02 X103.378644 Y110.647593 Z-0.125000 I-4.677131 J-0.031651
G02 X103.124956 Y109.715165 Z-0.125000 I-7.031619 J1.412381
G02 X102.733203 Y108.782570 Z-0.125000 I-7.401128 J2.560402
G02 X102.241635 Y107.894105 Z-0.125000 I-10.557430 J5.260968
G02 X101.658851 Y107.024043 Z-0.125000 I-10.699834 J6.536740
G02 X101.005341 Y106.244976 Z-0.125000 I-13.528517 J10.684594
G02 X100.364355 Y105.570368 Z-0.125000 I-10.736423 J9.559505
G02 X99.738367 Y104.937681 Z-0.125000 I-18.583987 J17.761179
G02 X98.952038 Y104.191650 Z-0.125000 I-26.470871 J27.113357
G02 X98.127641 Y103.526173 Z-0.125000 I-13.545558 J15.936934
G02 X97.180569 Y102.834099 Z-0.125000 I-15.690670 J20.477923
G02 X96.191849 Y102.207433 Z-0.125000 I-7.712576 J11.075179
G02 X95.162601 Y101.674483 Z-0.125000 I-6.602756 J11.491089
G02 X94.093398 Y101.206492 Z-0.125000 I-4.267214 J8.293779
G02 X93.009760 Y100.889014 Z-0.125000 I-2.981535 J8.168678
G02 X92.475185 Y100.808863 Z-0.125000 I-0.829567 J3.710113
G02 X91.269298 Y100.753098 Z-0.125000 I-1.488921 J19.130662
G02 X90.068943 Y100.708759 Z-0.125000 I-1.840979 J33.569589
G02 X88.799678 Y100.706584 Z-0.125000 I-0.697343 J36.590014
G02 X87.578358 Y100.740725 Z-0.125000 I5.209944 J208.236826
G02 X86.608596 Y100.773762 Z-0.125000 I4.718949 J152.769034
G02 X85.646650 Y100.892869 Z-0.125000 I1.111290 J12.919138
G02 X85.558531 Y100.943783 Z-0.125000 I0.022892 J0.141333
G03 X85.284238 Y100.581381 Z-0.125000 I1.109898 J-1.125056
G03 X85.018513 Y99.962972 Z-0.125000 I3.020166 J-1.664034
G03 X84.824766 Y99.351687 Z-0.125000 I7.580013 J-2.738839
G03 X84.767881 Y99.046746 Z-0.125000 I1.810585 J-0.495528
G02 X84.714242 Y98.962207 Z-0.125000 I-0.153715 J0.038244
G02 X84.511050 Y98.837434 Z-0.125000 I-0.567311 J0.696030
G02 X84.332845 Y98.712041 Z-0.125000 I-0.977658 J1.200086
G02 X84.243365 Y98.676224 Z-0.125000 I-0.154335 J0.255884
G02 X83.908253 Y98.734747 Z-0.125000 I-0.096965 J0.433476
G02 X83.712648 Y99.013144 Z-0.125000 I0.238477 J0.375472
G02 X83.714375 Y99.155814 Z-0.125000 I0.302538 J0.067683
G02 X83.926072 Y99.870448 Z-0.125000 I8.278952 J-2.063809
G02 X84.109958 Y100.416288 Z-0.125000 I60.175700 J-19.968429
G02 X84.507433 Y101.569576 Z-0.125000 I239.430043 J-81.873375
G01 X85.286198 Y103.970460 Z-0.125000
G02 X85.713676 Y105.229621 Z-0.125000 I1233.930979 J-418.210244
G02 X86.049458 Y106.215821 Z-0.125000 I1321.459337 J-449.381222
G02 X86.440250 Y107.253689 Z-0.125000 I31.095893 J-11.116137
G02 X86.599297 Y107.604355 Z-0.125000 I3.662117 J-1.449577
G02 X86.830028 Y107.781109 Z-0.125000 I0.356264 J-0.226088
G02 X87.167220 Y107.781599 Z-0.125000 I0.169387 J-0.543572
G02 X87.409854 Y107.637424 Z-0.125000 I-0.075440 J-0.403211
G02 X87.446273 Y107.438990 Z-0.125000 I-0.162572 J-0.132397
G03 X87.387523 Y107.315397 Z-0.125000 I0.475582 J-0.301831
G03 X87.355323 Y107.165622 Z-0.125000 I0.660705 J-0.220392
G03 X87.356774 Y107.011361 Z-0.125000 I0.696116 J-0.070590
G03 X87.414751 Y106.673153 Z-0.125000 I3.414882 J0.411321
G03 X87.614894 Y106.314585 Z-0.125000 I0.702823 J0.157154
G03 X88.385751 Y105.726447 Z-0.125000 I2.807038 J2.879874
G03 X89.316508 Y105.322556 Z-0.125000 I4.278519 J8.585341
G03 X90.593885 Y104.904254 Z-0.125000 I5.859164 J15.732715
G03 X91.889170 Y104.641136 Z-0.125000 I3.689624 J14.843598
G03 X93.374597 Y104.463457 Z-0.125000 I3.070949 J19.375687
G03 X94.861791 Y104.450309 Z-0.125000 I0.834693 J10.297172
G03 X96.218869 Y104.643824 Z-0.125000 I-0.552454 J8.729457
G03 X97.642231 Y105.237536 Z-0.125000 I-0.965568 J4.317887
G03 X98.520539 Y106.120199 Z-0.125000 I-1.557675 J2.428306
G03 X98.988518 Y107.306054 Z-0.125000 I-2.479107 J1.663609
G03 X98.945836 Y108.745370 Z-0.125000 I-3.756107 J0.608905
G03 X98.291491 Y110.210202 Z-0.125000 I-3.938247 J-0.880662
G03 X97.324746 Y111.014994 Z-0.125000 I-2.018579 J-1.441749
G03 X96.045513 Y111.452597 Z-0.125000 I-2.652321 J-5.664876
G03 X94.393656 Y111.674918 Z-0.125000 I-2.092586 J-9.300187
G03 X92.755571 Y111.698438 Z-0.125000 I-1.115492 J-20.634824
G03 X90.820747 Y111.584484 Z-0.125000 I0.730886 J-28.892239
G02 X88.925886 Y111.538705 Z-0.125000 I-1.530439 J24.108899
G02 X87.215279 Y111.638750 Z-0.125000 I0.298359 J19.775782
G02 X85.609282 Y111.986036 Z-0.125000 I0.895466 J8.028059
G02 X84.267655 Y112.598897 Z-0.125000 I2.013774 J6.183318
G02 X83.264554 Y113.578322 Z-0.125000 I1.577471 J2.618991
G02 X82.549929 Y115.302094 Z-0.125000 I4.574781 J2.906587
G02 X82.462588 Y116.778847 Z-0.125000 I4.504864 J1.007396
G02 X82.883244 Y118.564937 Z-0.125000 I7.070582 J-0.722667
G02 X83.516197 Y119.865381 Z-0.125000 I9.500296 J-3.819736
G02 X84.376175 Y121.153410 Z-0.125000 I10.317003 J-5.957242
G01 X76.713072 Y121.153411 Z-0.125000
G02 X76.674657 Y120.158151 Z-0.125000 I-15.125948 J0.085465
G02 X76.566313 Y119.180412 Z-0.125000 I-12.630634 J0.904737
G02 X75.735052 Y115.953999 Z-0.125000 I-17.096310 J2.684448
G02 X74.318901 Y112.996276 Z-0.125000 I-15.754434 J5.725299
G02 X72.401272 Y110.414669 Z-0.125000 I-14.827079 J9.010604
G02 X69.972395 Y108.155219 Z-0.125000 I-13.756588 J12.352910
G02 X67.230468 Y106.365128 Z-0.125000 I-11.741446 J14.989680
G02 X64.312271 Y105.119759 Z-0.125000 I-8.442728 J15.741623
G02 X63.366683 Y104.835814 Z-0.125000 I-6.717068 J20.652590
G02 X62.214725 Y104.541485 Z-0.125000 I-8.388891 J30.431415
G02 X61.368321 Y104.408575 Z-0.125000 I-1.345171 J5.804890
G02 X60.845815 Y104.388530 Z-0.125000 I-0.481601 J5.733428
G01 X59.933209 Y107.062781 Z-0.125000
G03 X60.495356 Y106.802450 Z-0.125000 I1.312770 J2.097643
G03 X61.604942 Y106.576000 Z-0.125000 I1.610223 J5.058281
G03 X63.174747 Y106.651207 Z-0.125000 I0.456258 J6.897411
G03 X65.451737 Y107.203856 Z-0.125000 I-2.475603 J15.166909
G03 X67.410580 Y108.062579 Z-0.125000 I-3.356076 J10.319118
G03 X68.964705 Y109.177384 Z-0.125000 I-4.251668 J7.567841
G03 X70.241201 Y110.675910 Z-0.125000 I-5.569872 J6.037555
G03 X71.159920 Y112.488302 Z-0.125000 I-7.298136 J4.838544
G03 X71.698083 Y114.489546 Z-0.125000 I-8.908886 J3.468710
G03 X71.848250 Y116.919044 Z-0.125000 I-13.037968 J2.025264
G03 X71.598205 Y119.414878 Z-0.125000 I-15.220179 J-0.264391
G03 X70.827125 Y122.455135 Z-0.125000 I-23.366314 J-4.308331
G03 X69.941535 Y124.573095 Z-0.125000 I-13.391047 J-4.355117
G03 X68.871170 Y126.233731 Z-0.125000 I-9.259151 J-4.792723
G03 X67.491058 Y127.704421 Z-0.125000 I-8.444330 J-6.541356
G03 X66.031034 Y128.737961 Z-0.125000 I-5.558993 J-6.304861
G03 X64.432333 Y129.461701 Z-0.125000 I-4.245393 J-7.250247
G03 X62.712371 Y129.839714 Z-0.125000 I-2.668442 J-8.039514
G03 X62.266913 Y129.878109 Z-0.125000 I-0.954009 J-8.464916
G03 X61.822503 Y129.891387 Z-0.125000 I-0.444411 J-7.430848
G03 X60.504140 Y129.787616 Z-0.125000 I-0.024133 J-8.119907
G03 X59.148762 Y129.459878 Z-0.125000 I1.441298 J-8.927038
G03 X58.194717 Y129.072821 Z-0.125000 I2.244331 J-6.901306
G03 X57.267738 Y128.536429 Z-0.125000 I3.465086 J-7.057466
G03 X56.433556 Y127.958664 Z-0.125000 I5.813883 J-9.285220
G03 X55.728296 Y127.360779 Z-0.125000 I5.491556 J-7.192690
G03 X55.124007 Y126.753002 Z-0.125000 I4.638235 J-5.215912
G03 X54.704585 Y126.196506 Z-0.125000 I3.481854 J-3.060521
G03 X54.425811 Y125.648827 Z-0.125000 I2.322065 J-1.526746
G03 X54.370239 Y125.308722 Z-0.125000 I0.819505 J-0.308497
G03 X54.397233 Y124.999737 Z-0.125000 I1.638881 J-0.012493
G03 X54.640506 Y123.839040 Z-0.125000 I23.618489 J4.344400
G02 X54.954848 Y122.695132 Z-0.125000 I-122.353972 J-34.237596
G02 X55.400667 Y121.022152 Z-0.125000 I-271.506827 J-73.247622
G02 X55.864969 Y119.407498 Z-0.125000 I-160.143625 J-46.924227
G02 X56.420760 Y117.406354 Z-0.125000 I-246.275950 J-69.477630
G02 X56.999910 Y115.465310 Z-0.125000 I-11191.013203 J-3340.433604
G02 X57.564361 Y113.571429 Z-0.125000 I-4372.576047 J-1304.182727
G02 X58.162783 Y111.688906 Z-0.125000 I-141.143883 J-45.903581
G02 X58.677988 Y109.986640 Z-0.125000 I-117.416826 J-36.466269
G01 X59.548737 Y107.309796 Z-0.125000
G03 X59.662985 Y107.224987 Z-0.125000 I0.207611 J0.160321
G02 X59.806084 Y107.144431 Z-0.125000 I-0.197109 J-0.517520
G01 X60.749697 Y104.377682 Z-0.125000
G03 X60.623614 Y104.361329 Z-0.125000 I-0.015835 J-0.372156
G02 X60.510950 Y104.350800 Z-0.125000 I-0.081365 J0.262591
G01 X61.504173 Y101.298274 Z-0.125000
G03 X62.126710 Y99.423398 Z-0.125000 I152.686116 J49.657409
G03 X62.772829 Y97.555873 Z-0.125000 I147.475617 J49.977486
G03 X63.458363 Y95.703290 Z-0.125000 I62.126974 J21.936495
G03 X64.076109 Y94.188625 Z-0.125000 I42.754726 J16.553901
G03 X64.768525 Y92.773838 Z-0.125000 I15.312944 J6.617534
G03 X65.093101 Y92.338101 Z-0.125000 I1.732726 J0.951936
G03 X65.375981 Y92.159864 Z-0.125000 I0.441189 J0.386613
G03 X65.778849 Y92.145855 Z-0.125000 I0.230245 J0.821521
G03 X66.269303 Y92.241630 Z-0.125000 I-0.385251 J3.276482
G03 X66.827364 Y92.434727 Z-0.125000 I-1.216763 J4.419485
G03 X67.381653 Y92.640712 Z-0.125000 I-2.212586 J6.802637
G03 X67.924457 Y92.895182 Z-0.125000 I-2.812613 J6.705698
G02 X68.523253 Y93.131174 Z-0.125000 I7.796960 J-18.905931
G02 X68.942481 Y93.278087 Z-0.125000 I3.456225 J-9.191065
G02 X69.081656 Y93.244517 Z-0.125000 I-0.000000 J-0.305279
G02 X69.191047 Y93.151483 Z-0.125000 I-0.142736 J-0.278662
G02 X69.288148 Y92.973569 Z-0.125000 I-1.437347 J-0.899920
G02 X69.360544 Y92.790777 Z-0.125000 I-1.419768 J-0.668045
G02 X69.421493 Y92.553797 Z-0.125000 I-1.858399 J-0.604286
G02 X69.435474 Y92.400119 Z-0.125000 I-0.771736 J-0.147687
G02 X69.400926 Y92.229798 Z-0.125000 I-0.325512 J-0.022638
G02 X69.308869 Y92.151040 Z-0.125000 I-0.140904 J0.071518
G03 X68.432765 Y91.821546 Z-0.125000 I3.197796 J-9.832229
G03 X67.303305 Y91.291144 Z-0.125000 I7.225111 J-16.853217
G03 X66.259217 Y90.678506 Z-0.125000 I27.879997 J-48.710438
G03 X65.044526 Y89.933090 Z-0.125000 I40.852371 J-67.933322
G03 X63.910037 Y89.128775 Z-0.125000 I28.450827 J-41.332222
G03 X62.736138 Y88.247403 Z-0.125000 I32.197881 J-44.106769
G03 X61.634201 Y87.349635 Z-0.125000 I30.378905 J-38.412795
G03 X60.614819 Y86.467126 Z-0.125000 I28.155972 J-33.552853
G03 X59.677241 Y85.593238 Z-0.125000 I10.172708 J-11.854000
G03 X58.270260 Y84.094660 Z-0.125000 I28.534443 J-28.200117
G02 X56.907465 Y82.518303 Z-0.125000 I-156.769849 J134.153760
G02 X55.545360 Y80.974956 Z-0.125000 I-149.517786 J130.586521
G02 X54.170223 Y79.410271 Z-0.125000 I-59.970577 J51.319042
G02 X53.025615 Y78.182357 Z-0.125000 I-38.720653 J34.946276
G02 X51.804083 Y77.063614 Z-0.125000 I-9.494473 J9.140561
G02 X51.297554 Y76.789166 Z-0.125000 I-0.998565 J1.238324
G02 X51.061810 Y76.755804 Z-0.125000 I-0.212466 J0.651739
G02 X50.719812 Y76.808745 Z-0.125000 I0.049239 J1.449195
G02 X50.342629 Y76.920536 Z-0.125000 I0.481008 J2.315131
G02 X50.065587 Y77.063513 Z-0.125000 I0.539731 J1.385720
G02 X49.814516 Y77.263949 Z-0.125000 I0.362009 J0.710926
G02 X49.725039 Y77.472268 Z-0.125000 I0.306034 J0.254823
G02 X49.783792 Y77.636082 Z-0.125000 I0.215885 J0.015014
G02 X50.150336 Y77.921875 Z-0.125000 I1.126288 J-1.066568
G03 X51.202805 Y78.577654 Z-0.125000 I-3.360889 J6.566389
G03 X52.615820 Y79.762582 Z-0.125000 I-9.777360 J13.094374
G03 X53.936451 Y81.064233 Z-0.125000 I-26.587231 J28.295672
G03 X55.181039 Y82.414608 Z-0.125000 I-27.388279 J26.491452
G03 X56.359047 Y83.823083 Z-0.125000 I-28.731891 J25.227383
G03 X57.246031 Y85.007737 Z-0.125000 I-19.408817 J15.456315
G03 X58.131270 Y86.206558 Z-0.125000 I-25.476392 J19.738660
G03 X58.382396 Y86.623654 Z-0.125000 I-2.807556 J1.974522
G03 X58.444027 Y86.948602 Z-0.125000 I-0.526832 J0.268239
G03 X58.164321 Y88.890182 Z-0.125000 I-20.776984 J-2.002213
G03 X57.814734 Y90.806454 Z-0.125000 I-51.511021 J-8.407167
G03 X57.230011 Y93.519890 Z-0.125000 I-103.552481 J-20.894991
G03 X56.563446 Y96.265683 Z-0.125000 I-122.766355 J-28.348792
G03 X55.727262 Y99.419282 Z-0.125000 I-160.928235 J-40.982844
G03 X54.847291 Y102.614193 Z-0.125000 I-114.869389 J-29.919695
G03 X53.990415 Y105.398233 Z-0.125000 I-88.209528 J-25.625395
G03 X53.791155 Y106.009322 Z-0.125000 I-397.465073 J-129.264839
G03 X53.599226 Y106.596109 Z-0.125000 I-2018.799697 J-659.995434
G01 X49.267187 Y104.827739 Z-0.125000
G02 X50.150591 Y89.569750 Z-0.125000 I-36.438570 J-9.764282
G02 X44.632323 Y76.103895 Z-0.125000 I-29.945271 J4.407874
G02 X38.169039 Y70.221301 Z-0.125000 I-17.688457 J12.942594
G02 X31.247086 Y68.122471 Z-0.125000 I-7.689132 J12.895067
G02 X23.564957 Y69.845688 Z-0.125000 I-0.748293 J14.649235
G02 X16.367884 Y76.103897 Z-0.125000 I10.176102 J18.970232
G03 X9.964310 Y79.771254 Z-0.125000 I-7.342492 J-5.396410
G03 X3.414662 Y77.445919 Z-0.125000 I-0.832930 J-8.040619
G03 X11.427068 Y34.709392 Z-0.125000 I223.570714 J19.796522
G03 X24.979244 Y3.110369 Z-0.125000 I134.784780 J39.100804
G00 Z5.000000

(End cutting path id: path9166)


(Footer)
M5
G00 X0.0000 Y0.0000
M2
(Using default footer. To add your own footer create file "footer" in the output dir.)
(end)
%