%
(Header)
(Generated by gcodetools from Inkscape.)
(Using default header. To add your own header create file "header" in the output dir.)
M3
(Header end.)
G21 (All units in mm)

(Start cutting path id: path21749)
(Change tool to Default tool)

G00 Z5.000000
G00 X22.718998 Y4.745039

G01 Z-0.125000 F100.0(Penetrate)
G03 X23.089157 Y4.558711 Z-0.125000 I1.200820 J1.924698 F400.000000
G03 X23.511713 Y4.430847 Z-0.125000 I0.998422 J2.537371
G03 X23.960113 Y4.358428 Z-0.125000 I0.560669 J2.047138
G03 X24.420184 Y4.418940 Z-0.125000 I0.067185 J1.268398
G03 X25.216252 Y4.861998 Z-0.125000 I-0.733019 J2.253759
G03 X26.394738 Y5.966116 Z-0.125000 I-10.109854 J11.971799
G03 X27.554699 Y7.209397 Z-0.125000 I-39.112962 J37.654494
G03 X28.939800 Y8.784031 Z-0.125000 I-57.052813 J51.582106
G01 X28.929984 Y8.776358 Z-0.125000
G03 X30.296802 Y10.323359 Z-0.125000 I-165.937706 J147.987798
G03 X31.664180 Y11.903306 Z-0.125000 I-140.461608 J122.945330
G01 X31.654364 Y11.895633 Z-0.125000
G02 X33.049476 Y13.379490 Z-0.125000 I28.904863 J-25.778391
G02 X33.943628 Y14.211766 Z-0.125000 I10.756211 J-10.659438
G01 X33.947253 Y14.215999 Z-0.125000
G01 X33.951381 Y14.220762 Z-0.125000
G02 X34.956265 Y15.091078 Z-0.125000 I29.139867 J-32.630176
G02 X36.044790 Y15.978281 Z-0.125000 I30.690145 J-36.542939
G01 X36.041166 Y15.971931 Z-0.125000
G02 X37.199343 Y16.842036 Z-0.125000 I33.666796 J-43.607214
G02 X38.316476 Y17.634359 Z-0.125000 I28.333121 J-38.764528
G01 X38.319210 Y17.635839 Z-0.125000
G01 X38.322165 Y17.638592 Z-0.125000
G02 X39.507069 Y18.364565 Z-0.125000 I39.270903 J-62.766407
G02 X40.523580 Y18.960475 Z-0.125000 I30.075182 J-50.137714
G02 X41.616850 Y19.474098 Z-0.125000 I8.260396 J-16.162290
G02 X42.431988 Y19.781079 Z-0.125000 I3.760445 J-8.749513
G03 X42.687565 Y19.920893 Z-0.125000 I-0.243163 J0.747997
G03 X42.883121 Y20.164010 Z-0.125000 I-0.482348 J0.588194
G03 X42.961679 Y20.426755 Z-0.125000 I-0.680906 J0.346702
G03 X42.966837 Y20.624967 Z-0.125000 I-1.173296 J0.129705
G03 X42.939134 Y20.902916 Z-0.125000 I-1.639468 J-0.023053
G03 X42.869169 Y21.177390 Z-0.125000 I-2.144548 J-0.400501
G03 X42.768381 Y21.429946 Z-0.125000 I-1.982578 J-0.644801
G03 X42.636624 Y21.669858 Z-0.125000 I-2.158836 J-1.029471
G01 X42.625247 Y21.688908 Z-0.125000
G01 X42.611304 Y21.708487 Z-0.125000
G03 X42.291380 Y21.979086 Z-0.125000 I-0.727233 J-0.535376
G03 X41.883185 Y22.077448 Z-0.125000 I-0.412765 J-0.816772
G01 X41.785516 Y22.080094 Z-0.125000
G01 X41.693532 Y22.049085 Z-0.125000
G03 X41.244501 Y21.891693 Z-0.125000 I3.235288 J-9.949357
G03 X40.633133 Y21.650649 Z-0.125000 I7.378610 J-19.610440
G01 X40.607283 Y21.640330 Z-0.125000
G01 X40.584027 Y21.628953 Z-0.125000
G02 X40.086321 Y21.395271 Z-0.125000 I-3.122963 J6.004553
G02 X39.579955 Y21.206758 Z-0.125000 I-2.498905 J5.937993
G01 X39.556698 Y21.199085 Z-0.125000
G01 X39.533442 Y21.189296 Z-0.125000
G02 X39.041510 Y21.018657 Z-0.125000 I-1.583375 J3.770264
G02 X38.646676 Y20.941249 Z-0.125000 I-0.701793 J2.533985
G01 X38.621355 Y20.938603 Z-0.125000
G01 X38.596035 Y20.932518 Z-0.125000
G02 X38.504509 Y20.922625 Z-0.125000 I-0.097181 J0.470757
G01 X38.482346 Y20.932518 Z-0.125000
G01 X38.470969 Y20.946541 Z-0.125000
G01 X38.457025 Y20.960035 Z-0.125000
G02 X38.303568 Y21.160791 Z-0.125000 I0.719588 J0.709079
G02 X37.564574 Y22.624024 Z-0.125000 I11.894276 J6.925341
G01 X37.564574 Y22.626669 Z-0.125000
G02 X36.955474 Y24.119460 Z-0.125000 I41.990377 J18.003877
G02 X36.275250 Y25.956711 Z-0.125000 I60.209075 J23.336372
G02 X35.631763 Y27.816470 Z-0.125000 I146.605696 J51.767580
G02 X35.011760 Y29.683601 Z-0.125000 I150.816639 J51.116955
G01 X34.244367 Y32.046750 Z-0.125000
G02 X34.704121 Y32.078667 Z-0.125000 I0.823161 J-8.530077
G03 X35.287197 Y32.157875 Z-0.125000 I-0.134929 J3.178975
G01 X35.289313 Y32.157875 Z-0.125000
G03 X35.344328 Y32.172867 Z-0.125000 I-0.202581 J0.851853
G02 X35.398869 Y32.187826 Z-0.125000 I0.269126 J-0.874321
G01 X34.048564 Y35.489954 Z-0.125000
G02 X33.175677 Y35.746645 Z-0.125000 I1.193195 J5.670004
G02 X33.002118 Y35.866667 Z-0.125000 I0.158002 J0.413979
G01 X32.191316 Y38.359039 Z-0.125000
G01 X32.185628 Y38.374650 Z-0.125000
G03 X31.671650 Y40.071752 Z-0.125000 I-118.104296 J-34.842214
G03 X31.076136 Y41.944959 Z-0.125000 I-143.680706 J-44.646488
G01 X31.072511 Y41.958453 Z-0.125000
G02 X30.512342 Y43.839495 Z-0.125000 I161548.813737 J48124.898287
G03 X29.937699 Y45.766993 Z-0.125000 I-3100.177231 J-923.209534
G01 X29.933571 Y45.777311 Z-0.125000
G01 X29.933571 Y45.782074 Z-0.125000
G03 X29.381133 Y47.768825 Z-0.125000 I-231.507799 J-63.303087
G03 X28.918131 Y49.377704 Z-0.125000 I-171.298657 J-48.425209
G01 X28.914003 Y49.393314 Z-0.125000
G03 X28.474627 Y51.042241 Z-0.125000 I-274.725995 J-72.321054
G03 X28.162111 Y52.180220 Z-0.125000 I-123.816956 J-33.391121
G01 X28.159995 Y52.186305 Z-0.125000
G02 X27.911904 Y53.460436 Z-0.125000 I16.554430 J3.884589
G02 X27.908331 Y53.508718 Z-0.125000 I0.298346 J0.046351
G01 X27.908331 Y53.522212 Z-0.125000
G01 X27.906215 Y53.534118 Z-0.125000
G02 X27.913349 Y53.587422 Z-0.125000 I0.158943 J0.005856
G02 X28.142373 Y54.071036 Z-0.125000 I1.838497 J-0.574618
G01 X28.144490 Y54.073682 Z-0.125000
G01 X28.146607 Y54.077915 Z-0.125000
G02 X28.506443 Y54.555386 Z-0.125000 I3.350263 J-2.150526
G02 X29.064379 Y55.116589 Z-0.125000 I4.835825 J-4.249738
G01 X29.070570 Y55.122939 Z-0.125000
G01 X29.076259 Y55.129024 Z-0.125000
G02 X29.733002 Y55.685227 Z-0.125000 I5.713609 J-6.080581
G02 X30.523713 Y56.232309 Z-0.125000 I6.358095 J-8.344557
G01 X30.531465 Y56.238659 Z-0.125000
G01 X30.541281 Y56.244480 Z-0.125000
G02 X31.398196 Y56.740018 Z-0.125000 I4.044132 J-6.004675
G02 X32.271405 Y57.094029 Z-0.125000 I2.935595 J-5.987039
G02 X33.538873 Y57.400254 Z-0.125000 I2.608610 J-8.020923
G02 X34.757557 Y57.495560 Z-0.125000 I1.191746 J-7.399548
G02 X35.168931 Y57.483137 Z-0.125000 I0.000000 J-6.817338
G02 X35.581794 Y57.447486 Z-0.125000 I-0.485417 J-8.029727
G01 X35.582323 Y57.447486 Z-0.125000
G02 X37.180992 Y57.096286 Z-0.125000 I-0.883084 J-7.834020
G02 X38.665850 Y56.424317 Z-0.125000 I-2.454025 J-7.399217
G01 X38.669978 Y56.421671 Z-0.125000
G01 X38.675666 Y56.417437 Z-0.125000
G02 X40.026659 Y55.461940 Z-0.125000 I-3.797428 J-6.802084
G02 X41.333900 Y54.069766 Z-0.125000 I-6.661923 J-7.565330
G01 X41.336016 Y54.067120 Z-0.125000
G01 X41.338133 Y54.064474 Z-0.125000
G02 X42.342831 Y52.505991 Z-0.125000 I-7.692068 J-6.061887
G02 X43.193315 Y50.472443 Z-0.125000 I-11.994359 J-6.210981
G02 X43.946724 Y47.499181 Z-0.125000 I-22.029255 J-7.164186
G02 X44.185501 Y45.111012 Z-0.125000 I-14.362696 J-2.642051
G01 X44.185501 Y45.106779 Z-0.125000
G01 X44.185501 Y45.102545 Z-0.125000
G02 X44.041462 Y42.774775 Z-0.125000 I-12.626033 J-0.387063
G02 X43.539030 Y40.906947 Z-0.125000 I-8.822726 J1.371763
G01 X43.537442 Y40.903243 Z-0.125000
G01 X43.535326 Y40.897157 Z-0.125000
G02 X42.679691 Y39.210496 Z-0.125000 I-7.627927 J2.809248
G02 X41.499793 Y37.824978 Z-0.125000 I-6.366513 J4.226524
G02 X40.058545 Y36.789963 Z-0.125000 I-5.412254 J6.015540
G02 X38.203356 Y35.975490 Z-0.125000 I-5.017408 J8.908452
G02 X36.001336 Y35.444322 Z-0.125000 I-4.510940 J13.870678
G02 X34.593764 Y35.377586 Z-0.125000 I-1.001565 J6.247243
G02 X34.339703 Y35.424104 Z-0.125000 I0.145837 J1.513545
G03 X34.134361 Y35.471645 Z-0.125000 I-0.718008 J-2.634013
G01 X35.469677 Y32.206744 Z-0.125000
G03 X36.536442 Y32.480810 Z-0.125000 I-9.041220 J37.404872
G03 X37.435962 Y32.749324 Z-0.125000 I-5.073728 J18.637898
G03 X40.451829 Y34.035934 Z-0.125000 I-5.718179 J17.581603
G03 X43.277460 Y35.879896 Z-0.125000 I-9.261262 J17.278613
G01 X43.279577 Y35.882542 Z-0.125000
G03 X45.785364 Y38.213404 Z-0.125000 I-11.708506 J15.099549
G03 X47.769738 Y40.884299 Z-0.125000 I-13.342666 J11.985705
G01 X47.769738 Y40.886945 Z-0.125000
G03 X48.969412 Y43.271185 Z-0.125000 I-14.590086 J8.835201
G03 X49.791832 Y45.810146 Z-0.125000 I-16.573631 J6.771214
G01 X54.974455 Y45.810146 Z-0.125000
G03 X54.806839 Y44.540789 Z-0.125000 I8.465714 J-1.763626
G03 X54.902110 Y43.373099 Z-0.125000 I4.233140 J-0.242353
G03 X55.685853 Y41.473078 Z-0.125000 I5.885860 J1.316214
G03 X56.896301 Y40.286976 Z-0.125000 I3.103129 J1.956128
G03 X58.366653 Y39.616630 Z-0.125000 I3.652357 J6.063440
G03 X60.085765 Y39.246212 Z-0.125000 I2.684594 J8.284800
G01 X60.089892 Y39.243567 Z-0.125000
G01 X60.092009 Y39.243567 Z-0.125000
G03 X61.857133 Y39.141095 Z-0.125000 I2.052941 J20.109092
G03 X63.796687 Y39.188771 Z-0.125000 I0.355942 J24.995534
G01 X63.804439 Y39.188771 Z-0.125000
G01 X63.812191 Y39.188771 Z-0.125000
G02 X65.711357 Y39.301115 Z-0.125000 I2.636858 J-28.467166
G02 X67.298795 Y39.278703 Z-0.125000 I0.513183 J-19.881626
G01 X67.300911 Y39.278703 Z-0.125000
G01 X67.303028 Y39.278703 Z-0.125000
G02 X68.861528 Y39.066846 Z-0.125000 I-0.409524 J-8.850975
G02 X70.007768 Y38.673046 Z-0.125000 I-1.261027 J-5.535586
G02 X70.735522 Y38.068735 Z-0.125000 I-0.794868 J-1.697600
G02 X71.297094 Y36.815806 Z-0.125000 I-2.788175 J-2.001994
G02 X71.332063 Y35.598130 Z-0.125000 I-3.126257 J-0.699121
G02 X70.959131 Y34.655724 Z-0.125000 I-2.352277 J0.385858
G01 X70.955004 Y34.649638 Z-0.125000
G01 X70.951379 Y34.644082 Z-0.125000
G02 X70.264382 Y33.950685 Z-0.125000 I-1.928475 J1.223648
G02 X69.025400 Y33.430731 Z-0.125000 I-2.070026 J3.196459
G02 X67.765047 Y33.250739 Z-0.125000 I-1.779855 J7.960354
G02 X66.361483 Y33.262774 Z-0.125000 I-0.618704 J9.694797
G02 X64.921237 Y33.435263 Z-0.125000 I1.531584 J18.887435
G02 X63.681548 Y33.687033 Z-0.125000 I2.313695 J14.570371
G02 X62.466820 Y34.086655 Z-0.125000 I4.318597 J15.173209
G02 X61.613459 Y34.456493 Z-0.125000 I3.225703 J8.612399
G02 X60.949447 Y35.011340 Z-0.125000 I1.441177 J2.399477
G01 X60.937532 Y35.005291 Z-0.125000
G01 X60.888957 Y35.308133 Z-0.125000
G01 X60.890585 Y35.315699 Z-0.125000
G01 X60.891603 Y35.319510 Z-0.125000
G01 X60.930361 Y35.382057 Z-0.125000
G01 X60.954121 Y35.452330 Z-0.125000
G03 X60.997609 Y35.814229 Z-0.125000 I-0.866922 J0.287738
G03 X60.824930 Y36.243486 Z-0.125000 I-0.777274 J-0.063316
G03 X60.510639 Y36.476799 Z-0.125000 I-0.616775 J-0.502500
G03 X60.243054 Y36.557679 Z-0.125000 I-0.551544 J-1.341669
G03 X59.939656 Y36.611119 Z-0.125000 I-0.419546 J-1.493929
G03 X59.594516 Y36.571702 Z-0.125000 I-0.069331 J-0.923662
G03 X59.259275 Y36.389074 Z-0.125000 I0.293038 J-0.936925
G03 X59.030211 Y36.128340 Z-0.125000 I0.717259 J-0.861124
G01 X59.016267 Y36.105057 Z-0.125000
G01 X59.004890 Y36.081244 Z-0.125000
G03 X58.805624 Y35.640785 Z-0.125000 I4.315604 J-2.217711
G03 X58.422496 Y34.620349 Z-0.125000 I32.005870 J-12.598923
G01 X58.419850 Y34.616645 Z-0.125000
G01 X58.418262 Y34.610295 Z-0.125000
G03 X58.083095 Y33.623457 Z-0.125000 I434.924824 J-148.267041
G02 X57.656552 Y32.363932 Z-0.125000 I-2490.727401 J842.796284
G01 X57.654435 Y32.360228 Z-0.125000
G01 X57.652318 Y32.355995 Z-0.125000
G01 X56.875106 Y29.955618 Z-0.125000
G03 X56.482597 Y28.818306 Z-0.125000 I292.421708 J-101.556786
G03 X56.296846 Y28.267870 Z-0.125000 I55.892262 J-19.168029
G03 X56.175939 Y27.898642 Z-0.125000 I12.035727 J-4.145625
G03 X56.105127 Y27.645174 Z-0.125000 I4.368993 J-1.357205
G03 X56.059987 Y27.443380 Z-0.125000 I4.257565 J-1.058335
G03 X56.064302 Y27.082432 Z-0.125000 I0.855350 J-0.170275
G03 X56.198955 Y26.733413 Z-0.125000 I1.236319 J0.276494
G03 X56.509754 Y26.407005 Z-0.125000 I0.809522 J0.459637
G03 X56.938356 Y26.264734 Z-0.125000 I0.498953 J0.786399
G03 X57.312287 Y26.291779 Z-0.125000 I0.096147 J1.269190
G03 X57.559533 Y26.398277 Z-0.125000 I-0.158338 J0.707852
G03 X57.707095 Y26.506223 Z-0.125000 I-1.338279 J1.984246
G03 X57.982404 Y26.660466 Z-0.125000 I-0.655444 J1.492729
G03 X58.286905 Y27.102064 Z-0.125000 I-0.435232 J0.625893
G01 X58.298784 Y27.144424 Z-0.125000
G01 X58.302409 Y27.186281 Z-0.125000
G02 X58.332178 Y27.352717 Z-0.125000 I1.120422 J-0.114520
G02 X58.519449 Y27.959366 Z-0.125000 I6.502234 J-1.674994
G01 X58.523074 Y27.971272 Z-0.125000
G01 X58.527202 Y27.983179 Z-0.125000
G02 X58.667139 Y28.282365 Z-0.125000 I1.219283 J-0.387972
G02 X58.779381 Y28.457550 Z-0.125000 I30.404456 J-19.356789
G03 X59.058945 Y28.420905 Z-0.125000 I1.196747 J8.045331
G03 X59.494067 Y28.377460 Z-0.125000 I1.828114 J16.108858
G01 X59.509572 Y28.374285 Z-0.125000
G01 X59.523515 Y28.374285 Z-0.125000
G03 X60.498007 Y28.341694 Z-0.125000 I4.990447 J134.632930
G03 X61.722346 Y28.308140 Z-0.125000 I7.564619 J253.661546
G01 X61.724462 Y28.308140 Z-0.125000
G01 X61.728590 Y28.308140 Z-0.125000
G03 X63.016547 Y28.310303 Z-0.125000 I0.580647 J37.705245
G03 X64.237993 Y28.354653 Z-0.125000 I-0.653703 J34.845548
G01 X64.240109 Y28.354653 Z-0.125000
G03 X65.428733 Y28.408901 Z-0.125000 I-0.312865 J19.904254
G03 X66.078236 Y28.505545 Z-0.125000 I-0.343226 J4.537528
G03 X67.225873 Y28.841085 Z-0.125000 I-2.025446 J9.057947
G03 X68.351481 Y29.331335 Z-0.125000 I-3.394478 J9.330993
G01 X68.354464 Y29.333083 Z-0.125000
G01 X68.357672 Y29.336097 Z-0.125000
G03 X69.430999 Y29.891388 Z-0.125000 I-5.940551 J12.797515
G03 X70.460898 Y30.543257 Z-0.125000 I-6.884769 J12.016872
G03 X71.428521 Y31.250300 Z-0.125000 I-15.091172 J21.668670
G03 X72.277323 Y31.935440 Z-0.125000 I-13.071445 J17.062224
G01 X72.287139 Y31.943642 Z-0.125000
G01 X72.294892 Y31.950786 Z-0.125000
G03 X73.092451 Y32.707986 Z-0.125000 I-25.463937 J27.619798
G03 X73.734596 Y33.357415 Z-0.125000 I-18.830308 J19.261316
G03 X74.397269 Y34.055780 Z-0.125000 I-10.638419 J10.758292
G03 X75.066295 Y34.853447 Z-0.125000 I-13.206696 J11.756243
G01 X75.074048 Y34.861120 Z-0.125000
G01 X75.080239 Y34.871438 Z-0.125000
G03 X75.690409 Y35.782463 Z-0.125000 I-10.579690 J7.745719
G03 X76.207299 Y36.716799 Z-0.125000 I-10.597083 J6.472630
G03 X76.628682 Y37.718794 Z-0.125000 I-7.578727 J3.776788
G03 X76.904414 Y38.730646 Z-0.125000 I-7.310797 J2.535709
G03 X77.007750 Y39.804084 Z-0.125000 I-5.178938 J1.040248
G03 X76.888910 Y40.849876 Z-0.125000 I-4.933701 J-0.030999
G03 X76.083066 Y42.833218 Z-0.125000 I-6.324498 J-1.414301
G03 X74.873015 Y44.031593 Z-0.125000 I-3.070729 J-1.890541
G03 X73.388741 Y44.689314 Z-0.125000 I-3.359272 J-5.577207
G03 X71.628772 Y45.016027 Z-0.125000 I-2.378613 J-7.909599
G03 X69.860995 Y45.107605 Z-0.125000 I-1.808795 J-17.808095
G03 X67.929778 Y45.023700 Z-0.125000 I-0.048469 J-21.151379
G02 X66.088516 Y44.917754 Z-0.125000 I-2.593462 J29.019566
G02 X64.455059 Y44.933794 Z-0.125000 I-0.591786 J22.914222
G01 X64.454000 Y44.933803 Z-0.125000
G01 X64.452943 Y44.933794 Z-0.125000
G02 X62.905531 Y45.199878 Z-0.125000 I0.610325 J8.181875
G02 X61.730632 Y45.668118 Z-0.125000 I1.473319 J5.404963
G02 X60.977312 Y46.353393 Z-0.125000 I0.989314 J1.844249
G02 X60.347773 Y47.828174 Z-0.125000 I3.659744 J2.433987
G02 X60.336669 Y48.688669 Z-0.125000 I2.042178 J0.456674
G02 X60.683669 Y49.525738 Z-0.125000 I2.251135 J-0.442733
G02 X61.375395 Y50.176110 Z-0.125000 I2.018750 J-1.454072
G02 X62.449451 Y50.619233 Z-0.125000 I1.817705 J-2.882582
G02 X65.229340 Y50.924171 Z-0.125000 I2.761202 J-12.348239
G02 X66.712751 Y50.658497 Z-0.125000 I-0.006365 J-4.309748
G01 X66.716879 Y50.655852 Z-0.125000
G01 X66.720504 Y50.655852 Z-0.125000
G02 X67.890538 Y49.886715 Z-0.125000 I-0.966676 J-2.745053
G02 X68.468715 Y48.784668 Z-0.125000 I-1.756250 J-1.624086
G02 X68.533695 Y48.425450 Z-0.125000 I-4.341370 J-0.970810
G02 X68.546745 Y48.263254 Z-0.125000 I-1.399215 J-0.194208
G01 X68.554498 Y47.942844 Z-0.125000
G01 X68.826314 Y47.771288 Z-0.125000
G03 X69.285732 Y47.634911 Z-0.125000 I0.469960 J0.741147
G03 X69.636600 Y47.671541 Z-0.125000 I0.018302 J1.523437
G02 X69.877278 Y47.725253 Z-0.125000 I101.174283 J-452.770071
G03 X69.925988 Y47.736152 Z-0.125000 I-6.717765 J30.138674
G03 X70.340873 Y47.957316 Z-0.125000 I-0.192582 J0.860995
G03 X70.556439 Y48.195018 Z-0.125000 I-1.479473 J1.558290
G03 X70.755971 Y48.483746 Z-0.125000 I-2.387856 J1.863495
G03 X70.992072 Y48.898333 Z-0.125000 I-7.012696 J4.268148
G03 X71.453745 Y49.734404 Z-0.125000 I-18.169984 J10.578858
G03 X71.953252 Y50.738031 Z-0.125000 I-24.831344 J12.984700
G01 X71.955368 Y50.743852 Z-0.125000
G03 X72.468835 Y51.809591 Z-0.125000 I-20.647666 J10.604486
G03 X72.892778 Y52.824321 Z-0.125000 I-18.070073 J8.145398
G01 X72.896403 Y52.830142 Z-0.125000
G01 X72.898519 Y52.838344 Z-0.125000
G03 X72.986584 Y53.148469 Z-0.125000 I-2.276910 J0.814127
G02 X73.053033 Y53.402117 Z-0.125000 I2.773591 J-0.591082
G01 X75.559335 Y53.402117 Z-0.125000
G03 X75.485852 Y53.173949 Z-0.125000 I1.004076 J-0.449288
G03 X75.480273 Y52.975795 Z-0.125000 I0.560050 J-0.114925
G03 X75.594350 Y52.645024 Z-0.125000 I0.935903 J0.137722
G03 X75.742271 Y52.424933 Z-0.125000 I1.565882 J0.892652
G03 X75.905628 Y52.241392 Z-0.125000 I1.561407 J1.225229
G03 X76.158267 Y52.058036 Z-0.125000 I0.717812 J0.723316
G03 X76.516392 Y51.977259 Z-0.125000 I0.335699 J0.654067
G03 X76.952016 Y52.124181 Z-0.125000 I-0.024134 J0.790832
G01 X76.935479 Y52.110688 Z-0.125000
G02 X77.094555 Y52.216221 Z-0.125000 I2.265485 J-3.242234
G02 X77.304448 Y52.343230 Z-0.125000 I3.745423 J-5.952693
G01 X77.345789 Y52.368630 Z-0.125000
G01 X77.382479 Y52.397575 Z-0.125000
G01 X77.507537 Y52.479728 Z-0.125000
G02 X77.767571 Y52.450318 Z-0.125000 I0.074457 J-0.505951
G02 X78.687307 Y51.907673 Z-0.125000 I-1.203663 J-3.090862
G01 X78.695059 Y51.901852 Z-0.125000
G01 X78.701251 Y51.895767 Z-0.125000
G02 X79.590869 Y51.098294 Z-0.125000 I-5.721629 J-7.277694
G02 X80.781225 Y49.764630 Z-0.125000 I-13.670748 J-13.399813
G01 X80.783341 Y49.760397 Z-0.125000
G01 X80.786966 Y49.756693 Z-0.125000
G02 X81.859401 Y48.378679 Z-0.125000 I-19.318051 J-16.140530
G02 X83.124806 Y46.524335 Z-0.125000 I-32.674198 J-23.655806
G01 X83.127452 Y46.518250 Z-0.125000
G01 X83.131579 Y46.514016 Z-0.125000
G02 X84.375068 Y44.603388 Z-0.125000 I-69.459901 J-46.566366
G02 X85.652867 Y42.522015 Z-0.125000 I-81.086212 J-51.213452
G01 X85.654984 Y42.515929 Z-0.125000
G01 X85.658609 Y42.511696 Z-0.125000
G02 X86.936022 Y40.405364 Z-0.125000 I-93.924462 J-58.402299
G02 X88.170597 Y38.263895 Z-0.125000 I-96.233367 J-56.905923
G02 X89.316305 Y36.222721 Z-0.125000 I-2373.441778 J-1333.553329
G02 X90.344620 Y34.387119 Z-0.125000 I-2283.235023 J-1280.285592
G02 X90.209361 Y33.912462 Z-0.125000 I-4.733437 J1.092244
G02 X89.776182 Y32.797055 Z-0.125000 I-13.485271 J4.595319
G01 X89.769990 Y32.785148 Z-0.125000
G01 X89.766366 Y32.771655 Z-0.125000
G02 X89.240983 Y31.495183 Z-0.125000 I-24.678404 J9.411014
G02 X88.514248 Y29.939796 Z-0.125000 I-38.285892 J16.941148
G01 X88.512131 Y29.935563 Z-0.125000
G01 X88.509485 Y29.930801 Z-0.125000
G02 X87.742383 Y28.331264 Z-0.125000 I-150.317851 J71.105381
G02 X86.867211 Y26.553769 Z-0.125000 I-177.885222 J86.479877
G01 X86.865094 Y26.547948 Z-0.125000
G01 X86.860966 Y26.541863 Z-0.125000
G02 X86.006385 Y24.799669 Z-0.125000 I-61.778929 J29.223134
G02 X85.175800 Y23.229389 Z-0.125000 I-48.583814 J24.693145
G01 X85.171673 Y23.223304 Z-0.125000
G01 X85.168048 Y23.217483 Z-0.125000
G02 X84.342279 Y21.663679 Z-0.125000 I-98.650186 J51.431317
G02 X83.648246 Y20.414570 Z-0.125000 I-58.436520 J31.651261
G02 X82.929517 Y19.242857 Z-0.125000 I-18.475381 J10.526509
G03 X82.542371 Y18.291186 Z-0.125000 I2.200713 J-1.449847
G03 X82.754549 Y17.347386 Z-0.125000 I1.187946 J-0.228685
G03 X83.218815 Y16.971367 Z-0.125000 I0.945814 J0.693162
G03 X83.810432 Y16.829717 Z-0.125000 I0.667856 J1.483074
G03 X84.497806 Y16.863866 Z-0.125000 I0.167351 J3.566416
G03 X85.839068 Y17.165413 Z-0.125000 I-1.336010 J9.076198
G03 X87.509504 Y17.775963 Z-0.125000 I-4.783649 J15.678219
G01 X87.513632 Y17.779138 Z-0.125000
G03 X89.154925 Y18.509619 Z-0.125000 I-16.737193 J39.815392
G03 X90.625064 Y19.243658 Z-0.125000 I-14.849292 J31.579491
G01 X90.632817 Y19.247892 Z-0.125000
G03 X92.071192 Y19.987165 Z-0.125000 I-21.849096 J44.279882
G03 X93.116899 Y20.575966 Z-0.125000 I-13.051058 J24.401577
G02 X93.621551 Y20.872767 Z-0.125000 I67.233432 J-113.739695
G02 X93.878610 Y21.021418 Z-0.125000 I14.591156 J-24.935632
G02 X93.997031 Y21.087101 Z-0.125000 I2.665993 J-4.666961
G03 X94.056375 Y21.119102 Z-0.125000 I-21.862841 J40.614777
G01 X94.142158 Y21.132596 Z-0.125000
G01 X94.273415 Y21.251975 Z-0.125000
G03 X94.535205 Y21.629635 Z-0.125000 I-0.673388 J0.746349
G03 X94.642384 Y22.005931 Z-0.125000 I-1.859043 J0.732919
G03 X94.692927 Y22.360251 Z-0.125000 I-2.123398 J0.483660
G03 X94.677526 Y22.714934 Z-0.125000 I-1.726409 J0.102714
G03 X94.585037 Y23.044253 Z-0.125000 I-1.329133 J-0.195641
G03 X94.390205 Y23.365015 Z-0.125000 I-1.200389 J-0.509569
G03 X94.203015 Y23.534675 Z-0.125000 I-0.628056 J-0.504853
G03 X93.946822 Y23.624968 Z-0.125000 I-0.312533 J-0.478168
G03 X93.686857 Y23.600572 Z-0.125000 I-0.067488 J-0.678163
G03 X93.556665 Y23.549006 Z-0.125000 I0.218079 J-0.740725
G03 X93.344934 Y23.403586 Z-0.125000 I0.433385 J-0.857858
G03 X93.210950 Y23.271485 Z-0.125000 I1.487073 J-1.642259
G01 X93.208834 Y23.268839 Z-0.125000
G01 X93.204706 Y23.266193 Z-0.125000
G02 X92.770316 Y22.855289 Z-0.125000 I-2.976571 J2.711645
G02 X92.126737 Y22.394921 Z-0.125000 I-4.007963 J4.922962
G02 X91.429588 Y22.016360 Z-0.125000 I-3.440644 J5.504998
G02 X90.872553 Y21.805298 Z-0.125000 I-1.699363 J3.644367
G01 X90.849296 Y21.797625 Z-0.125000
G01 X90.826039 Y21.787306 Z-0.125000
G02 X90.407271 Y21.701508 Z-0.125000 I-0.458167 J1.171374
G02 X90.197136 Y21.732538 Z-0.125000 I-0.018796 J0.599752
G02 X90.184812 Y21.787005 Z-0.125000 I0.342353 J0.106091
G02 X90.173376 Y22.031755 Z-0.125000 I1.240940 J0.180622
G02 X90.281989 Y23.219985 Z-0.125000 I14.930285 J-0.765653
G02 X90.536662 Y24.773708 Z-0.125000 I24.862752 J-3.277560
G01 X90.538779 Y24.779793 Z-0.125000
G02 X90.919196 Y26.311292 Z-0.125000 I84.788575 J-20.248083
G02 X91.388339 Y28.068480 Z-0.125000 I105.069402 J-27.110741
G01 X91.390455 Y28.074566 Z-0.125000
G02 X91.905064 Y29.761511 Z-0.125000 I54.627876 J-15.742455
G02 X92.505630 Y31.537401 Z-0.125000 I61.510266 J-19.811907
G01 X92.508276 Y31.545604 Z-0.125000
G02 X93.172771 Y33.250110 Z-0.125000 I46.692003 J-17.220913
G02 X93.885452 Y34.896812 Z-0.125000 I45.223446 J-18.594808
G01 X93.887569 Y34.901045 Z-0.125000
G01 X93.889156 Y34.905808 Z-0.125000
G02 X94.262749 Y35.747020 Z-0.125000 I76.504930 J-33.473254
G02 X95.084947 Y37.559893 Z-0.125000 I389.507944 J-175.561838
G03 X95.957316 Y39.396719 Z-0.125000 I-176.334769 J84.872778
G03 X97.025912 Y41.698659 Z-0.125000 I-320.426600 J150.145914
G03 X98.075938 Y44.012426 Z-0.125000 I-230.845021 J106.156479
G03 X99.209754 Y46.573812 Z-0.125000 I-297.778170 J133.345205
G01 X99.209754 Y46.569050 Z-0.125000
G03 X99.921431 Y48.206131 Z-0.125000 I-103.849197 J46.118919
G02 X100.579177 Y49.750263 Z-0.125000 I1661.858218 J-706.980557
G01 X105.693072 Y49.750263 Z-0.125000
G03 X105.643835 Y48.456059 Z-0.125000 I20.882750 J-1.442497
G03 X105.698231 Y47.030006 Z-0.125000 I15.787826 J-0.111849
G03 X106.950829 Y42.121241 Z-0.125000 I15.230846 J1.272346
G03 X109.375522 Y38.793828 Z-0.125000 I8.890342 J3.931264
G01 X109.377639 Y38.791183 Z-0.125000
G01 X109.379755 Y38.788537 Z-0.125000
G03 X113.015279 Y36.822904 Z-0.125000 I6.144916 J7.020441
G03 X117.995239 Y36.350960 Z-0.125000 I3.802915 J13.618148
G03 X119.839254 Y36.683896 Z-0.125000 I-0.820140 J9.815618
G03 X121.739192 Y37.397915 Z-0.125000 I-3.210834 J11.428512
G03 X123.505665 Y38.321050 Z-0.125000 I-11.764548 J24.663851
G03 X125.174638 Y39.356967 Z-0.125000 I-12.984503 J22.781826
G01 X125.180829 Y39.361200 Z-0.125000
G01 X125.186518 Y39.365434 Z-0.125000
G03 X126.762453 Y40.546927 Z-0.125000 I-20.110806 J28.466585
G03 X128.024583 Y41.621083 Z-0.125000 I-15.376875 J19.346356
G01 X128.032838 Y41.627433 Z-0.125000
G03 X129.269876 Y42.728948 Z-0.125000 I-83.584701 J95.113762
G03 X129.977939 Y43.383391 Z-0.125000 I-26.884271 J29.797204
G01 X130.001195 Y43.406674 Z-0.125000
G01 X130.022891 Y43.432074 Z-0.125000
G03 X130.213927 Y43.822612 Z-0.125000 I-0.679028 J0.574147
G03 X130.235799 Y44.172589 Z-0.125000 I-1.182683 J0.249582
G03 X130.202539 Y44.276356 Z-0.125000 I-0.241722 J-0.020263
G02 X130.159316 Y44.380842 Z-0.125000 I0.337488 J0.200796
G01 X130.439403 Y44.515727 Z-0.125000
G03 X130.362221 Y43.215027 Z-0.125000 I481.531961 J-29.226306
G02 X130.286958 Y42.036822 Z-0.125000 I-100.341148 J5.818178
G02 X130.116835 Y40.632040 Z-0.125000 I-16.683130 J1.307684
G02 X129.974314 Y40.050360 Z-0.125000 I-3.817777 J0.627117
G03 X129.777657 Y39.387502 Z-0.125000 I11.314428 J-3.717378
G03 X129.720584 Y38.904186 Z-0.125000 I1.663806 J-0.441499
G03 X129.890442 Y38.165635 Z-0.125000 I1.900179 J0.048211
G03 X130.358787 Y37.591616 Z-0.125000 I1.323513 J0.601790
G03 X131.018884 Y37.297229 Z-0.125000 I1.022959 J1.406503
G03 X131.845516 Y37.220565 Z-0.125000 I0.737465 J3.456808
G03 X132.282862 Y37.283967 Z-0.125000 I-0.045912 J1.856789
G03 X132.894030 Y37.468612 Z-0.125000 I-2.752228 J10.213614
G02 X133.573436 Y37.676246 Z-0.125000 I15.170233 J-48.423453
G02 X134.499614 Y37.948697 Z-0.125000 I39.374127 J-132.139225
G01 X134.519247 Y37.954783 Z-0.125000
G01 X134.536815 Y37.961133 Z-0.125000
G02 X135.410964 Y38.269775 Z-0.125000 I20.664379 J-57.134343
G02 X136.380625 Y38.595709 Z-0.125000 I22.164259 J-64.333825
G01 X136.388377 Y38.598354 Z-0.125000
G01 X136.398722 Y38.602588 Z-0.125000
G03 X137.428865 Y38.979894 Z-0.125000 I-46.044540 J127.308308
G03 X138.267858 Y39.295557 Z-0.125000 I-33.060754 J89.144193
G01 X138.283363 Y39.301907 Z-0.125000
G01 X138.296804 Y39.307199 Z-0.125000
G03 X139.135982 Y39.700564 Z-0.125000 I-8.340203 J18.884232
G03 X139.721004 Y40.014641 Z-0.125000 I-4.626164 J9.318906
G01 X139.721004 Y40.011995 Z-0.125000
G03 X140.001923 Y40.187169 Z-0.125000 I-2.506685 J4.332709
G03 X140.212964 Y40.347883 Z-0.125000 I-1.227869 J1.831289
G03 X140.382504 Y40.519207 Z-0.125000 I-0.987765 J1.147028
G03 X140.552996 Y41.006245 Z-0.125000 I-0.554455 J0.467452
G03 X140.491274 Y41.300751 Z-0.125000 I-0.830855 J-0.020407
G03 X140.363343 Y41.552979 Z-0.125000 I-1.621803 J-0.664029
G03 X140.273209 Y41.718910 Z-0.125000 I-1.264371 J-0.579359
G03 X140.117362 Y41.883179 Z-0.125000 I-0.496969 J-0.315427
G03 X139.859003 Y42.002181 Z-0.125000 I-0.444392 J-0.624839
G03 X139.629022 Y42.027350 Z-0.125000 I-0.206908 J-0.827314
G01 X139.531353 Y42.023646 Z-0.125000
G01 X139.441435 Y41.992108 Z-0.125000
G02 X139.157319 Y41.893329 Z-0.125000 I-4.174959 J11.550391
G02 X138.994435 Y41.843809 Z-0.125000 I-0.991160 J2.967528
G03 X138.801102 Y41.797428 Z-0.125000 I2.163587 J-9.444795
G03 X138.632700 Y41.753877 Z-0.125000 I2.875618 J-11.466762
G02 X138.516014 Y41.751318 Z-0.125000 I-0.165894 J4.903161
G03 X138.418245 Y41.749644 Z-0.125000 I0.069121 J-6.890917
G02 X137.593992 Y42.096364 Z-0.125000 I0.187873 J1.599731
G02 X137.183695 Y42.734078 Z-0.125000 I0.758220 J0.938675
G02 X136.966503 Y43.965892 Z-0.125000 I8.806224 J2.187763
G02 X136.810591 Y46.345742 Z-0.125000 I29.559740 J3.131586
G02 X136.778065 Y48.214636 Z-0.125000 I118.563204 J2.998208
G02 X136.779587 Y49.533147 Z-0.125000 I61.745107 J0.587960
G02 X136.853767 Y50.897785 Z-0.125000 I84.582516 J-3.913457
G02 X136.953220 Y52.314364 Z-0.125000 I91.845695 J-5.736361
G01 X136.953220 Y52.327857 Z-0.125000
G01 X136.953220 Y52.339764 Z-0.125000
G02 X136.987022 Y53.150288 Z-0.125000 I53.380938 J-1.820249
G02 X137.015749 Y53.620822 Z-0.125000 I20.120017 J-0.992203
G03 X137.091722 Y54.073338 Z-0.125000 I-44.494953 J7.702961
G03 X137.136671 Y54.367025 Z-0.125000 I-15.618124 J2.540633
G02 X137.215391 Y54.659675 Z-0.125000 I16.577908 J-4.302410
G02 X137.250357 Y54.780965 Z-0.125000 I6.717612 J-1.870870
G03 X137.332243 Y54.956906 Z-0.125000 I-33.675297 J15.780218
G02 X137.414173 Y55.132861 Z-0.125000 I31.626861 J-14.619531
G01 X137.418301 Y55.138681 Z-0.125000
G01 X137.420418 Y55.146883 Z-0.125000
G02 X137.805867 Y55.822989 Z-0.125000 I3.444318 J-1.515689
G02 X138.486502 Y56.621193 Z-0.125000 I5.061988 J-3.627104
G02 X139.298829 Y57.349610 Z-0.125000 I7.776098 J-7.854708
G02 X140.082268 Y57.918285 Z-0.125000 I5.678094 J-6.998477
G01 X140.084385 Y57.920930 Z-0.125000
G02 X140.856882 Y58.325682 Z-0.125000 I3.157167 J-5.086116
G02 X141.727178 Y58.633532 Z-0.125000 I2.639146 J-6.076816
G01 X141.740619 Y58.637765 Z-0.125000
G01 X141.754562 Y58.641998 Z-0.125000
G02 X142.674118 Y58.875729 Z-0.125000 I2.179024 J-6.647081
G02 X143.451614 Y58.956191 Z-0.125000 I0.904040 J-4.939017
G02 X144.611972 Y58.848250 Z-0.125000 I0.124504 J-4.952474
G02 X145.654579 Y58.487482 Z-0.125000 I-0.944061 J-4.415234
G01 X145.660771 Y58.484836 Z-0.125000
G01 X145.664898 Y58.482190 Z-0.125000
G02 X146.649798 Y57.873838 Z-0.125000 I-2.141957 J-4.569181
G02 X147.574857 Y56.968061 Z-0.125000 I-3.770055 J-4.775575
G02 X148.286495 Y55.895103 Z-0.125000 I-4.799937 J-3.956027
G02 X148.918441 Y54.386313 Z-0.125000 I-8.505842 J-4.449351
G01 X148.922568 Y54.378111 Z-0.125000
G01 X148.924685 Y54.370438 Z-0.125000
G02 X149.332873 Y52.786845 Z-0.125000 I-8.986939 J-3.160885
G02 X149.531882 Y50.715885 Z-0.125000 I-14.557096 J-2.443904
G02 X149.430612 Y48.192956 Z-0.125000 I-19.307049 J-0.488514
G02 X149.032172 Y45.976146 Z-0.125000 I-15.502475 J1.642135
G02 X148.374262 Y43.756617 Z-0.125000 I-29.508557 J7.539617
G02 X147.684452 Y41.983615 Z-0.125000 I-20.092839 J6.796691
G02 X146.837069 Y40.259343 Z-0.125000 I-21.497021 J9.494223
G02 X146.137779 Y39.130060 Z-0.125000 I-10.284284 J5.587226
G01 X146.129524 Y39.118683 Z-0.125000
G01 X146.121772 Y39.106777 Z-0.125000
G02 X145.264506 Y37.899628 Z-0.125000 I-11.435360 J7.212928
G02 X145.109948 Y37.745630 Z-0.125000 I-0.744335 J0.592485
G01 X145.055172 Y37.702212 Z-0.125000
G01 X145.010214 Y37.647946 Z-0.125000
G03 X144.842553 Y37.367494 Z-0.125000 I0.982940 J-0.777968
G03 X144.766300 Y36.974079 Z-0.125000 I0.855489 J-0.369911
G03 X144.871711 Y36.575089 Z-0.125000 I0.895050 J0.023048
G03 X145.082561 Y36.298149 Z-0.125000 I0.964077 J0.515271
G03 X145.315208 Y36.121367 Z-0.125000 I0.913850 J0.961160
G03 X145.643250 Y35.999462 Z-0.125000 I0.492252 J0.822300
G03 X146.008454 Y36.011024 Z-0.125000 I0.154602 J0.890168
G03 X146.312976 Y36.140034 Z-0.125000 I-0.234018 J0.976294
G03 X147.201302 Y36.791481 Z-0.125000 I-3.890082 J6.235996
G03 X148.922116 Y38.352821 Z-0.125000 I-25.973499 J30.355351
G03 X150.560732 Y40.114295 Z-0.125000 I-15.007178 J15.603377
G03 X152.356009 Y42.479681 Z-0.125000 I-25.682670 J21.356568
G01 X152.353892 Y42.479681 Z-0.125000
G03 X153.937293 Y45.105944 Z-0.125000 I-19.135653 J13.327537
G03 X155.342336 Y48.262804 Z-0.125000 I-26.479310 J13.676414
G03 X156.027014 Y50.511642 Z-0.125000 I-15.059683 J5.813696
G03 X156.421340 Y52.925021 Z-0.125000 I-19.655907 J4.450516
G01 X160.181310 Y52.925021 Z-0.125000
G03 X159.782581 Y51.252681 Z-0.125000 I15.185651 J-4.504362
G03 X159.578249 Y49.309759 Z-0.125000 I12.830128 J-2.331514
G03 X159.683749 Y47.021341 Z-0.125000 I15.101121 J-0.450453
G03 X160.119300 Y44.907442 Z-0.125000 I13.199451 J1.617815
G01 X160.121417 Y44.901357 Z-0.125000
G01 X160.123533 Y44.895536 Z-0.125000
G03 X160.964931 Y42.893251 Z-0.125000 I11.400311 J3.612695
G03 X162.101707 Y41.182590 Z-0.125000 I9.288563 J4.939438
G01 X162.107898 Y41.174387 Z-0.125000
G01 X162.115650 Y41.164598 Z-0.125000
G03 X163.619328 Y39.765492 Z-0.125000 I7.620980 J6.682997
G03 X165.489084 Y38.606107 Z-0.125000 I7.160187 J9.459949
G01 X165.492708 Y38.603461 Z-0.125000
G01 X165.498900 Y38.600815 Z-0.125000
G03 X167.588534 Y37.886677 Z-0.125000 I4.231555 J8.967617
G03 X170.106364 Y37.573492 Z-0.125000 I2.920331 J13.200271
G03 X171.811680 Y37.656578 Z-0.125000 I0.324445 J10.882961
G03 X173.422954 Y37.999286 Z-0.125000 I-1.269175 J9.926290
G01 X173.430706 Y38.001931 Z-0.125000
G01 X173.438459 Y38.004577 Z-0.125000
G03 X174.955415 Y38.587805 Z-0.125000 I-5.663010 J16.993697
G03 X176.296161 Y39.254626 Z-0.125000 I-6.115195 J13.976838
G03 X177.556701 Y40.008685 Z-0.125000 I-12.611434 J22.512833
G03 X178.577158 Y40.711367 Z-0.125000 I-9.391236 J14.730548
G03 X178.622590 Y40.745315 Z-0.125000 I-6.672195 J8.976792
G02 X178.667074 Y40.778545 Z-0.125000 I6.243469 J-8.311618
G01 X177.154506 Y43.171169 Z-0.125000
G02 X175.893148 Y42.529023 Z-0.125000 I-2.279267 J2.917226
G02 X174.151592 Y42.311274 Z-0.125000 I-1.571421 J5.494858
G02 X172.685384 Y42.502454 Z-0.125000 I0.220907 J7.412133
G02 X171.253582 Y42.988765 Z-0.125000 I1.759866 J7.532331
G02 X169.991787 Y43.782142 Z-0.125000 I3.599817 J7.125267
G02 X168.833579 Y44.850133 Z-0.125000 I5.331502 J6.943886
G02 X167.906142 Y46.149635 Z-0.125000 I6.357764 J5.518152
G02 X167.120508 Y47.815315 Z-0.125000 I9.478680 J5.488831
G01 X167.120508 Y47.817961 Z-0.125000
G02 X166.702836 Y49.570019 Z-0.125000 I8.725499 J3.005880
G02 X166.585656 Y51.769137 Z-0.125000 I13.151099 J1.803436
G02 X166.779846 Y53.850302 Z-0.125000 I16.527304 J-0.492499
G02 X167.167532 Y55.489836 Z-0.125000 I10.972638 J-1.728995
G02 X167.803863 Y57.065437 Z-0.125000 I10.698612 J-3.404507
G02 X168.493548 Y58.183211 Z-0.125000 I6.320559 J-3.128224
G01 X168.497675 Y58.189297 Z-0.125000
G01 X168.499792 Y58.193530 Z-0.125000
G02 X169.399762 Y59.203304 Z-0.125000 I5.432186 J-3.935545
G02 X170.279010 Y59.835797 Z-0.125000 I3.101793 J-3.384516
G02 X171.266673 Y60.215400 Z-0.125000 I2.116648 J-4.032497
G02 X172.232376 Y60.338081 Z-0.125000 I0.974410 J-3.808022
G02 X172.299080 Y60.337803 Z-0.125000 I0.012116 J-5.085232
G02 X172.366217 Y60.335435 Z-0.125000 I-0.014712 J-1.370478
G01 X172.366747 Y60.335435 Z-0.125000
G02 X173.881033 Y60.094773 Z-0.125000 I-0.179372 J-6.013040
G02 X175.257006 Y59.487923 Z-0.125000 I-1.633347 J-5.566824
G01 X175.262695 Y59.483690 Z-0.125000
G01 X175.270950 Y59.479457 Z-0.125000
G02 X176.491562 Y58.586661 Z-0.125000 I-3.367214 J-5.884386
G02 X177.581402 Y57.352447 Z-0.125000 I-5.357900 J-5.829438
G01 X177.583519 Y57.348214 Z-0.125000
G01 X177.587647 Y57.342129 Z-0.125000
G02 X178.457636 Y55.902728 Z-0.125000 I-6.955947 J-5.186865
G02 X179.118818 Y54.133531 Z-0.125000 I-9.589196 J-4.591806
G01 X179.120934 Y54.123212 Z-0.125000
G01 X179.124559 Y54.116068 Z-0.125000
G02 X179.515820 Y52.304710 Z-0.125000 I-10.177025 J-3.146216
G02 X179.617033 Y50.194339 Z-0.125000 I-13.498858 J-1.705013
G02 X179.005992 Y46.070085 Z-0.125000 I-17.804539 J0.530487
G02 X178.017134 Y44.071227 Z-0.125000 I-5.554067 J1.503635
G01 X178.013509 Y44.066465 Z-0.125000
G01 X178.011392 Y44.062232 Z-0.125000
G02 X177.618472 Y43.593726 Z-0.125000 I-4.166583 J3.095362
G02 X177.211441 Y43.216280 Z-0.125000 I-3.046754 J2.877372
G01 X178.726076 Y40.821090 Z-0.125000
G03 X179.579896 Y41.460467 Z-0.125000 I-94.982940 J127.729309
G03 X180.100666 Y41.857197 Z-0.125000 I-40.162979 J53.260463
G01 X180.126516 Y41.876776 Z-0.125000
G01 X180.147709 Y41.895826 Z-0.125000
G01 X181.622553 Y43.284887 Z-0.125000
G03 X182.682256 Y44.374623 Z-0.125000 I-11.912699 J12.644490
G03 X183.833269 Y45.763289 Z-0.125000 I-18.936877 J16.867420
G03 X184.856611 Y47.282441 Z-0.125000 I-11.389072 J8.776239
G03 X185.774749 Y49.079360 Z-0.125000 I-15.370923 J8.986819
G01 X185.774749 Y49.082006 Z-0.125000
G03 X186.161195 Y50.037251 Z-0.125000 I-8.755990 J4.098038
G03 X186.448611 Y51.026585 Z-0.125000 I-10.074553 J3.463217
G01 X190.715527 Y51.026585 Z-0.125000
G03 X190.662335 Y50.429099 Z-0.125000 I47.288281 J-4.511053
G02 X190.608557 Y49.838026 Z-0.125000 I-35.826084 J2.961627
G02 X190.298846 Y47.050795 Z-0.125000 I-125.947186 J12.584151
G02 X189.981722 Y44.710698 Z-0.125000 I-90.473300 J11.069147
G01 X189.981722 Y44.704877 Z-0.125000
G01 X189.979606 Y44.698792 Z-0.125000
G02 X189.660577 Y42.400262 Z-0.125000 I-119.147664 J15.365900
G02 X189.460258 Y41.202883 Z-0.125000 I-33.011811 J4.907360
G01 X189.454067 Y41.167746 Z-0.125000
G01 X189.451950 Y41.132610 Z-0.125000
G02 X189.430496 Y40.948030 Z-0.125000 I-1.797633 J0.115409
G02 X189.389422 Y40.759495 Z-0.125000 I-2.016571 J0.340590
G02 X189.330661 Y40.557578 Z-0.125000 I-4.698651 J1.257867
G02 X189.297955 Y40.464432 Z-0.125000 I-1.433069 J0.450867
G02 X189.207478 Y40.303014 Z-0.125000 I-1.420665 J0.690240
G02 X189.113988 Y40.177121 Z-0.125000 I-0.954069 J0.610846
G01 X189.102611 Y40.165744 Z-0.125000
G01 X189.092266 Y40.151721 Z-0.125000
G03 X188.919837 Y39.830949 Z-0.125000 I0.914035 J-0.698061
G03 X188.850421 Y39.487671 Z-0.125000 I1.231720 J-0.427731
G03 X189.010339 Y38.882160 Z-0.125000 I0.985060 J-0.063715
G03 X189.381653 Y38.470164 Z-0.125000 I1.525963 J1.001963
G01 X189.404910 Y38.450585 Z-0.125000
G01 X189.430231 Y38.433122 Z-0.125000
G02 X189.729280 Y38.226623 Z-0.125000 I-4.835618 J-7.322645
G02 X190.295293 Y37.806272 Z-0.125000 I-15.015710 J-20.810301
G01 X190.307173 Y37.796483 Z-0.125000
G01 X190.319052 Y37.788281 Z-0.125000
G03 X191.125508 Y37.308466 Z-0.125000 I3.914491 J5.661702
G03 X192.111705 Y36.876184 Z-0.125000 I4.391804 J8.678259
G03 X193.186564 Y36.512397 Z-0.125000 I3.569935 J8.778054
G03 X194.000479 Y36.376466 Z-0.125000 I1.077868 J3.949256
G03 X194.709642 Y36.396731 Z-0.125000 I0.245922 J3.812514
G03 X195.539399 Y36.555800 Z-0.125000 I-0.755447 J6.184356
G03 X196.302227 Y36.763659 Z-0.125000 I-11.484440 J43.650848
G03 X197.266425 Y37.042580 Z-0.125000 I-20.006064 J70.964661
G01 X197.272114 Y37.045755 Z-0.125000
G03 X199.247455 Y37.673723 Z-0.125000 I-10.430435 J36.230869
G03 X201.272381 Y38.440504 Z-0.125000 I-13.346856 J38.303672
G01 X201.278070 Y38.443150 Z-0.125000
G03 X202.882359 Y39.119539 Z-0.125000 I-16.130337 J40.499409
G03 X203.995213 Y39.630678 Z-0.125000 I-21.481822 J48.237331
G02 X204.086656 Y39.418155 Z-0.125000 I-0.602095 J-0.385000
G03 X204.182281 Y39.208456 Z-0.125000 I0.610901 J0.151926
G01 X204.188472 Y39.200784 Z-0.125000
G01 X204.194663 Y39.192581 Z-0.125000
G03 X205.593241 Y37.687893 Z-0.125000 I8.097682 J6.124312
G03 X207.374311 Y36.395860 Z-0.125000 I7.816753 J8.901788
G01 X207.379999 Y36.391626 Z-0.125000
G01 X207.386191 Y36.388981 Z-0.125000
G03 X209.418021 Y35.525826 Z-0.125000 I4.869317 J8.639172
G03 X211.905805 Y35.031432 Z-0.125000 I3.865677 J12.945584
G03 X213.612202 Y34.991385 Z-0.125000 I1.107087 J10.798278
G03 X215.243583 Y35.216957 Z-0.125000 I-0.553976 J10.018489
G01 X215.251336 Y35.219603 Z-0.125000
G01 X215.261681 Y35.222249 Z-0.125000
G03 X216.816155 Y35.692753 Z-0.125000 I-4.488634 J17.632900
G03 X218.201031 Y36.259414 Z-0.125000 I-4.987954 J14.165764
G03 X219.511866 Y36.920803 Z-0.125000 I-10.732641 J22.901189
G03 X220.579696 Y37.548225 Z-0.125000 I-8.448189 J15.600649
G03 X220.878197 Y37.738544 Z-0.125000 I-66.190611 J104.144114
G03 X221.140384 Y37.906338 Z-0.125000 I-315.835271 J493.799058
G01 X219.618514 Y40.313408 Z-0.125000
G02 X218.202726 Y39.607463 Z-0.125000 I-2.338427 J2.917096
G02 X216.282804 Y39.465922 Z-0.125000 I-1.358439 J5.334348
G02 X214.834888 Y39.763504 Z-0.125000 I0.750970 J7.325200
G02 X213.442673 Y40.352699 Z-0.125000 I2.328051 J7.440426
G02 X212.242575 Y41.232625 Z-0.125000 I4.140349 J6.905207
G02 X211.165296 Y42.377896 Z-0.125000 I5.753107 J6.490858
G01 X211.165296 Y42.380542 Z-0.125000
G02 X210.331817 Y43.746974 Z-0.125000 I6.729020 J5.041893
G02 X209.667198 Y45.470289 Z-0.125000 I9.863842 J4.793940
G02 X209.377522 Y47.246776 Z-0.125000 I8.954559 J2.371998
G02 X209.419151 Y49.446787 Z-0.125000 I13.203430 J0.850563
G02 X209.763434 Y51.507913 Z-0.125000 I16.421061 J-1.683594
G02 X210.268709 Y53.114754 Z-0.125000 I10.829349 J-2.522451
G02 X211.017493 Y54.641193 Z-0.125000 I10.452560 J-4.180556
G02 X211.786444 Y55.706847 Z-0.125000 I6.071342 J-3.570684
G01 X211.790571 Y55.710551 Z-0.125000
G01 X211.794699 Y55.714784 Z-0.125000
G02 X212.765916 Y56.657458 Z-0.125000 I5.138041 J-4.321971
G02 X213.689156 Y57.224760 Z-0.125000 I2.843489 J-3.592654
G02 X214.500885 Y57.492805 Z-0.125000 I1.864919 J-4.284478
G02 X215.274069 Y57.592186 Z-0.125000 I0.884305 J-3.822502
G02 X215.538268 Y57.590598 Z-0.125000 I0.109105 J-3.826760
G02 X215.805820 Y57.572078 Z-0.125000 I-0.190056 J-4.687432
G01 X215.806349 Y57.572078 Z-0.125000
G02 X217.298252 Y57.222211 Z-0.125000 I-0.612130 J-5.966070
G02 X218.625811 Y56.517370 Z-0.125000 I-2.039589 J-5.444186
G01 X218.632003 Y56.511814 Z-0.125000
G01 X218.639755 Y56.507581 Z-0.125000
G02 X219.792674 Y55.529438 Z-0.125000 I-3.794254 J-5.640751
G02 X220.790524 Y54.220393 Z-0.125000 I-5.742538 J-5.412223
G01 X220.792111 Y54.216160 Z-0.125000
G01 X220.796239 Y54.209810 Z-0.125000
G02 X221.559868 Y52.710564 Z-0.125000 I-7.301535 J-4.663081
G02 X222.091248 Y50.897363 Z-0.125000 I-9.921785 J-3.892158
G01 X222.093365 Y50.889690 Z-0.125000
G01 X222.095481 Y50.879900 Z-0.125000
G02 X222.355303 Y49.044778 Z-0.125000 I-10.413794 J-2.410365
G02 X222.304253 Y46.932349 Z-0.125000 I-13.538699 J-0.729653
G02 X221.395244 Y42.862357 Z-0.125000 I-17.683389 J1.812975
G02 X220.263554 Y40.939940 Z-0.125000 I-5.438970 J1.907509
G01 X220.261437 Y40.937295 Z-0.125000
G01 X220.257309 Y40.933061 Z-0.125000
G02 X219.967405 Y40.622826 Z-0.125000 I-4.002007 J3.449166
G02 X219.675433 Y40.358440 Z-0.125000 I-3.203234 J3.244050
G01 X221.201953 Y37.944120 Z-0.125000
G03 X221.786357 Y38.320807 Z-0.125000 I-75.370869 J117.574385
G03 X222.185355 Y38.581792 Z-0.125000 I-30.747195 J47.442400
G01 X222.453036 Y38.759565 Z-0.125000
G01 X222.453036 Y38.796765 Z-0.125000
G01 X223.802825 Y39.896452 Z-0.125000
G03 X224.938631 Y40.905971 Z-0.125000 I-11.058596 J13.585695
G03 X226.187173 Y42.206896 Z-0.125000 I-17.458773 J18.005360
G03 X227.319609 Y43.651051 Z-0.125000 I-10.715880 J9.568951
G03 X228.366882 Y45.380860 Z-0.125000 I-14.717526 J10.092312
G03 X229.189725 Y47.294011 Z-0.125000 I-8.795337 J4.916390
G03 X229.623132 Y49.405935 Z-0.125000 I-10.281830 J3.210461
G03 X229.632858 Y49.876769 Z-0.125000 I-2.876215 J0.294932
G02 X229.626228 Y50.328351 Z-0.125000 I4.881079 J0.297508
G01 X232.397116 Y50.350047 Z-0.125000
G03 X231.821898 Y48.910111 Z-0.125000 I10.562212 J-5.054198
G03 X231.384258 Y47.098586 Z-0.125000 I11.559704 J-3.751296
G03 X231.261350 Y45.490305 Z-0.125000 I9.488911 J-1.533998
G03 X231.409578 Y43.938565 Z-0.125000 I8.917852 J0.068920
G01 X231.409578 Y43.933803 Z-0.125000
G01 X231.409578 Y43.929570 Z-0.125000
G03 X231.841050 Y42.477303 Z-0.125000 I7.885901 J1.552690
G03 X232.530439 Y41.150416 Z-0.125000 I7.235515 J2.916709
G01 X232.534567 Y41.144331 Z-0.125000
G01 X232.538694 Y41.136658 Z-0.125000
G03 X233.532594 Y39.963637 Z-0.125000 I6.215914 J4.259163
G03 X234.825371 Y38.931623 Z-0.125000 I6.240813 J6.491986
G01 X234.833626 Y38.925273 Z-0.125000
G01 X234.841378 Y38.921040 Z-0.125000
G03 X236.344641 Y38.204745 Z-0.125000 I4.055952 J6.576510
G03 X238.232383 Y37.725760 Z-0.125000 I3.651857 J10.433028
G03 X239.270216 Y37.612247 Z-0.125000 I1.624496 J10.051398
G03 X240.289100 Y37.606909 Z-0.125000 I0.560315 J9.708393
G03 X241.320157 Y37.679674 Z-0.125000 I-0.589526 J15.694689
G03 X242.239884 Y37.810003 Z-0.125000 I-1.281742 J12.355599
G01 X242.250229 Y37.812649 Z-0.125000
G03 X242.343073 Y37.834363 Z-0.125000 I-0.114011 J0.696827
G02 X242.431614 Y37.856570 Z-0.125000 I0.259337 J-0.846398
G01 X244.922414 Y41.084271 Z-0.125000
G03 X244.904843 Y41.077148 Z-0.125000 I0.020197 J-0.075066
G02 X244.887275 Y41.070248 Z-0.125000 I-0.034564 J0.062179
G02 X244.264545 Y40.977587 Z-0.125000 I-0.787845 J3.155894
G02 X243.715254 Y41.007700 Z-0.125000 I-0.132529 J2.607429
G02 X242.589793 Y41.321443 Z-0.125000 I0.837592 J5.180119
G02 X241.475085 Y41.912045 Z-0.125000 I2.277408 J5.645659
G02 X240.486699 Y42.763262 Z-0.125000 I4.444228 J6.159830
G02 X239.660726 Y43.767751 Z-0.125000 I5.434966 J5.310912
G02 X239.068896 Y44.938203 Z-0.125000 I6.816516 J4.181571
G02 X238.631334 Y46.308674 Z-0.125000 I8.662137 J3.520721
G02 X238.447123 Y47.700246 Z-0.125000 I6.813783 J1.609963
G02 X238.543485 Y49.191173 Z-0.125000 I7.810714 J0.243753
G02 X239.376778 Y51.710738 Z-0.125000 I8.266878 J-1.336517
G02 X240.504603 Y53.060699 Z-0.125000 I3.618751 J-1.877184
G01 X240.508730 Y53.064404 Z-0.125000
G01 X240.512355 Y53.067049 Z-0.125000
G02 X241.740716 Y53.778951 Z-0.125000 I3.010845 J-3.779410
G02 X242.958716 Y54.036481 Z-0.125000 I1.361660 J-3.430965
G02 X243.013317 Y54.039058 Z-0.125000 I0.078089 J-1.075130
G02 X243.068269 Y54.039656 Z-0.125000 I0.054953 J-2.521362
G02 X243.452171 Y54.026768 Z-0.125000 I0.048473 J-4.279993
G02 X243.862018 Y53.977665 Z-0.125000 I-0.396601 J-5.045300
G01 X243.861489 Y53.980311 Z-0.125000
G02 X245.135439 Y53.621777 Z-0.125000 I-0.928064 J-5.740204
G02 X246.029829 Y53.104911 Z-0.125000 I-1.446625 J-3.535518
G01 X246.039645 Y53.097238 Z-0.125000
G01 X246.047900 Y53.091153 Z-0.125000
G02 X246.806734 Y52.386790 Z-0.125000 I-2.440500 J-3.390175
G02 X247.412672 Y51.460237 Z-0.125000 I-3.565138 J-2.992901
G02 X247.806560 Y50.405923 Z-0.125000 I-4.931531 J-2.443138
G02 X248.030206 Y49.069703 Z-0.125000 I-7.352073 J-1.917358
G01 X248.032323 Y49.059913 Z-0.125000
G01 X248.032323 Y49.050124 Z-0.125000
G02 X248.084805 Y47.665518 Z-0.125000 I-9.706367 J-1.061211
G02 X247.930519 Y46.075100 Z-0.125000 I-12.567358 J0.416465
G02 X247.538553 Y44.367423 Z-0.125000 I-13.247044 J2.141797
G02 X247.108349 Y43.291819 Z-0.125000 I-6.206478 J1.858540
G01 X247.104221 Y43.284146 Z-0.125000
G01 X247.102104 Y43.278060 Z-0.125000
G02 X246.529510 Y42.302618 Z-0.125000 I-5.906179 J2.811204
G02 X246.006567 Y41.713793 Z-0.125000 I-2.956085 J2.098710
G01 X246.004450 Y41.711147 Z-0.125000
G01 X246.002333 Y41.708501 Z-0.125000
G02 X245.501337 Y41.341075 Z-0.125000 I-1.887474 J2.048352
G02 X245.056140 Y41.140071 Z-0.125000 I-1.256194 J2.188776
G01 X242.544667 Y37.885488 Z-0.125000
G03 X243.008349 Y37.990539 Z-0.125000 I-4.590594 J21.338301
G03 X243.435569 Y38.100965 Z-0.125000 I-2.653725 J11.148423
G03 X243.366170 Y38.015355 Z-0.125000 I9.418963 J-7.706318
G02 X243.292943 Y37.925282 Z-0.125000 I-7.623506 J6.122923
G03 X242.864888 Y37.417044 Z-0.125000 I9.818797 J-8.704089
G03 X242.453201 Y36.874702 Z-0.125000 I10.489078 J-8.389594
G01 X242.447010 Y36.866500 Z-0.125000
G01 X242.440819 Y36.856710 Z-0.125000
G03 X242.115791 Y36.260327 Z-0.125000 I3.215916 J-2.139429
G03 X241.946792 Y35.684687 Z-0.125000 I2.198693 J-0.958130
G03 X242.043328 Y34.868855 Z-0.125000 I1.477614 J-0.238784
G03 X242.527118 Y34.043981 Z-0.125000 I3.286207 J1.373057
G01 X242.532806 Y34.034192 Z-0.125000
G01 X242.541061 Y34.025990 Z-0.125000
G03 X243.161193 Y33.322660 Z-0.125000 I17.267670 J14.600003
G03 X243.974564 Y32.465876 Z-0.125000 I27.081256 J24.894581
G01 X243.980755 Y32.459791 Z-0.125000
G01 X243.984380 Y32.455557 Z-0.125000
G03 X244.850572 Y31.615469 Z-0.125000 I464.969716 J478.550789
G03 X245.845764 Y30.653086 Z-0.125000 I864.841762 J893.329338
G02 X246.804196 Y29.632173 Z-0.125000 I-12.214479 J-12.427284
G02 X247.589839 Y28.639239 Z-0.125000 I-10.812536 J-9.362531
G01 X247.593967 Y28.631566 Z-0.125000
G01 X247.600158 Y28.625745 Z-0.125000
G02 X248.302748 Y27.561962 Z-0.125000 I-7.570438 J-5.763913
G02 X248.803183 Y26.512706 Z-0.125000 I-7.062179 J-4.012214
G01 X248.807310 Y26.502387 Z-0.125000
G01 X248.810935 Y26.492597 Z-0.125000
G02 X249.102901 Y25.439882 Z-0.125000 I-3.703609 J-1.594025
G02 X249.090504 Y24.473088 Z-0.125000 I-3.260125 J-0.441673
G02 X248.241525 Y22.248374 Z-0.125000 I-5.794174 J0.936782
G02 X246.836381 Y20.904843 Z-0.125000 I-3.459723 J2.211824
G01 X246.828629 Y20.900609 Z-0.125000
G01 X246.820374 Y20.895847 Z-0.125000
G02 X244.930145 Y20.225450 Z-0.125000 I-2.502831 J4.056887
G02 X241.664106 Y20.276775 Z-0.125000 I-1.456763 J11.241442
G02 X240.079987 Y20.651572 Z-0.125000 I1.804155 J11.160579
G02 X238.543371 Y21.257055 Z-0.125000 I3.490030 J11.109698
G02 X237.078270 Y22.066319 Z-0.125000 I6.197739 J12.951312
G02 X235.900642 Y22.923108 Z-0.125000 I5.891870 J9.335880
G01 X235.898525 Y22.925754 Z-0.125000
G02 X234.919819 Y23.918611 Z-0.125000 I5.750757 J6.647598
G02 X234.232480 Y24.902374 Z-0.125000 I5.169010 J4.343498
G01 X234.232480 Y24.905549 Z-0.125000
G01 X234.230364 Y24.908195 Z-0.125000
G02 X233.863374 Y25.883329 Z-0.125000 I2.970940 J1.674731
G02 X233.845890 Y26.638303 Z-0.125000 I2.025890 J0.424606
G02 X234.019744 Y27.189508 Z-0.125000 I1.972603 J-0.319155
G02 X234.460839 Y27.877002 Z-0.125000 I3.076487 J-1.488618
G02 X235.057147 Y28.482915 Z-0.125000 I5.621712 J-4.936211
G02 X235.757915 Y29.050559 Z-0.125000 I5.439607 J-5.998917
G02 X236.543010 Y29.595593 Z-0.125000 I15.323290 J-21.234524
G02 X237.289086 Y30.072194 Z-0.125000 I12.214687 J-18.298729
G01 X238.648693 Y30.841654 Z-0.125000
G01 X238.894671 Y30.978602 Z-0.125000
G01 X238.943248 Y31.255594 Z-0.125000
G03 X238.947365 Y31.277934 Z-0.125000 I-0.658976 J0.132972
G02 X238.951503 Y31.300547 Z-0.125000 I0.722255 J-0.120503
G02 X238.990419 Y31.361517 Z-0.125000 I0.138100 J-0.045241
G03 X239.016099 Y31.410111 Z-0.125000 I-0.057304 J0.061364
G03 X238.960250 Y31.931217 Z-0.125000 I-0.998631 J0.156520
G03 X238.707074 Y32.353190 Z-0.125000 I-1.345424 J-0.520292
G03 X238.468167 Y32.616731 Z-0.125000 I-1.410959 J-1.039014
G03 X238.039414 Y32.821899 Z-0.125000 I-0.562724 J-0.625381
G01 X237.769664 Y32.865317 Z-0.125000
G01 X237.558826 Y32.689105 Z-0.125000
G02 X236.852844 Y32.166347 Z-0.125000 I-4.772664 J5.707360
G02 X235.185844 Y31.148094 Z-0.125000 I-17.822686 J27.304182
G03 X233.477315 Y30.159706 Z-0.125000 I80.122166 J-140.470177
G03 X231.693558 Y29.101201 Z-0.125000 I105.020785 J-179.009685
G03 X229.925229 Y27.982503 Z-0.125000 I22.911884 J-38.173820
G03 X228.443629 Y26.933393 Z-0.125000 I17.616080 J-26.448963
G01 X228.439502 Y26.928630 Z-0.125000
G01 X228.433813 Y26.924926 Z-0.125000
G03 X227.184248 Y25.719079 Z-0.125000 I5.237282 J-6.677521
G03 X226.710925 Y24.688380 Z-0.125000 I1.623901 J-1.369765
G03 X226.782240 Y23.146624 Z-0.125000 I3.715280 J-0.600674
G03 X227.470567 Y21.725764 Z-0.125000 I3.878031 J1.001531
G03 X228.553905 Y20.544731 Z-0.125000 I6.809740 J5.159058
G03 X229.980489 Y19.452017 Z-0.125000 I7.448515 J8.246762
G01 X229.984616 Y19.449372 Z-0.125000
G01 X229.986733 Y19.446726 Z-0.125000
G03 X231.590904 Y18.560921 Z-0.125000 I8.564115 J13.613946
G03 X233.400475 Y17.806523 Z-0.125000 I8.077551 J16.828079
G01 X233.402592 Y17.803877 Z-0.125000
G03 X235.309962 Y17.218173 Z-0.125000 I8.280926 J23.568633
G03 X236.961027 Y16.867994 Z-0.125000 I4.396533 J16.661865
G03 X240.521131 Y16.625571 Z-0.125000 I3.089501 J19.108735
G03 X243.916149 Y17.038015 Z-0.125000 I-0.431131 J17.728059
G03 X247.172323 Y18.004030 Z-0.125000 I-5.170872 J23.400453
G03 X249.937995 Y19.303507 Z-0.125000 I-6.729404 J17.914984
G01 X249.939582 Y19.306153 Z-0.125000
G03 X252.447990 Y20.967603 Z-0.125000 I-9.340654 J16.826527
G03 X254.336208 Y22.749859 Z-0.125000 I-8.581487 J10.983056
G03 X255.834061 Y24.845954 Z-0.125000 I-8.224250 J7.460205
G03 X256.467342 Y26.681404 Z-0.125000 I-4.968055 J2.741094
G03 X256.483911 Y28.052633 Z-0.125000 I-4.583979 J0.741101
G03 X256.099924 Y29.378404 Z-0.125000 I-4.706352 J-0.644619
G03 X255.455721 Y30.541221 Z-0.125000 I-7.743183 J-3.529883
G03 X254.598209 Y31.653712 Z-0.125000 I-8.078444 J-5.340163
G03 X253.651034 Y32.690385 Z-0.125000 I-14.166250 J-11.992214
G03 X252.607635 Y33.673724 Z-0.125000 I-13.850488 J-13.651214
G02 X251.585133 Y34.638898 Z-0.125000 I59.216787 J63.758239
G02 X250.685791 Y35.515486 Z-0.125000 I54.733346 J57.053705
G02 X249.854951 Y36.414709 Z-0.125000 I9.715614 J9.810225
G02 X249.291560 Y37.161880 Z-0.125000 I6.446674 J5.446980
G02 X248.970402 Y37.874312 Z-0.125000 I1.950944 J1.308073
G02 X248.947396 Y38.353033 Z-0.125000 I1.120583 J0.293765
G02 X249.019965 Y38.567841 Z-0.125000 I0.680497 J-0.110232
G02 X249.865687 Y39.860945 Z-0.125000 I7.734084 J-4.135170
G03 X250.801767 Y41.086927 Z-0.125000 I-39.627710 J31.227502
G03 X251.930157 Y42.651978 Z-0.125000 I-63.868122 J47.237715
G01 X251.932273 Y42.656211 Z-0.125000
G03 X253.049804 Y44.340694 Z-0.125000 I-21.581097 J15.530410
G03 X254.080460 Y46.177440 Z-0.125000 I-24.715140 J15.075980
G01 X254.082576 Y46.181674 Z-0.125000
G03 X254.744711 Y47.867131 Z-0.125000 I-6.529059 J3.537739
G03 X255.064944 Y49.513753 Z-0.125000 I-13.541730 J3.488030
G02 X255.312746 Y49.473672 Z-0.125000 I-101.506725 J-628.201278
G03 X255.633385 Y49.421784 Z-0.125000 I224.665005 J1386.676880
G01 X255.653017 Y49.419138 Z-0.125000
G01 X255.672146 Y49.416492 Z-0.125000
G02 X256.394983 Y49.337405 Z-0.125000 I-2.218964 J-23.623674
G02 X256.957337 Y49.256816 Z-0.125000 I-1.952749 J-15.628752
G03 X259.032761 Y49.064108 Z-0.125000 I2.458359 J15.203724
G03 X260.801024 Y49.035651 Z-0.125000 I2.505630 J100.742343
G03 X260.912018 Y48.908600 Z-0.125000 I1.026306 J0.784588
G03 X261.270246 Y48.713707 Z-0.125000 I0.506684 J0.504651
G03 X261.589014 Y48.684404 Z-0.125000 I0.281735 J1.316330
G03 X261.918268 Y48.707357 Z-0.125000 I-0.107906 J3.920906
G01 X261.959609 Y48.713707 Z-0.125000
G01 X262.002501 Y48.723496 Z-0.125000
G02 X262.199385 Y48.751457 Z-0.125000 I0.221572 J-0.853019
G02 X262.336330 Y48.739106 Z-0.125000 I0.016364 J-0.583953
G02 X262.689778 Y48.609495 Z-0.125000 I-0.276279 J-1.300134
G02 X262.836556 Y48.495187 Z-0.125000 I-0.263421 J-0.489641
G01 X262.867563 Y48.460051 Z-0.125000
G01 X262.904771 Y48.430603 Z-0.125000
G02 X263.103250 Y48.228647 Z-0.125000 I-0.731971 J-0.917878
G02 X263.234981 Y48.008910 Z-0.125000 I-0.878868 J-0.676233
G02 X263.337400 Y47.571759 Z-0.125000 I-1.774407 J-0.646293
G02 X263.360039 Y46.671020 Z-0.125000 I-5.221941 J-0.581901
G02 X263.263452 Y45.735580 Z-0.125000 I-11.136200 J0.677144
G02 X263.043262 Y44.506810 Z-0.125000 I-19.144244 J2.796448
G01 X262.684112 Y42.815437 Z-0.125000
G02 X262.423340 Y41.684771 Z-0.125000 I-33.184983 J7.058235
G02 X262.000434 Y40.069357 Z-0.125000 I-66.014042 J16.418996
G02 X261.555626 Y38.508104 Z-0.125000 I-105.025250 J29.078178
G02 X261.086279 Y36.950161 Z-0.125000 I-102.539288 J30.041425
G01 X261.082152 Y36.940372 Z-0.125000
G01 X261.080564 Y36.932699 Z-0.125000
G02 X260.630390 Y35.375974 Z-0.125000 I-68.525578 J18.972791
G02 X260.231004 Y34.114281 Z-0.125000 I-46.339836 J13.974716
G01 X260.228887 Y34.104492 Z-0.125000
G01 X260.224760 Y34.094702 Z-0.125000
G02 X259.856924 Y32.858013 Z-0.125000 I-223.970599 J65.943935
G02 X259.714715 Y32.399201 Z-0.125000 I-26.459439 J7.949641
G02 X259.585057 Y32.045334 Z-0.125000 I-11.015762 J3.835532
G02 X259.503874 Y31.846249 Z-0.125000 I-5.060914 J1.947638
G01 X259.480617 Y31.791983 Z-0.125000
G01 X259.468738 Y31.735151 Z-0.125000
G03 X259.417467 Y31.493547 Z-0.125000 I164.244002 J-34.984517
G02 X259.345746 Y31.155344 Z-0.125000 I-283.939274 J60.045242
G03 X259.306544 Y29.964875 Z-0.125000 I3.315509 J-0.705059
G03 X259.685778 Y28.897075 Z-0.125000 I2.856821 J0.413368
G03 X260.491114 Y28.061909 Z-0.125000 I2.198993 J1.314582
G03 X261.672217 Y27.573128 Z-0.125000 I1.912587 J2.950210
G03 X262.771125 Y27.440545 Z-0.125000 I1.288048 J6.055487
G03 X264.353704 Y27.481159 Z-0.125000 I0.430419 J14.082004
G01 X264.359896 Y27.483805 Z-0.125000
G01 X264.365584 Y27.483805 Z-0.125000
G03 X265.985218 Y27.693255 Z-0.125000 I-3.195282 J31.075259
G03 X267.701822 Y28.003155 Z-0.125000 I-5.634914 J36.122366
G01 X267.715316 Y28.005801 Z-0.125000
G03 X268.402888 Y28.154424 Z-0.125000 I-2.012038 J10.972993
G02 X269.023758 Y28.298800 Z-0.125000 I4.839479 J-19.404399
G02 X268.942418 Y28.221510 Z-0.125000 I-3.220847 J3.308216
G03 X268.869771 Y28.152565 Z-0.125000 I2.948529 J-3.179564
G01 X268.865538 Y28.148331 Z-0.125000
G01 X268.862892 Y28.145686 Z-0.125000
G03 X268.589614 Y27.877369 Z-0.125000 I8.348040 J-8.775729
G03 X268.411778 Y27.686793 Z-0.125000 I3.323358 J-3.279450
G03 X268.278986 Y27.529148 Z-0.125000 I3.384484 J-2.985675
G03 X268.116689 Y27.208268 Z-0.125000 I0.675550 J-0.543170
G03 X268.075234 Y26.835613 Z-0.125000 I1.225483 J-0.324957
G03 X268.200932 Y26.401607 Z-0.125000 I0.933450 J0.035143
G03 X268.515323 Y26.077466 Z-0.125000 I0.808054 J0.469208
G03 X268.859294 Y25.928771 Z-0.125000 I0.668640 J1.074551
G03 X269.131001 Y25.910034 Z-0.125000 I0.184532 J0.696512
G03 X269.314032 Y25.939090 Z-0.125000 I-0.310179 J2.544923
G03 X269.628356 Y25.949428 Z-0.125000 I0.105034 J1.589995
G03 X270.099526 Y26.200551 Z-0.125000 I-0.100077 J0.755350
G01 X270.126911 Y26.232089 Z-0.125000
G01 X270.150194 Y26.267226 Z-0.125000
G02 X270.253710 Y26.401143 Z-0.125000 I0.916250 J-0.601281
G02 X270.701056 Y26.852721 Z-0.125000 I5.200216 J-4.704108
G01 X270.708729 Y26.860394 Z-0.125000
G01 X270.718518 Y26.868067 Z-0.125000
G02 X270.980190 Y27.070440 Z-0.125000 I0.935355 J-0.939075
G02 X271.160346 Y27.175010 Z-0.125000 I7.285578 J-12.344225
G03 X271.391558 Y27.013601 Z-0.125000 I4.649586 J6.414077
G03 X271.757721 Y26.774537 Z-0.125000 I9.207759 J13.703119
G01 X271.769627 Y26.766335 Z-0.125000
G01 X271.783121 Y26.759191 Z-0.125000
G03 X272.632623 Y26.280075 Z-0.125000 I77.183600 J135.858400
G03 X273.703438 Y25.684826 Z-0.125000 I97.942466 J174.931428
G01 X273.706084 Y25.684826 Z-0.125000
G01 X273.708730 Y25.681651 Z-0.125000
G03 X274.842328 Y25.095409 Z-0.125000 I17.537943 J32.523512
G03 X275.937524 Y24.576302 Z-0.125000 I15.477244 J31.238539
G03 X277.033961 Y24.066102 Z-0.125000 I9.282892 J18.515993
G03 X277.659906 Y23.849731 Z-0.125000 I1.781919 J4.141370
G03 X278.837070 Y23.618497 Z-0.125000 I2.358272 J8.893509
G03 X280.066474 Y23.535538 Z-0.125000 I1.289984 J9.965867
G03 X281.275308 Y23.533417 Z-0.125000 I0.629094 J14.060059
G03 X282.490081 Y23.636821 Z-0.125000 I-0.574600 J13.937506
G03 X283.674918 Y23.818630 Z-0.125000 I-3.317130 J25.569186
G03 X284.744222 Y24.035759 Z-0.125000 I-3.837380 J21.639658
G01 X284.755599 Y24.038405 Z-0.125000
G01 X284.767505 Y24.042638 Z-0.125000
G03 X285.824326 Y24.345587 Z-0.125000 I-10.549543 J38.796263
G03 X286.693484 Y24.624509 Z-0.125000 I-7.452253 J24.715916
G01 X286.676022 Y24.620276 Z-0.125000
G03 X287.594015 Y24.936342 Z-0.125000 I-4.428238 J14.352689
G03 X288.564298 Y25.339095 Z-0.125000 I-6.331757 J16.624140
G01 X288.574617 Y25.343328 Z-0.125000
G01 X288.584406 Y25.347562 Z-0.125000
G03 X289.546225 Y25.875087 Z-0.125000 I-5.765738 J11.653064
G03 X290.435984 Y26.466351 Z-0.125000 I-6.482300 J10.719949
G03 X291.271643 Y27.160911 Z-0.125000 I-4.975104 J6.835779
G03 X291.982657 Y27.931373 Z-0.125000 I-5.322031 J5.624694
G03 X292.569259 Y28.836772 Z-0.125000 I-4.100816 J3.299619
G03 X292.945898 Y29.820152 Z-0.125000 I-4.412696 J2.253899
G03 X293.145979 Y31.950956 Z-0.125000 I-6.270657 J1.663606
G03 X292.625515 Y33.571860 Z-0.125000 I-3.591940 J-0.259344
G03 X291.610688 Y34.841022 Z-0.125000 I-5.551303 J-3.398528
G03 X290.197754 Y35.943291 Z-0.125000 I-5.759613 J-5.926205
G03 X288.672886 Y36.838887 Z-0.125000 I-9.841567 J-15.010587
G03 X286.922507 Y37.654296 Z-0.125000 I-9.768156 J-18.682181
G02 X285.234932 Y38.411520 Z-0.125000 I11.126757 J27.056584
G02 X283.789368 Y39.181337 Z-0.125000 I9.981505 J20.485437
G02 X282.543577 Y40.129703 Z-0.125000 I4.304001 J6.946244
G02 X281.719218 Y41.085593 Z-0.125000 I3.817018 J4.125201
G02 X281.366905 Y42.041239 Z-0.125000 I1.727275 J1.179552
G02 X281.488740 Y43.640486 Z-0.125000 I4.374527 J0.471001
G02 X281.875150 Y44.407204 Z-0.125000 I2.014098 J-0.534333
G02 X282.566704 Y44.988193 Z-0.125000 I1.795671 J-1.435324
G02 X283.480928 Y45.248495 Z-0.125000 I1.131920 J-2.239885
G02 X284.638918 Y45.148398 Z-0.125000 I0.292722 J-3.361838
G02 X287.246075 Y44.136726 Z-0.125000 I-3.241626 J-12.219178
G02 X288.439732 Y43.216730 Z-0.125000 I-1.994919 J-3.822687
G01 X288.444230 Y43.212497 Z-0.125000
G01 X288.446876 Y43.209851 Z-0.125000
G02 X289.131038 Y41.987553 Z-0.125000 I-2.127377 J-1.993390
G02 X289.136247 Y40.742826 Z-0.125000 I-2.304450 J-0.632018
G02 X289.029038 Y40.394785 Z-0.125000 I-4.452567 J1.181011
G02 X288.966226 Y40.245198 Z-0.125000 I-1.293371 J0.455114
G01 X288.823589 Y39.955798 Z-0.125000
G01 X288.985858 Y39.678806 Z-0.125000
G03 X289.329981 Y39.345522 Z-0.125000 I0.762589 J0.443092
G03 X289.657661 Y39.215785 Z-0.125000 I0.713986 J1.324649
G01 X289.660306 Y39.215785 Z-0.125000
G03 X289.899275 Y39.153477 Z-0.125000 I7.486674 J28.224045
G02 X289.945580 Y39.141385 Z-0.125000 I-1.285816 J-5.018286
G01 X289.945580 Y39.138739 Z-0.125000
G03 X290.416023 Y39.144114 Z-0.125000 I0.225538 J0.850247
G03 X290.717104 Y39.256055 Z-0.125000 I-0.606291 J2.091573
G03 X291.020461 Y39.416550 Z-0.125000 I-1.254778 J2.738633
G03 X291.408539 Y39.666370 Z-0.125000 I-4.212777 J6.970588
G01 X291.409861 Y39.666370 Z-0.125000
G01 X291.411184 Y39.666370 Z-0.125000
G03 X292.213958 Y40.200742 Z-0.125000 I-10.682053 J16.917573
G03 X293.129942 Y40.869376 Z-0.125000 I-16.999019 J24.249243
G03 X294.079017 Y41.579322 Z-0.125000 I-13.430763 J18.943946
G03 X294.924661 Y42.285319 Z-0.125000 I-12.239113 J15.519506
G01 X294.931011 Y42.289552 Z-0.125000
G01 X294.936832 Y42.295902 Z-0.125000
G03 X295.365357 Y42.740590 Z-0.125000 I-3.772846 J4.064525
G02 X295.647370 Y43.063298 Z-0.125000 I23.115911 J-19.916315
G01 X298.777413 Y41.756391 Z-0.125000
G03 X297.904648 Y41.466386 Z-0.125000 I26.421405 J-80.973100
G03 X297.232275 Y41.221536 Z-0.125000 I4.979330 J-14.719177
G03 X296.865996 Y41.095406 Z-0.125000 I12.265552 J-36.213896
G03 X296.652468 Y41.016379 Z-0.125000 I2.116598 J-6.046890
G03 X296.547838 Y40.973284 Z-0.125000 I1.147605 J-2.934875
G03 X296.458687 Y40.932162 Z-0.125000 I0.829002 J-1.914413
G03 X296.416509 Y40.910987 Z-0.125000 I1.048089 J-2.140308
G03 X296.349653 Y40.871678 Z-0.125000 I0.314988 J-0.612236
G03 X296.319399 Y40.849851 Z-0.125000 I0.305038 J-0.454680
G03 X296.267473 Y40.806061 Z-0.125000 I0.500947 J-0.646709
G03 X296.090008 Y40.603850 Z-0.125000 I0.511228 J-0.627643
G03 X296.006012 Y40.426253 Z-0.125000 I0.750535 J-0.463633
G03 X295.963062 Y39.939677 Z-0.125000 I0.965393 J-0.330399
G03 X296.091790 Y39.530163 Z-0.125000 I1.410957 J0.218535
G01 X296.245777 Y39.217532 Z-0.125000
G01 X296.452999 Y38.795839 Z-0.125000
G01 X296.909828 Y38.895058 Z-0.125000
G03 X297.259227 Y38.988456 Z-0.125000 I-0.747249 J3.495657
G03 X297.710800 Y39.150857 Z-0.125000 I-2.203328 J6.835640
G02 X298.021039 Y39.236061 Z-0.125000 I0.537718 J-1.350487
G02 X298.267350 Y39.244916 Z-0.125000 I0.159506 J-1.006697
G02 X299.026348 Y39.119701 Z-0.125000 I-0.609249 J-6.055951
G02 X300.009365 Y38.838755 Z-0.125000 I-2.226221 J-9.649671
G01 X300.023387 Y38.833992 Z-0.125000
G01 X300.037410 Y38.829759 Z-0.125000
G02 X301.058078 Y38.515616 Z-0.125000 I-10.727397 J-36.669096
G02 X302.548885 Y38.019473 Z-0.125000 I-27.718834 J-85.777274
G02 X303.179180 Y37.791849 Z-0.125000 I-6.544789 J-19.109110
G02 X303.851639 Y37.523380 Z-0.125000 I-7.703745 J-20.272674
G01 X303.869101 Y37.515178 Z-0.125000
G01 X303.888681 Y37.509357 Z-0.125000
G02 X304.194387 Y37.396675 Z-0.125000 I-2.300355 J-6.711881
G03 X304.523283 Y37.271127 Z-0.125000 I5.645542 J14.295924
G03 X304.281589 Y37.068148 Z-0.125000 I7.042549 J-8.631212
G02 X303.954826 Y36.802418 Z-0.125000 I-4.595664 J5.317413
G03 X302.973071 Y36.031438 Z-0.125000 I10.534862 J-14.425511
G03 X301.706903 Y34.907977 Z-0.125000 I21.757176 J-25.796118
G01 X301.700817 Y34.902421 Z-0.125000
G01 X301.694996 Y34.895806 Z-0.125000
G03 X300.529666 Y33.647036 Z-0.125000 I13.999358 J-14.232063
G03 X299.282740 Y32.079453 Z-0.125000 I21.079950 J-18.047662
G03 X298.200987 Y30.339961 Z-0.125000 I10.373276 J-7.657026
G03 X297.341257 Y28.325681 Z-0.125000 I13.262876 J-6.851447
G03 X296.846981 Y26.334956 Z-0.125000 I11.214152 J-3.841079
G03 X296.732001 Y24.444778 Z-0.125000 I9.758509 J-1.542196
G01 X296.734647 Y24.437105 Z-0.125000
G01 X296.734647 Y24.429432 Z-0.125000
G03 X297.021010 Y22.552174 Z-0.125000 I10.454698 J0.634320
G03 X297.621397 Y20.847243 Z-0.125000 I9.112690 J2.250834
G01 X297.624043 Y20.843010 Z-0.125000
G01 X297.626689 Y20.837189 Z-0.125000
G03 X298.552097 Y19.329140 Z-0.125000 I8.376661 J4.102347
G03 X299.769705 Y17.987259 Z-0.125000 I7.921168 J5.964218
G03 X301.235134 Y16.900683 Z-0.125000 I5.919415 J6.451838
G03 X302.933324 Y16.118113 Z-0.125000 I4.678114 J7.917752
G03 X303.882481 Y15.874558 Z-0.125000 I2.015897 J5.884890
G03 X304.972465 Y15.758968 Z-0.125000 I1.410399 J8.102772
G03 X306.051960 Y15.686900 Z-0.125000 I1.828277 J19.264657
G03 X307.074154 Y15.678879 Z-0.125000 I0.641033 J16.554181
G01 X307.082356 Y15.678879 Z-0.125000
G01 X307.090029 Y15.681524 Z-0.125000
G03 X308.171297 Y15.756383 Z-0.125000 I-1.471382 J29.099253
G03 X309.078555 Y15.857234 Z-0.125000 I-1.740032 J19.784683
G03 X309.957999 Y15.982188 Z-0.125000 I-7.779508 J57.910354
G03 X310.480528 Y16.068080 Z-0.125000 I-2.767132 J18.466424
G01 X310.483174 Y16.068080 Z-0.125000
G01 X310.485820 Y16.068080 Z-0.125000
G03 X312.287457 Y16.446545 Z-0.125000 I-6.772373 J36.716521
G03 X314.063908 Y16.911941 Z-0.125000 I-8.604190 J36.465962
G03 X315.811069 Y17.476779 Z-0.125000 I-7.960795 J27.608979
G03 X317.122619 Y18.011627 Z-0.125000 I-5.622383 J15.662670
G01 X317.130292 Y18.015861 Z-0.125000
G01 X317.138494 Y18.019565 Z-0.125000
G03 X317.469252 Y18.256031 Z-0.125000 I-0.543166 J1.109312
G03 X317.706925 Y18.564738 Z-0.125000 I-1.074161 J1.072837
G03 X317.829719 Y18.842909 Z-0.125000 I-1.171599 J0.683374
G03 X317.900202 Y19.142984 Z-0.125000 I-2.025544 J0.634086
G03 X317.942593 Y19.422700 Z-0.125000 I-0.835454 J0.269681
G03 X317.892000 Y19.771898 Z-0.125000 I-1.335804 J-0.015270
G03 X317.866382 Y19.947274 Z-0.125000 I-1.024515 J-0.060101
G03 X317.685308 Y20.226663 Z-0.125000 I-0.481055 J-0.113403
G03 X317.438267 Y20.342365 Z-0.125000 I-0.390340 J-0.511854
G03 X317.237792 Y20.357394 Z-0.125000 I-0.150070 J-0.657210
G03 X317.061871 Y20.321690 Z-0.125000 I0.050458 J-0.699875
G03 X316.964425 Y20.281432 Z-0.125000 I0.268936 J-0.789031
G01 X316.265238 Y19.978617 Z-0.125000
G02 X315.645856 Y19.767881 Z-0.125000 I-4.276539 J11.553753
G02 X314.829664 Y19.533165 Z-0.125000 I-5.897637 J18.971754
G02 X314.028298 Y19.388701 Z-0.125000 I-2.739058 J12.899148
G02 X313.105218 Y19.279430 Z-0.125000 I-2.303828 J15.508259
G01 X313.097016 Y19.279430 Z-0.125000
G01 X313.091459 Y19.279430 Z-0.125000
G02 X312.232010 Y19.227839 Z-0.125000 I-0.945351 J8.563950
G02 X311.270890 Y19.263819 Z-0.125000 I-0.101212 J10.151167
G01 X311.266657 Y19.266465 Z-0.125000
G01 X311.262953 Y19.266465 Z-0.125000
G02 X310.389831 Y19.388174 Z-0.125000 I0.485942 J6.678784
G02 X309.465667 Y19.641141 Z-0.125000 I1.549074 J7.473819
G02 X307.988340 Y20.324468 Z-0.125000 I2.558891 J7.470854
G02 X306.776419 Y21.236894 Z-0.125000 I3.568255 J6.000574
G02 X305.771715 Y22.390803 Z-0.125000 I5.234667 J5.572155
G02 X305.018900 Y23.719424 Z-0.125000 I6.201613 J4.391509
G02 X304.577379 Y25.155868 Z-0.125000 I7.483700 J3.086349
G02 X304.376042 Y26.815362 Z-0.125000 I9.693281 J2.017987
G02 X304.522247 Y28.502994 Z-0.125000 I9.813255 J0.000000
G02 X304.997204 Y30.352096 Z-0.125000 I11.977597 J-2.090997
G02 X305.469519 Y31.534357 Z-0.125000 I11.952768 J-4.089673
G02 X305.977510 Y32.493049 Z-0.125000 I8.687283 J-3.989283
G02 X306.588265 Y33.449995 Z-0.125000 I20.219541 J-12.231411
G02 X307.110243 Y34.178204 Z-0.125000 I12.463864 J-8.382869
G02 X307.676440 Y34.867294 Z-0.125000 I9.834652 J-7.503581
G02 X308.051788 Y35.250506 Z-0.125000 I3.929262 J-3.473195
G01 X308.057609 Y35.256592 Z-0.125000
G01 X308.060812 Y35.258608 Z-0.125000
G01 X308.063694 Y35.262677 Z-0.125000
G02 X308.349843 Y35.508327 Z-0.125000 I38.680722 J-44.768342
G03 X308.528778 Y35.661113 Z-0.125000 I-144.407287 J169.303836
G01 X310.132310 Y35.112315 Z-0.125000
G01 X310.143687 Y35.108081 Z-0.125000
G02 X311.218876 Y34.778571 Z-0.125000 I-14.682416 J-49.827453
G02 X312.237597 Y34.441994 Z-0.125000 I-14.934214 J-46.911502
G01 X312.251620 Y34.437760 Z-0.125000
G01 X312.265114 Y34.434056 Z-0.125000
G03 X313.310176 Y34.129023 Z-0.125000 I262.822175 J898.501984
G03 X314.261392 Y33.853720 Z-0.125000 I82.148140 J282.054074
G03 X315.209188 Y33.599971 Z-0.125000 I7.346592 J25.543866
G03 X315.954803 Y33.432054 Z-0.125000 I4.255530 J17.156743
G03 X316.775424 Y33.278238 Z-0.125000 I1.393018 J5.165911
G03 X317.689065 Y33.242401 Z-0.125000 I0.719990 J6.691429
G03 X318.559230 Y33.289469 Z-0.125000 I-0.491795 J17.158950
G03 X319.360806 Y33.375195 Z-0.125000 I-1.179456 J14.818879
G01 X319.369009 Y33.375195 Z-0.125000
G01 X319.376681 Y33.377841 Z-0.125000
G03 X320.226339 Y33.534674 Z-0.125000 I-3.045062 J18.876929
G03 X320.952829 Y33.705977 Z-0.125000 I-2.875231 J13.819888
G01 X320.931662 Y33.699891 Z-0.125000
G02 X321.660222 Y33.857355 Z-0.125000 I9.316136 J-41.340072
G02 X322.140383 Y33.950002 Z-0.125000 I3.682700 J-17.795822
G01 X322.150702 Y33.952647 Z-0.125000
G01 X322.160491 Y33.955293 Z-0.125000
G02 X322.991464 Y34.128170 Z-0.125000 I16.660293 J-77.997919
G02 X323.758335 Y34.279302 Z-0.125000 I14.878682 J-73.476208
G01 X323.775268 Y34.283535 Z-0.125000
G03 X324.183858 Y34.356507 Z-0.125000 I-2.175085 J13.359222
G03 X324.445007 Y34.416329 Z-0.125000 I-0.772161 J3.970748
G03 X324.571400 Y34.452524 Z-0.125000 I-0.761362 J2.897454
G03 X324.702870 Y34.502107 Z-0.125000 I-0.348357 J1.122764
G03 X324.809263 Y34.557697 Z-0.125000 I-0.401782 J0.898563
G03 X325.089399 Y34.904670 Z-0.125000 I-0.336571 J0.558312
G03 X325.143793 Y35.333699 Z-0.125000 I-1.010572 J0.346086
G03 X325.033096 Y35.738741 Z-0.125000 I-1.113778 J-0.086744
G03 X324.976387 Y35.848622 Z-0.125000 I-2.594073 J-1.269215
G03 X324.910091 Y35.957313 Z-0.125000 I-1.122437 J-0.610062
G03 X324.846638 Y36.041632 Z-0.125000 I-0.903785 J-0.614094
G03 X324.550417 Y36.246185 Z-0.125000 I-0.513368 J-0.426668
G01 X324.440879 Y36.283412 Z-0.125000
G01 X324.325627 Y36.277591 Z-0.125000
G02 X324.176413 Y36.277106 Z-0.125000 I-0.079411 J1.478293
G02 X323.337568 Y36.332360 Z-0.125000 I1.065314 J22.568524
G02 X322.536302 Y36.439813 Z-0.125000 I1.161062 J11.699136
G02 X321.294802 Y36.680154 Z-0.125000 I4.486211 J26.500528
G02 X320.093711 Y37.022142 Z-0.125000 I6.627679 J25.557190
G02 X318.095518 Y37.674404 Z-0.125000 I21.523120 J69.322485
G02 X316.773339 Y38.149628 Z-0.125000 I15.106062 J44.105329
G02 X315.136554 Y38.789569 Z-0.125000 I24.603261 J65.341318
G01 X315.128881 Y38.793802 Z-0.125000
G01 X315.125892 Y38.794262 Z-0.125000
G01 X315.122531 Y38.796448 Z-0.125000
G02 X313.519758 Y39.515565 Z-0.125000 I41.617232 J94.902452
G02 X312.013178 Y40.222206 Z-0.125000 I41.572321 J90.592769
G01 X312.006828 Y40.225910 Z-0.125000
G01 X312.002085 Y40.227237 Z-0.125000
G03 X311.997038 Y40.230144 Z-0.125000 I-0.065297 J-0.107552
G02 X310.540452 Y41.026592 Z-0.125000 I15.957739 J30.914530
G02 X309.409099 Y41.726175 Z-0.125000 I11.258779 J19.472063
G02 X308.791355 Y42.223549 Z-0.125000 I2.323507 J3.518133
G02 X308.479434 Y42.538525 Z-0.125000 I8.492872 J8.722452
G03 X308.567699 Y42.578524 Z-0.125000 I-0.222043 J0.607354
G02 X308.590532 Y42.587605 Z-0.125000 I0.048450 J-0.088583
G01 X308.649455 Y42.603744 Z-0.125000
G01 X308.702160 Y42.629144 Z-0.125000
G03 X308.896649 Y42.770456 Z-0.125000 I-0.306723 J0.626642
G03 X309.047864 Y43.017737 Z-0.125000 I-0.476106 J0.461020
G03 X309.084115 Y43.280889 Z-0.125000 I-0.654600 J0.224249
G03 X309.059241 Y43.437869 Z-0.125000 I-0.787723 J-0.044357
G03 X308.946151 Y43.701318 Z-0.125000 I-0.943500 J-0.249016
G03 X308.825138 Y43.877129 Z-0.125000 I-1.819886 J-1.123093
G03 X308.390888 Y44.250897 Z-0.125000 I-1.101543 J-0.840649
G03 X307.823136 Y44.398543 Z-0.125000 I-0.575393 J-1.047167
G01 X307.805144 Y44.398543 Z-0.125000
G01 X307.788211 Y44.395897 Z-0.125000
G03 X307.333426 Y44.329503 Z-0.125000 I0.122704 J-2.431258
G03 X306.467359 Y44.102898 Z-0.125000 I6.473728 J-26.510448
G01 X306.477149 Y44.106602 Z-0.125000
G03 X305.612751 Y43.875546 Z-0.125000 I35.743946 J-135.453030
G03 X304.342414 Y43.528859 Z-0.125000 I84.685526 J-312.806942
G01 X304.335270 Y43.526213 Z-0.125000
G01 X304.329185 Y43.523038 Z-0.125000
G03 X303.102499 Y43.148091 Z-0.125000 I28.769902 J-96.318523
G03 X301.684916 Y42.696719 Z-0.125000 I42.360511 J-135.489371
G03 X300.342662 Y42.269816 Z-0.125000 I151.616000 J-479.029547
G03 X299.169287 Y41.892122 Z-0.125000 I90.224823 J-282.311265
G03 X299.023449 Y41.842053 Z-0.125000 I0.899623 J-2.857787
G02 X298.883537 Y41.793432 Z-0.125000 I-1.175021 J3.155667
G01 X295.703356 Y43.120978 Z-0.125000
G02 X295.930202 Y43.352068 Z-0.125000 I1.926634 J-1.664361
G03 X296.104384 Y43.554550 Z-0.125000 I-0.691170 J0.770731
G03 X296.220838 Y43.729670 Z-0.125000 I-2.835956 J2.012181
G03 X296.319358 Y43.923537 Z-0.125000 I-1.069465 J0.665447
G03 X296.354467 Y44.027431 Z-0.125000 I-0.875915 J0.353881
G03 X296.375661 Y44.279057 Z-0.125000 I-0.666263 J0.182824
G03 X296.282352 Y44.530216 Z-0.125000 I-0.526514 J-0.052696
G03 X296.026332 Y44.776182 Z-0.125000 I-0.754801 J-0.529426
G01 X296.100230 Y44.742078 Z-0.125000
G03 X295.696006 Y45.002613 Z-0.125000 I-3.060929 J-4.305230
G03 X294.967497 Y45.409726 Z-0.125000 I-12.070371 J-20.743928
G03 X294.235088 Y45.842162 Z-0.125000 I-7.842018 J-12.445435
G03 X293.338645 Y46.310446 Z-0.125000 I-10.605500 J-19.210094
G03 X292.453573 Y46.781354 Z-0.125000 I-8.939630 J-15.734866
G03 X291.520166 Y47.214791 Z-0.125000 I-8.634447 J-17.372510
G03 X290.564772 Y47.593742 Z-0.125000 I-6.629937 J-15.321249
G03 X289.803472 Y47.831798 Z-0.125000 I-3.099067 J-8.574431
G03 X287.301720 Y48.277926 Z-0.125000 I-3.936902 J-14.839385
G03 X284.819284 Y48.300507 Z-0.125000 I-1.374487 J-14.639405
G03 X282.380191 Y47.957537 Z-0.125000 I1.444266 J-19.115652
G03 X280.225250 Y47.347612 Z-0.125000 I3.160462 J-15.278095
G01 X280.221546 Y47.347612 Z-0.125000
G01 X280.216783 Y47.344966 Z-0.125000
G03 X278.234278 Y46.403200 Z-0.125000 I4.686799 J-12.423713
G03 X276.595806 Y45.239150 Z-0.125000 I5.525073 J-9.512027
G01 X276.589721 Y45.235445 Z-0.125000
G01 X276.585488 Y45.231212 Z-0.125000
G03 X275.294544 Y43.734179 Z-0.125000 I5.149675 J-5.745870
G03 X274.605243 Y42.195757 Z-0.125000 I4.364257 J-2.879074
G03 X274.424137 Y40.148333 Z-0.125000 I5.834459 J-1.547813
G03 X274.950947 Y38.537580 Z-0.125000 I3.653716 J0.303453
G03 X275.946949 Y37.263714 Z-0.125000 I6.047102 J3.701765
G03 X277.302243 Y36.141331 Z-0.125000 I6.201064 J6.108414
G01 X277.304889 Y36.141331 Z-0.125000
G01 X277.307535 Y36.138685 Z-0.125000
G03 X278.826420 Y35.233535 Z-0.125000 I11.120983 J16.934596
G03 X280.569340 Y34.381166 Z-0.125000 I11.814945 J21.950995
G01 X280.577013 Y34.376933 Z-0.125000
G01 X280.585215 Y34.372170 Z-0.125000
G02 X282.320846 Y33.596375 Z-0.125000 I-10.703807 J-26.276260
G02 X283.717825 Y32.844627 Z-0.125000 I-8.733486 J-17.903379
G01 X283.720471 Y32.841981 Z-0.125000
G01 X283.723117 Y32.839335 Z-0.125000
G02 X285.008366 Y31.933392 Z-0.125000 I-4.467734 J-7.702968
G02 X285.843935 Y31.055993 Z-0.125000 I-3.650680 J-4.313199
G02 X286.211746 Y30.184303 Z-0.125000 I-1.492988 J-1.143413
G02 X286.133309 Y28.813758 Z-0.125000 I-3.382532 J-0.493934
G02 X285.602180 Y27.717860 Z-0.125000 I-3.084846 J0.818421
G02 X284.836244 Y27.054175 Z-0.125000 I-1.913268 J1.434225
G01 X284.830688 Y27.049942 Z-0.125000
G01 X284.822486 Y27.045708 Z-0.125000
G02 X283.893513 Y26.747719 Z-0.125000 I-1.144529 J1.971016
G02 X282.554930 Y26.858145 Z-0.125000 I-0.360661 J3.796410
G02 X281.353577 Y27.279913 Z-0.125000 I2.086705 J7.865561
G02 X280.113755 Y27.938173 Z-0.125000 I3.934548 J8.907374
G02 X278.915545 Y28.755950 Z-0.125000 I9.976505 J15.904313
G02 X277.931977 Y29.551494 Z-0.125000 I8.844865 J11.941099
G01 X277.929585 Y29.552071 Z-0.125000
G01 X277.927744 Y29.554140 Z-0.125000
G02 X277.036641 Y30.466848 Z-0.125000 I10.839939 J11.474699
G02 X276.451371 Y31.187120 Z-0.125000 I6.811847 J6.133016
G02 X276.119019 Y31.985894 Z-0.125000 I2.391924 J1.463755
G01 X276.105640 Y31.986028 Z-0.125000
G01 X276.201234 Y32.274900 Z-0.125000
G02 X276.209394 Y32.287190 Z-0.125000 I1.295583 J-0.851383
G01 X276.210494 Y32.288923 Z-0.125000
G01 X276.271983 Y32.324060 Z-0.125000
G01 X276.324185 Y32.374701 Z-0.125000
G03 X276.529377 Y32.674967 Z-0.125000 I-0.636963 J0.655523
G03 X276.574296 Y33.134345 Z-0.125000 I-0.715557 J0.301853
G03 X276.404432 Y33.485710 Z-0.125000 I-0.783883 J-0.162217
G03 X276.205335 Y33.681079 Z-0.125000 I-1.090192 J-0.911865
G03 X275.959596 Y33.869230 Z-0.125000 I-1.053435 J-1.121310
G03 X275.633280 Y33.993711 Z-0.125000 I-0.489850 J-0.794158
G03 X275.252599 Y33.986320 Z-0.125000 I-0.171702 J-0.963720
G03 X274.929965 Y33.860916 Z-0.125000 I0.238456 J-1.091226
G01 X274.906682 Y33.847423 Z-0.125000
G01 X274.884986 Y33.831283 Z-0.125000
G03 X274.505352 Y33.532020 Z-0.125000 I2.754241 J-3.884351
G03 X273.695395 Y32.802426 Z-0.125000 I24.072027 J-27.537901
G01 X273.691690 Y32.799780 Z-0.125000
G01 X273.686928 Y32.795017 Z-0.125000
G03 X272.985689 Y32.123982 Z-0.125000 I725.877568 J-759.251721
G03 X272.106653 Y31.281417 Z-0.125000 I1157.656076 J-1208.646478
G02 X271.709369 Y31.213369 Z-0.125000 I-1.758689 J9.073904
G02 X271.147540 Y31.146533 Z-0.125000 I-1.416197 J9.509886
G01 X271.142513 Y31.146533 Z-0.125000
G01 X271.134311 Y31.143887 Z-0.125000
G02 X270.557312 Y31.096182 Z-0.125000 I-1.086626 J9.629528
G02 X269.890453 Y31.077741 Z-0.125000 I-0.702627 J13.342060
G02 X269.243914 Y31.142835 Z-0.125000 I0.753845 J10.730933
G02 X268.771135 Y31.223976 Z-0.125000 I0.792242 J6.034002
G02 X267.886651 Y31.530099 Z-0.125000 I0.790130 J3.713767
G02 X267.528838 Y31.786745 Z-0.125000 I0.589602 J1.199772
G02 X267.223703 Y32.247697 Z-0.125000 I1.684885 J1.446806
G02 X267.040497 Y32.786683 Z-0.125000 I1.933430 J0.957819
G02 X266.979733 Y33.397373 Z-0.125000 I3.136556 J0.620458
G02 X267.044731 Y34.239826 Z-0.125000 I5.282952 J0.016140
G01 X267.044731 Y34.242472 Z-0.125000
G02 X267.211653 Y35.200738 Z-0.125000 I37.471012 J-6.033468
G02 X267.412157 Y36.203085 Z-0.125000 I41.335907 J-7.747399
G01 X267.906186 Y38.521784 Z-0.125000
G02 X268.444677 Y40.861562 Z-0.125000 I70.615181 J-15.019938
G02 X268.976398 Y42.845547 Z-0.125000 I52.422119 J-12.986245
G02 X269.556728 Y44.824628 Z-0.125000 I227.051179 J-65.504008
G02 X270.015601 Y46.328015 Z-0.125000 I113.352464 J-33.776420
G01 X270.019834 Y46.339921 Z-0.125000
G01 X270.020249 Y46.343151 Z-0.125000
G01 X270.022480 Y46.346535 Z-0.125000
G02 X270.543559 Y47.835629 Z-0.125000 I284.165251 J-98.602320
G02 X270.907695 Y48.858010 Z-0.125000 I175.178724 J-61.816487
G03 X271.257828 Y49.896919 Z-0.125000 I-25.716961 J9.245575
G03 X271.403788 Y50.451699 Z-0.125000 I-5.733147 J1.804958
G01 X271.444614 Y50.644977 Z-0.125000
G03 X271.480465 Y51.170386 Z-0.125000 I-1.827636 J0.388639
G03 X271.368149 Y51.680052 Z-0.125000 I-1.818025 J-0.133433
G03 X270.941713 Y52.267832 Z-0.125000 I-1.153003 J-0.387927
G03 X270.280342 Y52.566802 Z-0.125000 I-1.013520 J-1.361056
G03 X269.519844 Y52.611299 Z-0.125000 I-0.526287 J-2.473672
G03 X268.257738 Y52.434008 Z-0.125000 I1.260999 J-13.557836
G01 X268.643235 Y54.934106 Z-0.125000
G02 X268.845182 Y54.987696 Z-0.125000 I6.562020 J-24.320741
G03 X269.086121 Y55.057613 Z-0.125000 I-1.165042 J4.464903
G03 X269.911770 Y55.318620 Z-0.125000 I-4.745890 J16.449180
G03 X270.767651 Y55.635859 Z-0.125000 I-6.325296 J18.378221
G01 X270.771885 Y55.638505 Z-0.125000
G01 X270.776383 Y55.638505 Z-0.125000
G03 X271.674001 Y56.032827 Z-0.125000 I-8.833685 J21.327452
G03 X272.395419 Y56.390397 Z-0.125000 I-6.787692 J14.601092
G03 X272.754209 Y56.596244 Z-0.125000 I-2.700339 J5.122270
G03 X273.020179 Y56.786742 Z-0.125000 I-1.331700 J2.140218
G03 X273.241890 Y57.004441 Z-0.125000 I-1.099220 J1.341229
G03 X273.434622 Y57.396024 Z-0.125000 I-0.678680 J0.577257
G03 X273.436417 Y57.768428 Z-0.125000 I-0.896207 J0.190526
G03 X273.373662 Y58.013561 Z-0.125000 I-2.442555 J-0.494705
G03 X273.276924 Y58.282557 Z-0.125000 I-3.220227 J-1.006177
G03 X273.121990 Y58.638321 Z-0.125000 I-7.767458 J-3.171085
G03 X272.776796 Y59.333292 Z-0.125000 I-12.986691 J-6.017313
G03 X272.336496 Y60.116784 Z-0.125000 I-16.628634 J-8.829343
G03 X271.857455 Y60.872550 Z-0.125000 I-13.231676 J-7.857181
G03 X271.394951 Y61.521349 Z-0.125000 I-13.055364 J-8.817407
G03 X270.951313 Y62.047926 Z-0.125000 I-4.962210 J-3.730462
G03 X270.447215 Y62.338858 Z-0.125000 I-0.736408 J-0.693785
G03 X269.929896 Y62.392300 Z-0.125000 I-0.465180 J-1.972409
G03 X269.732021 Y62.360025 Z-0.125000 I0.019029 J-0.739379
G03 X269.474982 Y62.277693 Z-0.125000 I3.121624 J-10.188157
G03 X269.062282 Y62.137828 Z-0.125000 I16.808811 J-50.276374
G03 X268.275631 Y61.855845 Z-0.125000 I3.799616 J-11.838102
G03 X267.349213 Y61.457744 Z-0.125000 I6.629085 J-16.703458
G03 X266.481324 Y61.050339 Z-0.125000 I12.720935 J-28.227370
G03 X265.879533 Y60.747709 Z-0.125000 I12.763414 J-26.130130
G03 X265.359978 Y60.465553 Z-0.125000 I6.782590 J-13.108721
G03 X265.098723 Y60.293499 Z-0.125000 I1.194408 J-2.098034
G03 X264.863588 Y60.079314 Z-0.125000 I1.046042 J-1.384514
G03 X264.653271 Y59.670274 Z-0.125000 I0.647596 J-0.591566
G03 X264.651595 Y59.299113 Z-0.125000 I0.891506 J-0.189610
G03 X264.714231 Y59.054801 Z-0.125000 I2.451096 J0.498218
G03 X264.810941 Y58.784903 Z-0.125000 I3.319818 J1.037295
G03 X264.965902 Y58.427977 Z-0.125000 I7.420247 J3.009423
G01 X264.977808 Y58.402577 Z-0.125000
G01 X264.993419 Y58.379294 Z-0.125000
G03 X265.378958 Y57.736062 Z-0.125000 I27.604765 J16.108554
G03 X265.833178 Y57.017618 Z-0.125000 I29.950359 J18.432633
G03 X266.304534 Y56.308936 Z-0.125000 I30.852985 J20.009732
G03 X266.735433 Y55.693671 Z-0.125000 I24.909635 J16.986848
G01 X266.751573 Y55.671975 Z-0.125000
G01 X266.770623 Y55.650808 Z-0.125000
G03 X267.026833 Y55.367023 Z-0.125000 I8.647569 J7.549763
G03 X267.214011 Y55.180036 Z-0.125000 I2.773371 J2.589013
G03 X267.371785 Y55.041875 Z-0.125000 I2.313400 J2.482648
G03 X267.729736 Y54.869468 Z-0.125000 I0.532070 J0.646891
G03 X268.146601 Y54.846451 Z-0.125000 I0.282424 J1.328591
G03 X268.557087 Y54.917516 Z-0.125000 I-0.285471 J2.869998
G01 X268.173124 Y52.427235 Z-0.125000
G02 X268.154093 Y52.424065 Z-0.125000 I-0.058450 J0.292251
G03 X268.134892 Y52.420885 Z-0.125000 I0.040858 J-0.306205
G03 X266.759404 Y52.166489 Z-0.125000 I4.475922 J-28.046533
G03 X265.240486 Y51.809566 Z-0.125000 I6.902781 J-32.785785
G01 X264.591940 Y51.641608 Z-0.125000
G03 X263.996253 Y51.737481 Z-0.125000 I-54.302540 J-335.532799
G02 X262.892833 Y51.914976 Z-0.125000 I109.690769 J685.493781
G01 X259.674430 Y52.436919 Z-0.125000
G02 X257.978317 Y52.723709 Z-0.125000 I19.022226 J117.658669
G02 X256.482897 Y53.001221 Z-0.125000 I15.076003 J85.407366
G02 X254.988581 Y53.324418 Z-0.125000 I7.155354 J36.699221
G02 X254.498525 Y53.464241 Z-0.125000 I1.325470 J5.574237
G03 X253.772228 Y54.105890 Z-0.125000 I-3.705951 J-3.462972
G03 X252.297110 Y55.043987 Z-0.125000 I-8.356880 J-11.512012
G03 X250.299629 Y55.888137 Z-0.125000 I-5.000262 J-9.046572
G03 X247.238510 Y56.596878 Z-0.125000 I-6.793509 J-22.376826
G03 X246.308691 Y56.710380 Z-0.125000 I-1.927848 J-11.927787
G03 X245.273775 Y56.759120 Z-0.125000 I-1.201077 J-14.491080
G01 X245.272717 Y56.764412 Z-0.125000
G01 X245.019500 Y56.764412 Z-0.125000
G03 X244.135640 Y56.742158 Z-0.125000 I0.000000 J-17.563497
G03 X243.272840 Y56.679136 Z-0.125000 I0.964592 J-19.143455
G01 X243.268636 Y56.677935 Z-0.125000
G01 X243.263024 Y56.676491 Z-0.125000
G03 X242.281752 Y56.598587 Z-0.125000 I0.748232 J-15.643598
G03 X241.368570 Y56.465671 Z-0.125000 I1.504163 J-13.537600
G01 X241.360315 Y56.465671 Z-0.125000
G03 X240.523838 Y56.314433 Z-0.125000 I1.768526 J-12.170299
G03 X239.836893 Y56.132852 Z-0.125000 I1.673513 J-7.721317
G01 X239.829141 Y56.130206 Z-0.125000
G01 X239.822950 Y56.127560 Z-0.125000
G03 X238.801963 Y55.753653 Z-0.125000 I6.451807 J-19.198134
G03 X237.543506 Y55.225306 Z-0.125000 I12.852916 J-32.376939
G03 X236.276014 Y54.593247 Z-0.125000 I3.511767 J-8.629195
G03 X234.959687 Y53.683792 Z-0.125000 I6.229377 J-10.423618
G01 X234.953495 Y53.677972 Z-0.125000
G01 X234.949871 Y53.673738 Z-0.125000
G03 X233.811893 Y52.548689 Z-0.125000 I6.038351 J-7.245789
G03 X232.725204 Y51.070268 Z-0.125000 I9.659442 J-8.238604
G01 X232.721076 Y51.062595 Z-0.125000
G01 X232.716949 Y51.056774 Z-0.125000
G03 X232.570034 Y50.747577 Z-0.125000 I1.601575 J-0.950488
G02 X232.431178 Y50.422198 Z-0.125000 I-3.206177 J1.175926
G01 X229.627736 Y50.401032 Z-0.125000
G03 X229.531504 Y52.438255 Z-0.125000 I-14.005919 J0.359292
G03 X229.100636 Y54.153268 Z-0.125000 I-6.980183 J-0.842022
G03 X228.107550 Y56.048915 Z-0.125000 I-9.052242 J-3.534314
G03 X226.793803 Y57.573215 Z-0.125000 I-7.061400 J-4.757711
G03 X225.187761 Y58.813515 Z-0.125000 I-6.832127 J-7.186831
G03 X223.243121 Y59.776689 Z-0.125000 I-6.014307 J-9.698148
G03 X221.221222 Y60.406902 Z-0.125000 I-5.611104 J-14.443479
G03 X219.065085 Y60.772500 Z-0.125000 I-3.852437 J-16.179192
G03 X217.873406 Y60.828401 Z-0.125000 I-1.101002 J-10.740962
G03 X216.701925 Y60.752921 Z-0.125000 I0.088159 J-10.496924
G03 X215.628823 Y60.629123 Z-0.125000 I1.673902 J-19.222530
G03 X214.629703 Y60.454233 Z-0.125000 I2.372591 J-16.495599
G01 X214.625576 Y60.454233 Z-0.125000
G01 X214.619887 Y60.451587 Z-0.125000
G03 X213.687156 Y60.222432 Z-0.125000 I4.900498 J-21.959337
G03 X212.832917 Y59.970999 Z-0.125000 I4.810905 J-17.921777
G01 X212.824662 Y59.968353 Z-0.125000
G01 X212.818471 Y59.964120 Z-0.125000
G03 X212.048807 Y59.678973 Z-0.125000 I6.615827 J-19.038665
G03 X211.488838 Y59.438552 Z-0.125000 I3.675618 J-9.333267
G01 X211.483727 Y59.436725 Z-0.125000
G01 X211.478493 Y59.434054 Z-0.125000
G03 X210.312882 Y58.878163 Z-0.125000 I5.318806 J-12.652654
G03 X208.836283 Y58.022239 Z-0.125000 I12.123335 J-22.616234
G01 X208.833254 Y58.020928 Z-0.125000
G01 X208.830091 Y58.018006 Z-0.125000
G03 X207.406862 Y57.023313 Z-0.125000 I6.049832 J-10.171777
G03 X205.949134 Y55.674488 Z-0.125000 I9.927333 J-12.190984
G01 X205.947018 Y55.671843 Z-0.125000
G03 X204.721053 Y54.156098 Z-0.125000 I9.319340 J-8.791337
G03 X203.576108 Y52.242080 Z-0.125000 I14.163375 J-9.771831
G03 X202.749018 Y50.122976 Z-0.125000 I9.925734 J-5.094992
G03 X202.253709 Y47.491995 Z-0.125000 I15.392159 J-4.259843
G03 X202.193145 Y45.202038 Z-0.125000 I15.060537 J-1.544095
G03 X202.474366 Y43.062293 Z-0.125000 I13.256201 J0.653874
G01 X202.476483 Y43.056737 Z-0.125000
G01 X202.478599 Y43.050651 Z-0.125000
G03 X202.784650 Y42.291731 Z-0.125000 I2.684120 J0.641257
G02 X203.132820 Y41.575813 Z-0.125000 I-4.319949 J-2.543531
G03 X202.900946 Y41.475669 Z-0.125000 I1.966970 J-4.872859
G02 X202.646546 Y41.371158 Z-0.125000 I-1.372664 J2.979445
G02 X201.875715 Y41.126786 Z-0.125000 I-3.370124 J9.292577
G02 X200.972749 Y40.915890 Z-0.125000 I-3.328072 J12.210880
G02 X200.086601 Y40.798758 Z-0.125000 I-1.395963 J7.150433
G02 X199.287067 Y40.796536 Z-0.125000 I-0.416261 J5.933918
G02 X198.399828 Y40.993142 Z-0.125000 I0.191773 J2.965692
G02 X197.488212 Y41.505513 Z-0.125000 I1.355809 J3.479433
G02 X196.740801 Y42.265805 Z-0.125000 I2.296216 J3.004833
G02 X196.523415 Y42.730241 Z-0.125000 I1.050859 J0.774962
G02 X196.415624 Y43.471682 Z-0.125000 I4.837527 J1.081838
G02 X196.388539 Y44.847435 Z-0.125000 I14.002426 J0.963819
G01 X196.576123 Y47.745968 Z-0.125000
G01 X196.775595 Y50.833625 Z-0.125000
G01 X196.777711 Y50.849764 Z-0.125000
G03 X196.941246 Y52.659369 Z-0.125000 I-641.751469 J58.907587
G03 X197.127046 Y54.759613 Z-0.125000 I-2187.548778 J194.581069
G01 X197.129691 Y54.773636 Z-0.125000
G03 X197.351982 Y56.888660 Z-0.125000 I-171.245471 J19.067209
G03 X197.557572 Y59.101526 Z-0.125000 I-187.300873 J18.517527
G01 X197.557572 Y59.088032 Z-0.125000
G02 X197.815411 Y61.340557 Z-0.125000 I187.635330 J-20.336963
G02 X198.088805 Y63.493948 Z-0.125000 I170.851894 J-20.597227
G01 X198.088805 Y63.498710 Z-0.125000
G01 X198.088805 Y63.502944 Z-0.125000
G02 X198.426972 Y66.197355 Z-0.125000 I229.986719 J-27.496483
G02 X198.672747 Y67.951775 Z-0.125000 I103.716802 J-13.635196
G01 X198.672747 Y67.954420 Z-0.125000
G02 X198.954952 Y69.757721 Z-0.125000 I92.074060 J-13.485253
G02 X199.149203 Y70.810065 Z-0.125000 I30.173702 J-5.025634
G01 X199.151320 Y70.812711 Z-0.125000
G01 X199.151320 Y70.815356 Z-0.125000
G02 X199.419084 Y71.921285 Z-0.125000 I12.889394 J-2.535363
G02 X199.553878 Y72.276251 Z-0.125000 I2.225742 J-0.642118
G01 X199.557502 Y72.286041 Z-0.125000
G01 X199.561630 Y72.294243 Z-0.125000
G02 X199.738417 Y72.574444 Z-0.125000 I1.017739 J-0.446253
G01 X199.738879 Y72.587745 Z-0.125000
G02 X200.210742 Y72.686950 Z-0.125000 I1.436313 J-5.659948
G01 X200.210168 Y72.698341 Z-0.125000
G03 X200.515700 Y72.692475 Z-0.125000 I0.217181 J3.352325
G03 X200.854573 Y72.713951 Z-0.125000 I-0.120747 J4.589564
G01 X200.877830 Y72.716597 Z-0.125000
G01 X200.903653 Y72.720830 Z-0.125000
G03 X201.344213 Y72.943375 Z-0.125000 I-0.156263 J0.856695
G03 X201.616270 Y73.300637 Z-0.125000 I-0.937473 J0.996108
G03 X201.789394 Y73.704374 Z-0.125000 I-1.193726 J0.750861
G03 X201.829178 Y74.138836 Z-0.125000 I-1.348924 J0.342572
G03 X201.790955 Y74.530060 Z-0.125000 I-1.542079 J0.046819
G03 X201.641594 Y74.904169 Z-0.125000 I-1.273970 J-0.291757
G03 X201.524502 Y75.100071 Z-0.125000 I-1.185028 J-0.575354
G03 X201.315514 Y75.289667 Z-0.125000 I-0.552445 J-0.398972
G03 X201.002582 Y75.392578 Z-0.125000 I-0.397398 J-0.681170
G03 X200.733640 Y75.382694 Z-0.125000 I-0.100401 J-0.931993
G01 X200.692296 Y75.377402 Z-0.125000
G01 X200.655606 Y75.363379 Z-0.125000
G02 X200.511812 Y75.326765 Z-0.125000 I-0.360137 J1.113673
G02 X199.969863 Y75.244529 Z-0.125000 I-1.434880 J7.629218
G02 X199.431142 Y75.185924 Z-0.125000 I-4.531415 J39.149466
G02 X198.792156 Y75.125149 Z-0.125000 I-4.884250 J47.963100
G03 X198.166810 Y75.105883 Z-0.125000 I0.281208 J-19.286704
G03 X197.497147 Y75.064692 Z-0.125000 I1.093617 J-23.243187
G02 X196.874453 Y75.068544 Z-0.125000 I-0.206104 J17.014070
G02 X196.307558 Y75.093637 Z-0.125000 I0.351751 J14.362709
G03 X195.377353 Y75.153208 Z-0.125000 I-65.556813 J-1016.587843
G02 X193.961966 Y75.244000 Z-0.125000 I80.060348 J1259.388141
G01 X193.940773 Y75.246645 Z-0.125000
G03 X192.569969 Y75.373876 Z-0.125000 I-9.239280 J-92.097363
G03 X191.530586 Y75.451803 Z-0.125000 I-4.310487 J-50.522230
G01 X191.530057 Y75.454449 Z-0.125000
G03 X190.682020 Y75.354259 Z-0.125000 I-0.151966 J-2.352836
G03 X189.996819 Y74.933035 Z-0.125000 I0.477101 J-1.544010
G03 X189.584468 Y74.255872 Z-0.125000 I1.299625 J-1.255524
G03 X189.407191 Y73.358978 Z-0.125000 I3.324154 J-1.123007
G01 X189.407191 Y73.356332 Z-0.125000
G03 X189.455450 Y73.051592 Z-0.125000 I0.701475 J-0.045105
G03 X189.672808 Y72.764645 Z-0.125000 I0.627187 J0.249289
G03 X189.944316 Y72.636313 Z-0.125000 I0.435376 J0.569731
G03 X190.108439 Y72.612192 Z-0.125000 I0.224188 J0.955018
G02 X190.230631 Y72.597979 Z-0.125000 I-0.069906 J-1.133317
G02 X190.432450 Y72.553799 Z-0.125000 I-0.384109 J-2.237709
G01 X190.488777 Y72.537659 Z-0.125000
G01 X190.549756 Y72.533426 Z-0.125000
G02 X190.739270 Y72.505447 Z-0.125000 I-0.067729 J-1.114569
G02 X190.946114 Y72.439367 Z-0.125000 I-0.326187 J-1.377806
G01 X190.996755 Y72.418200 Z-0.125000
G01 X191.049466 Y72.407881 Z-0.125000
G02 X191.171284 Y72.362194 Z-0.125000 I-0.088213 J-0.420458
G02 X191.420504 Y72.175842 Z-0.125000 I-0.581264 J-1.037182
G01 X191.424631 Y72.173196 Z-0.125000
G01 X191.426748 Y72.168963 Z-0.125000
G02 X191.542811 Y72.026782 Z-0.125000 I-0.500141 J-0.526730
G02 X191.770396 Y71.567460 Z-0.125000 I-2.224630 J-1.388305
G01 X191.774524 Y71.557141 Z-0.125000
G01 X191.778148 Y71.547352 Z-0.125000
G02 X191.843087 Y71.315044 Z-0.125000 I-0.881437 J-0.371624
G02 X191.989505 Y69.619838 Z-0.125000 I-14.035789 J-2.066225
G02 X191.981159 Y68.471497 Z-0.125000 I-22.339456 J-0.411833
G02 X191.885635 Y66.514083 Z-0.125000 I-62.013600 J2.045285
G01 X191.883519 Y66.506411 Z-0.125000
G01 X191.883519 Y66.498208 Z-0.125000
G02 X191.791107 Y64.535563 Z-0.125000 I-131.267894 J5.197304
G02 X191.600330 Y61.334183 Z-0.125000 I-320.698644 J17.504689
G02 X191.410015 Y58.735867 Z-0.125000 I-151.202411 J9.768756
G02 X191.137828 Y55.693724 Z-0.125000 I-202.342304 J16.570739
G01 X191.135712 Y55.687374 Z-0.125000
G01 X191.135712 Y55.683669 Z-0.125000
G02 X190.933506 Y53.346299 Z-0.125000 I-217.582687 J17.645602
G02 X190.723335 Y51.099451 Z-0.125000 I-702.082523 J64.539813
G01 X186.468819 Y51.099451 Z-0.125000
G03 X186.653297 Y52.121916 Z-0.125000 I-10.439278 J2.411380
G03 X186.739088 Y53.193388 Z-0.125000 I-10.641121 J1.391186
G03 X186.542743 Y55.816814 Z-0.125000 I-12.603742 J0.375759
G03 X185.874026 Y57.890768 Z-0.125000 I-8.102933 J-1.467890
G03 X184.747133 Y59.709616 Z-0.125000 I-8.791627 J-4.188464
G03 X183.327415 Y61.135005 Z-0.125000 I-6.688607 J-5.242263
G03 X181.634064 Y62.256552 Z-0.125000 I-6.276543 J-7.637430
G03 X179.622218 Y63.076489 Z-0.125000 I-5.304857 J-10.138157
G03 X177.561304 Y63.558831 Z-0.125000 I-4.570382 J-14.883951
G03 X175.385789 Y63.767924 Z-0.125000 I-2.667970 J-16.336855
G01 X175.384731 Y63.767924 Z-0.125000
G03 X174.190349 Y63.736158 Z-0.125000 I-0.315659 J-10.601606
G03 X173.025706 Y63.574117 Z-0.125000 I0.881231 J-10.599998
G03 X171.966508 Y63.374416 Z-0.125000 I3.168132 J-19.712347
G03 X170.984491 Y63.129194 Z-0.125000 I3.417559 J-15.774879
G01 X170.980866 Y63.126548 Z-0.125000
G01 X170.976739 Y63.126548 Z-0.125000
G03 X170.061612 Y62.829144 Z-0.125000 I6.232042 J-20.732927
G03 X169.226459 Y62.515229 Z-0.125000 I6.377728 J-18.235500
G01 X169.220770 Y62.512583 Z-0.125000
G01 X169.213018 Y62.509937 Z-0.125000
G03 X168.466562 Y62.169408 Z-0.125000 I7.675436 J-17.813279
G03 X167.925761 Y61.888776 Z-0.125000 I4.481137 J-9.296935
G01 X167.921079 Y61.887011 Z-0.125000
G02 X167.915945 Y61.882955 Z-0.125000 I-0.041142 J0.046806
G03 X166.791339 Y61.242739 Z-0.125000 I6.225395 J-12.243416
G03 X165.377086 Y60.279450 Z-0.125000 I13.751770 J-21.709459
G03 X164.029888 Y59.184724 Z-0.125000 I6.765395 J-9.701980
G03 X162.673894 Y57.734373 Z-0.125000 I10.783437 J-11.440951
G01 X162.673894 Y57.731727 Z-0.125000
G01 X162.671248 Y57.731727 Z-0.125000
G03 X161.557872 Y56.131379 Z-0.125000 I9.947954 J-8.108349
G03 X160.554068 Y54.139695 Z-0.125000 I14.803442 J-8.709695
G03 X160.366940 Y53.581102 Z-0.125000 I3.452587 J-1.467254
G02 X160.204737 Y52.994554 Z-0.125000 I-11.741593 J2.931305
G01 X156.430812 Y52.994554 Z-0.125000
G03 X156.522651 Y54.236482 Z-0.125000 I-26.213732 J2.562830
G03 X156.538815 Y55.534445 Z-0.125000 I-17.189419 J0.863146
G03 X156.292065 Y57.476365 Z-0.125000 I-9.696028 J-0.245385
G03 X155.700624 Y59.124386 Z-0.125000 I-7.300855 J-1.689992
G03 X154.778814 Y60.632607 Z-0.125000 I-8.088758 J-3.907956
G03 X153.614966 Y61.880309 Z-0.125000 I-6.588451 J-4.978997
G03 X152.220304 Y62.858590 Z-0.125000 I-5.339670 J-6.129097
G03 X150.606885 Y63.554088 Z-0.125000 I-4.282503 J-7.715412
G03 X148.926125 Y63.979217 Z-0.125000 I-3.066231 J-8.587386
G03 X147.077906 Y64.097224 Z-0.125000 I-1.587027 J-10.323640
G01 X147.075789 Y64.097224 Z-0.125000
G03 X145.469943 Y63.911360 Z-0.125000 I0.227511 J-8.995795
G03 X143.882191 Y63.436798 Z-0.125000 I1.982262 J-9.525470
G03 X142.395696 Y62.801577 Z-0.125000 I4.903477 J-13.531633
G03 X140.944907 Y61.980030 Z-0.125000 I6.705327 J-13.532870
G03 X139.634860 Y61.091973 Z-0.125000 I11.846058 J-18.885399
G03 X138.366773 Y60.096940 Z-0.125000 I13.953258 J-19.087834
G03 X137.709486 Y59.540827 Z-0.125000 I9.961081 J-12.439791
G02 X137.114655 Y59.014849 Z-0.125000 I-51.045114 J57.127778
G02 X137.107862 Y61.302301 Z-0.125000 I706.740956 J3.242606
G02 X137.116772 Y63.559776 Z-0.125000 I213.039832 J0.287919
G01 X137.116772 Y63.569566 Z-0.125000
G02 X137.199825 Y66.420614 Z-0.125000 I523.581023 J-13.825699
G02 X137.281101 Y68.732030 Z-0.125000 I349.959176 J-11.148431
G01 X137.281101 Y68.743936 Z-0.125000
G02 X137.439585 Y71.102643 Z-0.125000 I129.619253 J-7.524540
G02 X137.575656 Y72.617061 Z-0.125000 I56.504058 J-4.313612
G02 X137.665752 Y73.371156 Z-0.125000 I23.871173 J-2.469579
G02 X137.734303 Y73.792709 Z-0.125000 I7.995416 J-1.083829
G02 X137.825448 Y74.134258 Z-0.125000 I2.372204 J-0.450101
G01 X137.822153 Y74.140477 Z-0.125000
G01 X137.837657 Y74.144710 Z-0.125000
G01 X137.872796 Y74.156087 Z-0.125000
G03 X138.166840 Y74.262532 Z-0.125000 I-127.551067 J352.812071
G02 X138.460874 Y74.368997 Z-0.125000 I152.937082 J-421.932180
G03 X138.802929 Y74.513309 Z-0.125000 I-1.206904 J3.338205
G03 X139.115096 Y74.687343 Z-0.125000 I-1.368003 J2.820770
G03 X139.500795 Y75.107824 Z-0.125000 I-0.591507 J0.929717
G03 X139.628760 Y75.658337 Z-0.125000 I-1.005060 J0.523751
G01 X139.628760 Y75.660982 Z-0.125000
G03 X139.599976 Y76.005242 Z-0.125000 I-2.906138 J-0.069654
G03 X139.548662 Y76.273862 Z-0.125000 I-2.951126 J-0.424526
G03 X139.387759 Y76.696105 Z-0.125000 I-0.814343 J-0.068542
G03 X139.058253 Y76.936378 Z-0.125000 I-0.557914 J-0.419037
G03 X138.884454 Y76.980268 Z-0.125000 I-0.342239 J-0.989178
G03 X138.747677 Y76.992179 Z-0.125000 I-0.147900 J-0.907095
G03 X138.609445 Y76.984698 Z-0.125000 I-0.000000 J-1.280827
G03 X138.476376 Y76.967308 Z-0.125000 I0.332049 J-3.058725
G01 X138.474789 Y76.967308 Z-0.125000
G01 X138.416395 Y76.959106 Z-0.125000
G01 X138.359550 Y76.940056 Z-0.125000
G02 X138.153798 Y76.874980 Z-0.125000 I-0.902775 J2.496526
G02 X137.197350 Y76.631552 Z-0.125000 I-7.876156 J28.945331
G01 X137.195234 Y76.631552 Z-0.125000
G01 X137.191609 Y76.628906 Z-0.125000
G02 X136.346167 Y76.449595 Z-0.125000 I-2.987296 J12.002140
G02 X135.298705 Y76.296643 Z-0.125000 I-3.155240 J17.944926
G02 X134.035464 Y76.182717 Z-0.125000 I-5.397956 J52.793375
G02 X132.523682 Y76.080108 Z-0.125000 I-5.774260 J73.886726
G02 X131.003085 Y76.004655 Z-0.125000 I-5.493553 J95.350103
G02 X129.582265 Y75.957130 Z-0.125000 I-3.617412 J86.885836
G03 X128.696816 Y75.775908 Z-0.125000 I0.065464 J-2.573611
G03 X127.988050 Y75.296704 Z-0.125000 I0.736621 J-1.853253
G03 X127.546049 Y74.578738 Z-0.125000 I1.478089 J-1.404992
G03 X127.408240 Y73.720584 Z-0.125000 I2.231716 J-0.798528
G03 X127.537960 Y73.339057 Z-0.125000 I0.677328 J0.017478
G03 X127.804598 Y73.119054 Z-0.125000 I0.561880 J0.409404
G03 X128.063017 Y73.048275 Z-0.125000 I0.333843 J0.711740
G03 X128.222658 Y73.042590 Z-0.125000 I0.126758 J1.315112
G01 X128.283120 Y73.042590 Z-0.125000
G01 X128.339963 Y73.056613 Z-0.125000
G02 X128.461317 Y73.072834 Z-0.125000 I0.149206 J-0.654160
G02 X128.668110 Y73.062698 Z-0.125000 I0.047547 J-1.144439
G01 X128.673798 Y73.060052 Z-0.125000
G01 X128.682053 Y73.060052 Z-0.125000
G02 X128.894321 Y73.013484 Z-0.125000 I-0.125624 J-1.079692
G02 X129.164195 Y72.897783 Z-0.125000 I-0.513890 J-1.571252
G01 X129.207603 Y72.874500 Z-0.125000
G01 X129.252045 Y72.858890 Z-0.125000
G02 X129.393746 Y72.777284 Z-0.125000 I-0.142544 J-0.411345
G02 X129.588457 Y72.544168 Z-0.125000 I-0.609222 J-0.706729
G01 X129.590044 Y72.540993 Z-0.125000
G01 X129.592161 Y72.536760 Z-0.125000
G02 X129.746993 Y72.248012 Z-0.125000 I-2.681939 J-1.623992
G02 X129.906869 Y71.862893 Z-0.125000 I-4.063343 J-1.912581
G01 X129.910996 Y71.853104 Z-0.125000
G01 X129.914621 Y71.841198 Z-0.125000
G02 X129.977180 Y71.638765 Z-0.125000 I-1.162626 J-0.470176
G02 X130.215375 Y70.312093 Z-0.125000 I-17.561662 J-3.837801
G02 X130.316958 Y69.310509 Z-0.125000 I-26.746832 J-3.218647
G02 X130.498564 Y66.854946 Z-0.125000 I-143.213854 J-11.826178
G01 X130.498564 Y66.849919 Z-0.125000
G01 X130.498564 Y66.843304 Z-0.125000
G02 X130.664120 Y64.401310 Z-0.125000 I-69.624099 J-5.946806
G02 X130.797770 Y60.860712 Z-0.125000 I-142.147411 J-7.138592
G02 X130.823780 Y58.949758 Z-0.125000 I-81.857449 J-2.069822
G02 X130.807586 Y56.536950 Z-0.125000 I-139.444523 J-0.270545
G01 X130.807586 Y56.531393 Z-0.125000
G01 X130.807586 Y56.524779 Z-0.125000
G02 X130.795818 Y54.116415 Z-0.125000 I-122.099799 J-0.607602
G02 X130.735239 Y51.605175 Z-0.125000 I-134.028769 J1.976884
G01 X130.735239 Y51.599090 Z-0.125000
G01 X130.735239 Y51.592740 Z-0.125000
G02 X130.675787 Y49.085185 Z-0.125000 I-128.996387 J1.803917
G02 X130.567289 Y46.573415 Z-0.125000 I-128.957307 J4.312153
G02 X130.505546 Y45.542988 Z-0.125000 I-97.190621 J5.306593
G03 X130.445332 Y44.584915 Z-0.125000 I200.837677 J-13.103337
G01 X130.137861 Y44.436616 Z-0.125000
G02 X130.083687 Y44.632703 Z-0.125000 I3.485027 J1.068347
G03 X129.994716 Y44.826241 Z-0.125000 I-0.549681 J-0.135473
G03 X129.588903 Y45.178095 Z-0.125000 I-0.840417 J-0.559350
G03 X129.096581 Y45.268069 Z-0.125000 I-0.412399 J-0.864646
G03 X128.973401 Y45.216662 Z-0.125000 I0.019211 J-0.219317
G02 X128.873855 Y45.148715 Z-0.125000 I-0.373979 J0.441006
G01 X128.731229 Y45.134692 Z-0.125000
G01 X128.606171 Y45.006026 Z-0.125000
G01 X128.600002 Y45.003126 Z-0.125000
G01 X128.594291 Y44.999940 Z-0.125000
G01 X128.573098 Y44.974540 Z-0.125000
G02 X127.585185 Y44.120679 Z-0.125000 I-5.682629 J5.576341
G02 X126.113820 Y43.187573 Z-0.125000 I-7.851282 J10.753649
G02 X124.598659 Y42.624332 Z-0.125000 I-3.144394 J6.139087
G02 X121.920802 Y42.189698 Z-0.125000 I-4.135368 J17.012058
G02 X119.968560 Y42.189399 Z-0.125000 I-0.977913 J11.707239
G02 X118.242992 Y42.490450 Z-0.125000 I0.810901 J9.743792
